src/assets/LUTs/proLUTs/Bonboa.cube
TITLE "BONBOA by rossandhisjpegs"
#LUMIXPHOTOSTYLE VIVD
LUT_3D_SIZE 9
DOMAIN_MIN 0.0 0.0 0.0
DOMAIN_MAX 1.0 1.0 1.0
0.035294 0.039216 0.035294
0.100490 0.039216 0.031373
0.193137 0.042157 0.031373
0.275490 0.047059 0.027451
0.347058 0.047059 0.027451
0.418627 0.047059 0.027451
0.473529 0.047059 0.027451
0.529902 0.047059 0.026961
0.572549 0.047059 0.023529
0.035294 0.077451 0.035294
0.096140 0.077451 0.035294
0.196079 0.080515 0.034804
0.289706 0.085601 0.031373
0.383579 0.089216 0.031373
0.468812 0.089216 0.027451
0.542647 0.089216 0.027451
0.607353 0.089216 0.027451
0.665196 0.093138 0.027451
0.039216 0.142157 0.035294
0.081373 0.146079 0.035294
0.185049 0.146079 0.037500
0.296079 0.153922 0.039216
0.406863 0.160784 0.039216
0.509314 0.161765 0.038235
0.604902 0.164706 0.038235
0.696446 0.168628 0.038235
0.772549 0.176471 0.046078
0.057353 0.226961 0.039216
0.099510 0.238725 0.043137
0.187255 0.250123 0.043137
0.305453 0.256863 0.045588
0.438480 0.263480 0.048284
0.565196 0.268628 0.055821
0.679412 0.272916 0.065196
0.778922 0.276471 0.069118
0.851961 0.281863 0.073039
0.090196 0.333333 0.050980
0.140196 0.354412 0.050980
0.227451 0.373529 0.050980
0.336029 0.382353 0.050980
0.464706 0.386274 0.060784
0.604657 0.388235 0.074510
0.730392 0.392157 0.084804
0.836275 0.384314 0.084069
0.900000 0.376470 0.082353
0.140196 0.460784 0.075980
0.197855 0.476287 0.072549
0.278064 0.490074 0.064216
0.376532 0.500000 0.060294
0.494363 0.503186 0.069363
0.630882 0.502451 0.078431
0.771078 0.503921 0.088358
0.867831 0.492157 0.087745
0.923039 0.478922 0.086275
0.190196 0.573529 0.102941
0.248039 0.587868 0.099142
0.325245 0.599265 0.088236
0.420711 0.612745 0.075490
0.538725 0.620588 0.075000
0.657843 0.612377 0.078431
0.796079 0.616667 0.091176
0.883333 0.608824 0.090196
0.933333 0.600980 0.090196
0.239706 0.688236 0.129902
0.298039 0.706924 0.122488
0.378431 0.718260 0.111274
0.470895 0.727267 0.095895
0.579166 0.734804 0.086275
0.693138 0.726961 0.082843
0.811764 0.731863 0.094118
0.891605 0.731311 0.094118
0.937255 0.723040 0.094118
0.294118 0.788235 0.149020
0.351961 0.796078 0.145098
0.432353 0.803922 0.134314
0.521078 0.810294 0.117647
0.621569 0.815686 0.101961
0.739216 0.811765 0.098039
0.834314 0.814706 0.101961
0.902451 0.807843 0.101961
0.937255 0.800000 0.101961
0.031373 0.043137 0.089216
0.081802 0.039216 0.081802
0.184804 0.039584 0.067034
0.270282 0.043137 0.062255
0.343383 0.047059 0.061765
0.410784 0.047059 0.058334
0.472549 0.047059 0.054412
0.526470 0.047059 0.054412
0.576471 0.047059 0.054412
0.031373 0.084866 0.093138
0.080944 0.081373 0.081802
0.187378 0.081694 0.073530
0.282292 0.085601 0.069340
0.372518 0.089216 0.066177
0.458663 0.089216 0.062255
0.539216 0.090564 0.062194
0.611275 0.093138 0.061765
0.673039 0.097059 0.065258
0.035294 0.150000 0.089216
0.084314 0.152941 0.081802
0.183333 0.153922 0.076807
0.298790 0.157843 0.074020
0.406373 0.164706 0.075306
0.511321 0.168628 0.076731
0.611029 0.173530 0.081740
0.706878 0.180714 0.088235
0.784313 0.190809 0.096078
0.057353 0.238235 0.092954
0.107782 0.250107 0.089484
0.193627 0.265594 0.082261
0.318022 0.268628 0.083134
0.454259 0.274265 0.091759
0.583027 0.282483 0.106012
0.698529 0.289093 0.115242
0.790625 0.295772 0.123200
0.861091 0.297549 0.128248
0.098040 0.350980 0.110784
0.151961 0.372028 0.114215
0.235294 0.389644 0.098652
0.349020 0.399111 0.092494
0.477329 0.401471 0.105147
0.620098 0.405484 0.123437
0.745956 0.407598 0.132353
0.844118 0.403860 0.138235
0.902206 0.395588 0.138235
0.142831 0.476471 0.137745
0.200490 0.494011 0.137584
0.280270 0.505484 0.122457
0.381373 0.516958 0.107292
0.505392 0.521967 0.111672
0.643336 0.523345 0.126172
0.781863 0.523269 0.136275
0.869424 0.519117 0.144118
0.921569 0.507353 0.141483
0.186765 0.591789 0.164706
0.243367 0.607032 0.160784
0.319056 0.619210 0.145956
0.417387 0.632169 0.126593
0.544608 0.643628 0.119302
0.671691 0.643628 0.126593
0.800214 0.643628 0.136275
0.883333 0.643628 0.148040
0.933333 0.631863 0.144118
0.232782 0.707353 0.190748
0.289767 0.727336 0.183770
0.366130 0.741345 0.168888
0.466996 0.748874 0.150000
0.581342 0.757843 0.136305
0.710639 0.758311 0.136275
0.815579 0.757843 0.137301
0.891605 0.761764 0.148040
0.937255 0.753921 0.147549
0.282353 0.803922 0.210785
0.336765 0.814767 0.206434
0.415809 0.822181 0.192034
0.511949 0.827267 0.176777
0.621569 0.831373 0.157843
0.743137 0.834804 0.151777
0.834314 0.831005 0.148040
0.899448 0.830883 0.151961
0.937255 0.823039 0.148040
0.027451 0.047059 0.169608
0.059191 0.043137 0.169608
0.157843 0.039216 0.150980
0.254780 0.039216 0.130392
0.332353 0.043137 0.118628
0.399387 0.043137 0.111764
0.461030 0.043137 0.106863
0.515686 0.043137 0.103921
0.568627 0.043137 0.103921
0.031373 0.093138 0.169608
0.066115 0.089905 0.165686
0.164430 0.081373 0.154657
0.267157 0.081373 0.135417
0.361213 0.085295 0.124755
0.445680 0.086275 0.119485
0.528309 0.089216 0.118260
0.599510 0.093245 0.122059
0.666054 0.100490 0.125980
0.038971 0.157843 0.173530
0.081740 0.161520 0.169884
0.174755 0.160784 0.161520
0.298407 0.163725 0.144639
0.409314 0.168260 0.141176
0.515043 0.175858 0.145098
0.613970 0.182965 0.151961
0.703309 0.194455 0.163082
0.780392 0.202206 0.171569
0.057353 0.252329 0.179289
0.107353 0.264629 0.184314
0.199632 0.279412 0.182843
0.326669 0.287255 0.164338
0.471998 0.289154 0.163909
0.599020 0.298330 0.177083
0.706863 0.307108 0.189400
0.794117 0.312132 0.199510
0.859804 0.312868 0.204534
0.094117 0.369608 0.198039
0.148039 0.392647 0.209743
0.237377 0.408824 0.203554
0.349326 0.420037 0.174755
0.482353 0.420589 0.178431
0.633578 0.423591 0.194424
0.758701 0.428431 0.206863
0.850184 0.422978 0.212745
0.903922 0.420589 0.218137
0.135171 0.493628 0.225000
0.190809 0.512929 0.228922
0.269853 0.526471 0.219975
0.372809 0.536075 0.191176
0.505576 0.546078 0.177451
0.646569 0.546078 0.190686
0.785784 0.553401 0.212010
0.873269 0.546078 0.216667
0.921569 0.542157 0.224510
0.177696 0.606863 0.248039
0.229688 0.626317 0.248131
0.301716 0.644792 0.236826
0.400092 0.656281 0.210294
0.532966 0.668137 0.187255
0.673530 0.670589 0.190472
0.796507 0.674510 0.209804
0.884283 0.674479 0.220588
0.930392 0.670589 0.228432
0.217524 0.722549 0.266789
0.274142 0.746461 0.267264
0.344118 0.764338 0.252451
0.441084 0.773039 0.230025
0.565931 0.779596 0.210110
0.706495 0.785616 0.205392
0.812132 0.784804 0.213787
0.891176 0.784758 0.220588
0.937255 0.780882 0.228432
0.263726 0.815686 0.294118
0.321569 0.830025 0.291544
0.390196 0.838235 0.275490
0.485294 0.843137 0.255270
0.602941 0.850000 0.234314
0.735662 0.854289 0.228432
0.834314 0.853921 0.231373
0.899019 0.846936 0.224510
0.937255 0.843137 0.228432
0.033824 0.050980 0.236275
0.058334 0.047059 0.240196
0.121936 0.043137 0.243015
0.228431 0.039216 0.220588
0.315686 0.035294 0.200245
0.391176 0.036765 0.186826
0.456863 0.039216 0.177083
0.518627 0.039216 0.172059
0.568627 0.036765 0.173530
0.037439 0.100981 0.240196
0.065847 0.100981 0.242647
0.127497 0.091805 0.246568
0.243934 0.077451 0.230576
0.345986 0.077451 0.207843
0.434919 0.081373 0.195473
0.515686 0.085295 0.191314
0.591667 0.089645 0.192647
0.654718 0.100490 0.200306
0.046078 0.165686 0.247059
0.084314 0.171982 0.249510
0.144485 0.176471 0.253707
0.273959 0.168260 0.249510
0.399755 0.171017 0.230821
0.510294 0.177574 0.227083
0.606403 0.187255 0.232384
0.694700 0.195221 0.240150
0.764093 0.207843 0.252451
0.062194 0.263787 0.272549
0.111274 0.280209 0.288052
0.190456 0.297090 0.301011
0.321140 0.308823 0.303064
0.480147 0.309375 0.276961
0.603860 0.312339 0.275896
0.703631 0.321370 0.285156
0.786389 0.324449 0.292157
0.848039 0.321078 0.296079
0.094117 0.392647 0.309804
0.147947 0.415686 0.325490
0.226164 0.431863 0.332598
0.341912 0.443627 0.324295
0.479412 0.443627 0.294976
0.644332 0.441176 0.291391
0.762806 0.445098 0.301777
0.846967 0.443321 0.309467
0.900000 0.434559 0.310539
0.134804 0.520588 0.338297
0.184988 0.537561 0.346140
0.256051 0.552681 0.344577
0.355453 0.565196 0.327451
0.491667 0.570619 0.286275
0.642647 0.573039 0.287316
0.788465 0.575429 0.304289
0.876961 0.576654 0.315755
0.923039 0.569118 0.321078
0.170588 0.629902 0.354902
0.219654 0.649142 0.356985
0.282016 0.666850 0.351072
0.372350 0.683701 0.330683
0.504412 0.691177 0.296017
0.662316 0.697549 0.281174
0.792402 0.701471 0.298529
0.884544 0.706357 0.321385
0.933333 0.701471 0.325613
0.204596 0.741176 0.367157
0.256457 0.760677 0.368444
0.321079 0.779917 0.359942
0.409620 0.795274 0.341108
0.532996 0.802696 0.314216
0.683824 0.807843 0.295458
0.808211 0.807001 0.301915
0.891176 0.807537 0.319501
0.937255 0.805209 0.324816
0.247059 0.827451 0.408333
0.298836 0.835294 0.398530
0.367157 0.847059 0.383333
0.451961 0.858272 0.360294
0.568873 0.863971 0.337255
0.709314 0.870588 0.317157
0.827451 0.870588 0.317157
0.899019 0.866483 0.321385
0.941176 0.861275 0.323529
0.039216 0.054902 0.298040
0.062255 0.051225 0.303922
0.101471 0.047059 0.311764
0.192157 0.043137 0.309314
0.292157 0.035294 0.285294
0.378186 0.031373 0.265932
0.451471 0.031373 0.252941
0.516666 0.031373 0.245098
0.568627 0.031373 0.247058
0.043137 0.106863 0.309558
0.066177 0.108824 0.315411
0.113051 0.103431 0.322181
0.203676 0.089951 0.324020
0.323039 0.077451 0.303431
0.423193 0.077451 0.281373
0.508027 0.081802 0.272059
0.584069 0.089001 0.272059
0.645834 0.100490 0.279657
0.050980 0.176961 0.322549
0.080882 0.184130 0.330147
0.131863 0.190196 0.343137
0.225980 0.189216 0.362071
0.371078 0.180147 0.343872
0.491912 0.183333 0.326777
0.586642 0.192034 0.324265
0.669914 0.203186 0.330514
0.740196 0.214706 0.340686
0.066667 0.274510 0.365686
0.110631 0.293781 0.385202
0.176471 0.315380 0.404228
0.274265 0.331403 0.425000
0.432721 0.324387 0.415073
0.577941 0.322794 0.391177
0.680147 0.326899 0.387684
0.763235 0.327451 0.387990
0.825000 0.321078 0.386765
0.099020 0.414706 0.431373
0.154902 0.439828 0.454657
0.226471 0.458088 0.469363
0.323529 0.470221 0.477329
0.467647 0.473530 0.475000
0.640932 0.464338 0.431618
0.756618 0.459559 0.426471
0.837378 0.452941 0.427451
0.887255 0.448040 0.427451
0.138725 0.549019 0.470098
0.192647 0.566851 0.482935
0.255147 0.582230 0.487010
0.336764 0.595343 0.485815
0.468260 0.605882 0.471814
0.636274 0.604381 0.439246
0.796446 0.600000 0.431372
0.876961 0.597457 0.441176
0.921569 0.594853 0.449020
0.169607 0.660784 0.486765
0.219608 0.680024 0.494117
0.276103 0.695711 0.492647
0.349019 0.708456 0.481128
0.467157 0.722059 0.458823
0.641422 0.728983 0.424020
0.789216 0.728431 0.427083
0.888787 0.728431 0.441176
0.934314 0.728431 0.449020
0.200490 0.768137 0.497059
0.247059 0.783824 0.506158
0.307414 0.797058 0.498530
0.378523 0.808425 0.483977
0.489829 0.821814 0.458823
0.646752 0.826807 0.426164
0.800245 0.826961 0.415687
0.891176 0.826470 0.429198
0.941176 0.828677 0.442892
0.239216 0.843137 0.550980
0.281618 0.849020 0.543382
0.342647 0.856373 0.526470
0.417157 0.865932 0.502696
0.523529 0.879412 0.473529
0.664951 0.885049 0.439706
0.810784 0.887745 0.421569
0.895343 0.880392 0.423775
0.941176 0.882353 0.437255
0.039216 0.058824 0.359804
0.060968 0.056679 0.363725
0.088235 0.050980 0.371568
0.158824 0.047059 0.383333
0.265196 0.039216 0.372304
0.356801 0.031373 0.348958
0.437868 0.031373 0.331740
0.506862 0.031373 0.322059
0.564706 0.031373 0.322059
0.047059 0.112745 0.383027
0.069669 0.116360 0.386949
0.103921 0.113066 0.394746
0.171071 0.103071 0.403853
0.290196 0.087745 0.399755
0.402451 0.077259 0.378615
0.495113 0.081863 0.361749
0.571239 0.092647 0.359168
0.634314 0.103921 0.364522
0.056005 0.188603 0.406373
0.080882 0.196079 0.414752
0.122549 0.203309 0.432568
0.198162 0.210784 0.459191
0.326287 0.203186 0.470159
0.459191 0.195787 0.447549
0.564216 0.200674 0.430392
0.647013 0.210968 0.432307
0.716177 0.222917 0.438848
0.067586 0.289706 0.460294
0.103738 0.310585 0.481863
0.162745 0.331832 0.504902
0.246423 0.350061 0.537255
0.369332 0.352941 0.562990
0.521569 0.336213 0.528431
0.642509 0.331373 0.501670
0.732537 0.327933 0.493137
0.795588 0.325000 0.492218
0.100000 0.431372 0.543627
0.155882 0.454504 0.563725
0.221201 0.472794 0.578983
0.302236 0.488235 0.588725
0.413480 0.499142 0.601225
0.582843 0.479810 0.583731
0.724510 0.467770 0.554289
0.813235 0.456189 0.543137
0.867892 0.450981 0.539216
0.143198 0.569669 0.591667
0.196568 0.587561 0.605576
0.262255 0.605269 0.615977
0.338235 0.620650 0.626754
0.450521 0.634528 0.635570
0.624303 0.641153 0.637615
0.791238 0.628064 0.596078
0.873039 0.616483 0.587630
0.918566 0.608824 0.585294
0.177451 0.683823 0.610785
0.222671 0.703830 0.624158
0.282200 0.722212 0.632598
0.351440 0.734804 0.637255
0.449020 0.747794 0.634804
0.610294 0.762255 0.627451
0.785294 0.761520 0.602573
0.892157 0.751026 0.588848
0.937255 0.749387 0.594608
0.200490 0.787071 0.633823
0.246569 0.801164 0.641667
0.304412 0.814124 0.646554
0.370098 0.823820 0.645282
0.460386 0.835049 0.633578
0.598958 0.846699 0.611160
0.780745 0.851424 0.580392
0.887746 0.845588 0.579435
0.941176 0.844301 0.587255
0.231373 0.854902 0.668627
0.274020 0.860294 0.672549
0.331005 0.867770 0.672549
0.400981 0.877512 0.663174
0.487500 0.886275 0.644608
0.609804 0.899510 0.610723
0.775490 0.903431 0.572549
0.891176 0.901655 0.560294
0.941176 0.898039 0.572059
0.039216 0.062745 0.426470
0.058824 0.058947 0.430392
0.081373 0.054902 0.437255
0.141176 0.047059 0.445711
0.231862 0.043137 0.450000
0.336765 0.035907 0.434314
0.419363 0.028431 0.413971
0.494118 0.027451 0.403922
0.551961 0.031373 0.402941
0.046569 0.120589 0.461275
0.066498 0.121768 0.465196
0.098652 0.120589 0.469853
0.155484 0.112300 0.479105
0.255392 0.100981 0.484436
0.372534 0.091315 0.477267
0.471691 0.086428 0.461734
0.552451 0.096247 0.457353
0.617647 0.108333 0.461765
0.054902 0.200000 0.491422
0.077941 0.208487 0.503799
0.114706 0.216054 0.521017
0.183517 0.225368 0.549816
0.293137 0.226103 0.574020
0.422304 0.218627 0.573284
0.528677 0.213419 0.552941
0.620588 0.219975 0.541421
0.690196 0.228432 0.542402
0.069118 0.308823 0.553554
0.096078 0.328171 0.575858
0.156464 0.349786 0.601379
0.232966 0.368658 0.633824
0.340135 0.377941 0.662868
0.469347 0.362255 0.662622
0.591789 0.343137 0.631618
0.697151 0.333318 0.608594
0.766544 0.331373 0.605882
0.098040 0.446078 0.637255
0.148223 0.470588 0.653922
0.213113 0.488603 0.663603
0.286336 0.504718 0.674755
0.380392 0.519118 0.697059
0.516912 0.515502 0.721262
0.664461 0.481985 0.686275
0.774019 0.466299 0.667157
0.840196 0.459804 0.662745
0.142647 0.582353 0.683823
0.196568 0.601470 0.698039
0.260815 0.618383 0.709406
0.333701 0.636152 0.721369
0.428860 0.651961 0.733517
0.564507 0.665304 0.747901
0.736673 0.643382 0.732353
0.845220 0.627865 0.715334
0.898529 0.620098 0.709436
0.177206 0.699755 0.714706
0.227451 0.721415 0.728401
0.288235 0.737439 0.740441
0.362469 0.751379 0.751287
0.457721 0.764706 0.760417
0.594424 0.778125 0.772089
0.773529 0.788235 0.778370
0.887991 0.774387 0.746967
0.934068 0.769608 0.742157
0.196568 0.798407 0.737745
0.250061 0.812531 0.749494
0.307077 0.824601 0.760202
0.380760 0.835309 0.767662
0.468076 0.844853 0.768750
0.584298 0.857430 0.769608
0.747518 0.869363 0.766176
0.883808 0.868505 0.749739
0.941176 0.860785 0.736152
0.227451 0.862745 0.767647
0.274877 0.870220 0.775490
0.332108 0.877696 0.779412
0.409437 0.886888 0.784313
0.493137 0.896079 0.784313
0.590809 0.906250 0.774142
0.727206 0.917647 0.750980
0.875000 0.918627 0.724387
0.940196 0.914705 0.727451
0.035294 0.062745 0.499019
0.058334 0.062745 0.502512
0.081373 0.055883 0.506862
0.132537 0.050980 0.514706
0.211520 0.047059 0.518627
0.309804 0.041850 0.513235
0.402574 0.035294 0.498162
0.471568 0.031373 0.486826
0.532843 0.031373 0.487745
0.043137 0.127941 0.538174
0.065748 0.128432 0.541613
0.091790 0.127957 0.549403
0.146079 0.121676 0.556924
0.232812 0.112714 0.561274
0.344768 0.106755 0.565135
0.446293 0.100919 0.561106
0.529841 0.103929 0.556863
0.594607 0.115686 0.561213
0.053921 0.211764 0.575981
0.076639 0.219929 0.587730
0.110416 0.229749 0.609314
0.174387 0.240334 0.635616
0.274265 0.245527 0.662132
0.391973 0.241529 0.674632
0.499295 0.236703 0.667494
0.587132 0.234329 0.652083
0.659314 0.235294 0.645588
0.069118 0.327757 0.645405
0.096078 0.346898 0.664813
0.149142 0.368183 0.687745
0.226409 0.385179 0.712944
0.323928 0.395588 0.738725
0.439407 0.387554 0.751470
0.553431 0.368949 0.743505
0.652757 0.347526 0.723529
0.729718 0.340993 0.712255
0.094117 0.464951 0.718627
0.144118 0.486275 0.728431
0.204902 0.505576 0.737745
0.279228 0.522242 0.747304
0.366422 0.536520 0.771446
0.486673 0.541667 0.799755
0.614400 0.518627 0.800123
0.728217 0.488481 0.777451
0.803186 0.478922 0.769608
0.136274 0.594118 0.759314
0.192341 0.613296 0.770588
0.253799 0.632705 0.780025
0.327022 0.650667 0.790571
0.413879 0.666912 0.802298
0.533134 0.681365 0.822978
0.682675 0.680392 0.841667
0.801126 0.646998 0.816261
0.869118 0.642831 0.814706
0.173162 0.711152 0.791054
0.224402 0.730606 0.802711
0.289951 0.748039 0.813634
0.366176 0.761014 0.823713
0.460784 0.774265 0.833334
0.580315 0.789338 0.844608
0.725735 0.801011 0.856465
0.860095 0.792264 0.848269
0.918260 0.789584 0.845098
0.200490 0.808885 0.817095
0.250490 0.821017 0.824938
0.320359 0.832721 0.835080
0.400000 0.844117 0.843957
0.495068 0.854167 0.852206
0.602451 0.863725 0.859804
0.739966 0.875490 0.867647
0.875115 0.883333 0.871140
0.937255 0.879412 0.856373
0.227941 0.870588 0.835784
0.277512 0.874510 0.839277
0.346079 0.882353 0.843995
0.427451 0.892647 0.855699
0.523775 0.901961 0.867157
0.610111 0.911274 0.867647
0.722549 0.921569 0.868015
0.855944 0.929473 0.864216
0.937255 0.929412 0.856373
0.035294 0.066667 0.564706
0.058334 0.066667 0.568627
0.081373 0.059804 0.571568
0.126471 0.050980 0.576471
0.200000 0.047059 0.580392
0.294608 0.043137 0.576471
0.387255 0.039216 0.564706
0.459804 0.035294 0.556863
0.517647 0.035294 0.560784
0.039216 0.132353 0.607353
0.062255 0.135784 0.611275
0.087868 0.135784 0.617770
0.142157 0.131556 0.625184
0.223039 0.123774 0.630392
0.329105 0.119608 0.634007
0.430392 0.115686 0.638603
0.513725 0.119608 0.637745
0.575490 0.127451 0.645588
0.050980 0.223529 0.652941
0.073162 0.231373 0.667279
0.106863 0.242157 0.682353
0.170466 0.255760 0.709314
0.268627 0.263725 0.733333
0.376470 0.259681 0.743260
0.480392 0.256128 0.746079
0.568014 0.250980 0.738235
0.636275 0.247058 0.734314
0.066667 0.343137 0.721078
0.092157 0.362561 0.738051
0.150981 0.383823 0.755025
0.222488 0.399571 0.777451
0.318627 0.411029 0.794608
0.425551 0.408333 0.811213
0.534314 0.391667 0.812745
0.625981 0.370588 0.804596
0.699020 0.362745 0.797059
0.092157 0.480392 0.780393
0.140196 0.501715 0.787990
0.204902 0.518628 0.791666
0.275490 0.536520 0.804412
0.364706 0.551961 0.823529
0.476471 0.560785 0.850490
0.598529 0.546078 0.860785
0.700980 0.521323 0.852696
0.774509 0.505883 0.845098
0.132353 0.605882 0.813235
0.188725 0.625490 0.824510
0.253432 0.645098 0.830025
0.324019 0.663235 0.839767
0.412010 0.680392 0.850490
0.525551 0.696078 0.869608
0.670588 0.701471 0.890564
0.776961 0.681373 0.887745
0.846078 0.670098 0.879902
0.169607 0.722549 0.844118
0.223529 0.740686 0.851961
0.292892 0.756617 0.862010
0.370098 0.770465 0.871568
0.468628 0.783823 0.879412
0.576471 0.797181 0.888358
0.708824 0.810784 0.902206
0.834804 0.811274 0.913357
0.900000 0.803922 0.902941
0.200490 0.816666 0.859314
0.254412 0.828002 0.863174
0.326961 0.839338 0.873530
0.411765 0.850490 0.882659
0.514216 0.859804 0.894118
0.616360 0.871262 0.905882
0.738235 0.880269 0.913848
0.857292 0.887684 0.921569
0.929412 0.887255 0.917647
0.235294 0.870588 0.870588
0.285295 0.878431 0.874020
0.356862 0.886275 0.881373
0.442647 0.894118 0.890196
0.545098 0.905882 0.901961
0.627941 0.913725 0.909804
0.733333 0.922549 0.914705
0.856373 0.933333 0.921569
0.933333 0.937255 0.925490
