src/assets/LUTs/proLUTs/Bonboa.cube
TITLE "BONBOA by rossandhisjpegs"
#LUMIXPHOTOSTYLE VIVD
LUT_3D_SIZE 5
DOMAIN_MIN 0.0 0.0 0.0
DOMAIN_MAX 1.0 1.0 1.0
0.035294 0.039216 0.035294
0.193137 0.042157 0.031373
0.347058 0.047059 0.027451
0.473529 0.047059 0.027451
0.572549 0.047059 0.023529
0.039216 0.142157 0.035294
0.185049 0.146079 0.037500
0.406863 0.160784 0.039216
0.604902 0.164706 0.038235
0.772549 0.176471 0.046078
0.090196 0.333333 0.050980
0.227451 0.373529 0.050980
0.464706 0.386274 0.060784
0.730392 0.392157 0.084804
0.900000 0.376470 0.082353
0.190196 0.573529 0.102941
0.325245 0.599265 0.088236
0.538725 0.620588 0.075000
0.796079 0.616667 0.091176
0.933333 0.600980 0.090196
0.294118 0.788235 0.149020
0.432353 0.803922 0.134314
0.621569 0.815686 0.101961
0.834314 0.814706 0.101961
0.937255 0.800000 0.101961
0.027451 0.047059 0.169608
0.157843 0.039216 0.150980
0.332353 0.043137 0.118628
0.461030 0.043137 0.106863
0.568627 0.043137 0.103921
0.038971 0.157843 0.173530
0.174755 0.160784 0.161520
0.409314 0.168260 0.141176
0.613970 0.182965 0.151961
0.780392 0.202206 0.171569
0.094117 0.369608 0.198039
0.237377 0.408824 0.203554
0.482353 0.420589 0.178431
0.758701 0.428431 0.206863
0.903922 0.420589 0.218137
0.177696 0.606863 0.248039
0.301716 0.644792 0.236826
0.532966 0.668137 0.187255
0.796507 0.674510 0.209804
0.930392 0.670589 0.228432
0.263726 0.815686 0.294118
0.390196 0.838235 0.275490
0.602941 0.850000 0.234314
0.834314 0.853921 0.231373
0.937255 0.843137 0.228432
0.039216 0.054902 0.298040
0.101471 0.047059 0.311764
0.292157 0.035294 0.285294
0.451471 0.031373 0.252941
0.568627 0.031373 0.247058
0.050980 0.176961 0.322549
0.131863 0.190196 0.343137
0.371078 0.180147 0.343872
0.586642 0.192034 0.324265
0.740196 0.214706 0.340686
0.099020 0.414706 0.431373
0.226471 0.458088 0.469363
0.467647 0.473530 0.475000
0.756618 0.459559 0.426471
0.887255 0.448040 0.427451
0.169607 0.660784 0.486765
0.276103 0.695711 0.492647
0.467157 0.722059 0.458823
0.789216 0.728431 0.427083
0.934314 0.728431 0.449020
0.239216 0.843137 0.550980
0.342647 0.856373 0.526470
0.523529 0.879412 0.473529
0.810784 0.887745 0.421569
0.941176 0.882353 0.437255
0.039216 0.062745 0.426470
0.081373 0.054902 0.437255
0.231862 0.043137 0.450000
0.419363 0.028431 0.413971
0.551961 0.031373 0.402941
0.054902 0.200000 0.491422
0.114706 0.216054 0.521017
0.293137 0.226103 0.574020
0.528677 0.213419 0.552941
0.690196 0.228432 0.542402
0.098040 0.446078 0.637255
0.213113 0.488603 0.663603
0.380392 0.519118 0.697059
0.664461 0.481985 0.686275
0.840196 0.459804 0.662745
0.177206 0.699755 0.714706
0.288235 0.737439 0.740441
0.457721 0.764706 0.760417
0.773529 0.788235 0.778370
0.934068 0.769608 0.742157
0.227451 0.862745 0.767647
0.332108 0.877696 0.779412
0.493137 0.896079 0.784313
0.727206 0.917647 0.750980
0.940196 0.914705 0.727451
0.035294 0.066667 0.564706
0.081373 0.059804 0.571568
0.200000 0.047059 0.580392
0.387255 0.039216 0.564706
0.517647 0.035294 0.560784
0.050980 0.223529 0.652941
0.106863 0.242157 0.682353
0.268627 0.263725 0.733333
0.480392 0.256128 0.746079
0.636275 0.247058 0.734314
0.092157 0.480392 0.780393
0.204902 0.518628 0.791666
0.364706 0.551961 0.823529
0.598529 0.546078 0.860785
0.774509 0.505883 0.845098
0.169607 0.722549 0.844118
0.292892 0.756617 0.862010
0.468628 0.783823 0.879412
0.708824 0.810784 0.902206
0.900000 0.803922 0.902941
0.235294 0.870588 0.870588
0.356862 0.886275 0.881373
0.545098 0.905882 0.901961
0.733333 0.922549 0.914705
0.933333 0.937255 0.925490
