src/assets/LUTs/proLUTs/Bonboa.cube
TITLE "BONBOA by rossandhisjpegs"
#LUMIXPHOTOSTYLE VIVD
LUT_3D_SIZE 33
DOMAIN_MIN 0.0 0.0 0.0
DOMAIN_MAX 1.0 1.0 1.0
0.035294 0.039216 0.035294
0.046936 0.039216 0.035294
0.062255 0.039216 0.035294
0.077696 0.039216 0.035294
0.100490 0.039216 0.031373
0.123652 0.039216 0.031373
0.146814 0.039216 0.031373
0.169975 0.039216 0.031373
0.193137 0.042157 0.031373
0.216299 0.043137 0.028554
0.235539 0.043137 0.027451
0.256128 0.043137 0.027451
0.275490 0.047059 0.027451
0.294853 0.047059 0.027451
0.312500 0.047059 0.027451
0.329657 0.047059 0.027451
0.347058 0.047059 0.027451
0.364460 0.047059 0.027451
0.381618 0.047059 0.027451
0.399265 0.047059 0.027451
0.418627 0.047059 0.027451
0.434069 0.047059 0.027451
0.448284 0.047059 0.027451
0.461030 0.047059 0.027451
0.473529 0.047059 0.027451
0.487991 0.047059 0.027451
0.503432 0.047059 0.027451
0.514951 0.047059 0.027451
0.529902 0.047059 0.026961
0.541544 0.047059 0.023529
0.553186 0.047059 0.023529
0.561029 0.047059 0.023529
0.572549 0.047059 0.023529
0.035294 0.046936 0.035294
0.046814 0.046936 0.035294
0.062255 0.046936 0.035294
0.077696 0.046936 0.035294
0.100490 0.046936 0.031863
0.123652 0.046936 0.031373
0.146814 0.046936 0.031373
0.169975 0.046936 0.031373
0.196079 0.049877 0.031373
0.217368 0.050857 0.028554
0.239377 0.050857 0.027451
0.258701 0.050857 0.027451
0.279366 0.050934 0.027451
0.298725 0.053236 0.027451
0.318015 0.054779 0.027451
0.335597 0.054779 0.027451
0.354779 0.054779 0.027451
0.372181 0.054779 0.027451
0.391544 0.054779 0.027451
0.410834 0.054779 0.027451
0.427772 0.054779 0.027451
0.445588 0.054779 0.027451
0.459842 0.054779 0.027451
0.472637 0.054779 0.027451
0.487991 0.054779 0.027451
0.503432 0.054779 0.027451
0.518872 0.054779 0.027451
0.530392 0.054779 0.027451
0.545343 0.054779 0.027451
0.556985 0.054779 0.027328
0.568627 0.054779 0.023529
0.580151 0.054779 0.023529
0.587990 0.054779 0.023529
0.035294 0.054657 0.035294
0.046814 0.054657 0.035294
0.058579 0.054657 0.035294
0.077351 0.054657 0.035294
0.100490 0.054657 0.035294
0.123652 0.054657 0.031947
0.146814 0.054657 0.031373
0.169975 0.058334 0.031373
0.196079 0.058579 0.031373
0.220220 0.058579 0.031373
0.240609 0.061106 0.031204
0.262462 0.062255 0.031128
0.283242 0.062500 0.028830
0.304779 0.062500 0.027451
0.321951 0.062500 0.027451
0.341307 0.062500 0.027451
0.362500 0.062500 0.027451
0.381740 0.062500 0.027451
0.403048 0.062500 0.027451
0.422404 0.062500 0.027451
0.439369 0.062500 0.027451
0.457108 0.062500 0.027451
0.472549 0.062500 0.027451
0.484314 0.062500 0.027451
0.500674 0.062500 0.027451
0.518872 0.062500 0.027451
0.533624 0.062500 0.027451
0.545833 0.062500 0.027451
0.560784 0.062500 0.027451
0.572794 0.062500 0.027451
0.584314 0.062500 0.027436
0.599395 0.062500 0.023529
0.611030 0.062500 0.023529
0.035294 0.062377 0.035294
0.043014 0.062377 0.035294
0.058334 0.062377 0.035294
0.073775 0.062377 0.035294
0.096936 0.065932 0.035294
0.123652 0.066242 0.035294
0.146814 0.066299 0.032039
0.169975 0.066299 0.031373
0.196079 0.068964 0.031373
0.220220 0.070117 0.031373
0.243382 0.070220 0.031373
0.266303 0.073775 0.031373
0.285784 0.073775 0.031373
0.308728 0.074142 0.031373
0.329534 0.074142 0.031373
0.348897 0.074142 0.031373
0.371998 0.077696 0.031373
0.396937 0.077696 0.029339
0.416383 0.077696 0.027451
0.435417 0.077696 0.027451
0.453186 0.074142 0.027451
0.472549 0.074142 0.027451
0.487991 0.074142 0.027451
0.503432 0.074142 0.027451
0.519761 0.074050 0.027451
0.538235 0.073775 0.027451
0.553309 0.073775 0.027451
0.568750 0.073775 0.027451
0.584145 0.073775 0.027451
0.595710 0.074142 0.027451
0.611129 0.074142 0.027451
0.622671 0.077696 0.027451
0.637745 0.077696 0.027451
0.035294 0.077451 0.035294
0.043014 0.077451 0.035294
0.054657 0.077451 0.035294
0.070297 0.077451 0.035294
0.096140 0.077451 0.035294
0.119731 0.077451 0.035294
0.146814 0.077451 0.035294
0.169975 0.077941 0.034911
0.196079 0.080515 0.034804
0.220220 0.081725 0.031373
0.243382 0.084222 0.031373
0.266544 0.085295 0.031373
0.289706 0.085601 0.031373
0.312867 0.085785 0.031373
0.335539 0.089216 0.031373
0.358701 0.089216 0.031373
0.383579 0.089216 0.031373
0.408686 0.089216 0.031373
0.430116 0.089216 0.031159
0.449464 0.089216 0.030883
0.468812 0.089216 0.027451
0.487991 0.089216 0.027451
0.507353 0.089216 0.027451
0.522794 0.089216 0.027451
0.542647 0.089216 0.027451
0.561029 0.089216 0.027451
0.576563 0.089216 0.027451
0.592325 0.089216 0.027451
0.607353 0.089216 0.027451
0.622472 0.089216 0.027451
0.634314 0.089216 0.027451
0.649755 0.093138 0.027451
0.665196 0.093138 0.027451
0.035294 0.089583 0.035294
0.043014 0.092893 0.035294
0.054450 0.092893 0.035294
0.069853 0.092893 0.035294
0.089338 0.089583 0.035294
0.116326 0.089583 0.035294
0.142272 0.092893 0.035294
0.166666 0.092893 0.035294
0.196079 0.092893 0.035294
0.220220 0.095883 0.035294
0.243382 0.096814 0.035294
0.268716 0.099598 0.035294
0.293015 0.100736 0.035294
0.316177 0.100736 0.035294
0.339338 0.100736 0.034949
0.362500 0.103106 0.034681
0.387929 0.104657 0.033027
0.413358 0.104657 0.031373
0.436252 0.104657 0.031373
0.458820 0.104657 0.031373
0.478309 0.104657 0.031373
0.499720 0.104657 0.031373
0.518872 0.104657 0.031181
0.535857 0.104657 0.030760
0.555270 0.104657 0.029933
0.576961 0.104657 0.027451
0.596323 0.104657 0.027451
0.611765 0.104657 0.027451
0.627129 0.104657 0.027451
0.642034 0.104657 0.027451
0.660784 0.108004 0.027658
0.676838 0.108579 0.030760
0.692280 0.111887 0.031373
0.035294 0.107598 0.035294
0.043014 0.108333 0.035294
0.054657 0.108333 0.035294
0.066001 0.108333 0.035294
0.085540 0.108333 0.035294
0.108701 0.104909 0.035294
0.135784 0.108333 0.035294
0.162868 0.108333 0.035294
0.192157 0.108333 0.035294
0.219324 0.108862 0.035294
0.243382 0.112254 0.035294
0.269118 0.112254 0.035294
0.293627 0.116176 0.035294
0.316789 0.116176 0.035294
0.343137 0.116176 0.035294
0.366690 0.118260 0.035294
0.392157 0.120098 0.035294
0.420466 0.120098 0.035294
0.443627 0.120098 0.034559
0.466789 0.120098 0.033265
0.489675 0.120098 0.031373
0.509191 0.120098 0.031373
0.530622 0.120098 0.031373
0.549962 0.120098 0.031373
0.571078 0.120098 0.031373
0.596446 0.120098 0.031373
0.615686 0.120098 0.031373
0.634314 0.123284 0.031373
0.649755 0.123284 0.031373
0.669118 0.124019 0.031373
0.684758 0.127206 0.031373
0.703921 0.127941 0.031373
0.722549 0.131127 0.034559
0.038358 0.123774 0.035294
0.046079 0.123774 0.035294
0.054657 0.123774 0.035294
0.066299 0.123774 0.035294
0.082123 0.123774 0.035294
0.104902 0.123774 0.035294
0.131824 0.123774 0.035294
0.158881 0.123774 0.035294
0.188879 0.126072 0.035294
0.216299 0.126838 0.035294
0.242425 0.127696 0.035294
0.268555 0.129707 0.037305
0.293627 0.131617 0.038358
0.320362 0.133437 0.038358
0.345596 0.135164 0.038358
0.372181 0.135539 0.038358
0.399142 0.137071 0.036826
0.426103 0.138603 0.035294
0.451348 0.138603 0.035294
0.477574 0.138603 0.035294
0.497672 0.138603 0.035294
0.520833 0.138603 0.034999
0.543137 0.139460 0.034436
0.562994 0.140322 0.034436
0.586520 0.142524 0.034436
0.612623 0.142524 0.031373
0.631863 0.142524 0.031373
0.650969 0.142524 0.031852
0.672917 0.142632 0.034436
0.692280 0.146446 0.034436
0.711642 0.146500 0.035294
0.730174 0.150367 0.035390
0.746446 0.151225 0.038358
0.039216 0.142157 0.035294
0.046936 0.145956 0.035294
0.058518 0.146079 0.035294
0.068964 0.146079 0.035294
0.081373 0.146079 0.035294
0.104044 0.146079 0.035294
0.128003 0.146079 0.035294
0.155055 0.146079 0.035294
0.185049 0.146079 0.037500
0.213082 0.148192 0.038235
0.242157 0.150000 0.038910
0.269118 0.151930 0.039216
0.296079 0.153922 0.039216
0.324234 0.155668 0.039216
0.350735 0.157414 0.039216
0.377819 0.157843 0.039216
0.406863 0.160784 0.039216
0.433823 0.161244 0.039216
0.460355 0.161765 0.038787
0.486152 0.161765 0.038235
0.509314 0.161765 0.038235
0.535416 0.161765 0.038235
0.558272 0.162684 0.038235
0.580760 0.164706 0.038235
0.604902 0.164706 0.038235
0.631005 0.165686 0.038235
0.651041 0.165686 0.038235
0.673407 0.168628 0.038235
0.696446 0.168628 0.038235
0.715809 0.168995 0.038603
0.737745 0.172549 0.042157
0.754259 0.173622 0.042157
0.772549 0.176471 0.046078
0.043137 0.162500 0.035294
0.050857 0.165230 0.035294
0.061221 0.165318 0.038113
0.070220 0.166421 0.039216
0.084329 0.169240 0.039216
0.100736 0.169240 0.039216
0.126471 0.169240 0.038320
0.153431 0.169240 0.039216
0.181219 0.169240 0.039216
0.211274 0.170033 0.039216
0.238580 0.173162 0.039216
0.269118 0.175012 0.041065
0.297549 0.177083 0.042723
0.326306 0.177083 0.043137
0.355155 0.181005 0.043137
0.383701 0.181005 0.042551
0.414583 0.184926 0.042034
0.443627 0.184926 0.040713
0.470090 0.184926 0.039216
0.497139 0.184926 0.039216
0.522013 0.184926 0.039216
0.546936 0.184926 0.040185
0.572082 0.186152 0.042034
0.597181 0.188848 0.042344
0.621324 0.188848 0.043137
0.647427 0.189465 0.043137
0.673407 0.192769 0.043137
0.696569 0.192769 0.045956
0.716774 0.193122 0.045956
0.738970 0.196691 0.045956
0.758211 0.196867 0.049877
0.781250 0.200613 0.049877
0.796691 0.203431 0.053799
0.047059 0.181863 0.039216
0.054779 0.184559 0.039216
0.065028 0.188312 0.039216
0.076585 0.188480 0.039216
0.087990 0.191912 0.039216
0.103431 0.192402 0.039216
0.124280 0.192402 0.039216
0.153431 0.194508 0.039216
0.182414 0.195098 0.039216
0.211274 0.195979 0.039216
0.238235 0.196323 0.041912
0.269118 0.199824 0.043137
0.300000 0.201930 0.043137
0.330155 0.203669 0.043137
0.360539 0.204166 0.043137
0.391422 0.207514 0.043137
0.422304 0.208088 0.043137
0.453186 0.208088 0.043137
0.480147 0.209268 0.043137
0.508708 0.210784 0.043137
0.535753 0.210784 0.045833
0.562377 0.212010 0.045833
0.589461 0.212010 0.046216
0.613381 0.215051 0.049755
0.639767 0.215931 0.049755
0.667379 0.216521 0.049755
0.692647 0.218627 0.049755
0.715809 0.218819 0.053676
0.738970 0.220190 0.053676
0.761880 0.222664 0.053676
0.781373 0.223774 0.057598
0.800529 0.226509 0.057598
0.819853 0.227696 0.061520
0.050980 0.203799 0.039216
0.058701 0.207598 0.039216
0.068995 0.207721 0.039216
0.080396 0.211642 0.039216
0.091958 0.215074 0.041789
0.107230 0.215564 0.041789
0.127206 0.219232 0.041789
0.153994 0.219485 0.042842
0.183976 0.222059 0.043137
0.211998 0.222059 0.043137
0.240809 0.223407 0.043137
0.271691 0.226865 0.043137
0.302574 0.228937 0.043137
0.334804 0.229902 0.043137
0.365686 0.231250 0.043137
0.397936 0.233824 0.044504
0.430699 0.235172 0.045711
0.460907 0.236378 0.047059
0.491789 0.237745 0.047059
0.521323 0.237745 0.049632
0.552206 0.237745 0.049632
0.579167 0.238208 0.050980
0.607897 0.241667 0.053554
0.632709 0.242046 0.057476
0.660049 0.245588 0.057476
0.689020 0.245588 0.057476
0.715809 0.245588 0.058211
0.738970 0.246936 0.061397
0.762132 0.246936 0.061397
0.782594 0.249510 0.061397
0.801716 0.250858 0.065319
0.819772 0.253432 0.065319
0.836520 0.254780 0.069240
0.057353 0.226961 0.039216
0.065074 0.230760 0.039216
0.076470 0.234559 0.041667
0.085769 0.234804 0.043137
0.099510 0.238725 0.043137
0.112883 0.242417 0.043137
0.133578 0.244638 0.043137
0.157889 0.248484 0.043137
0.187255 0.250123 0.043137
0.215886 0.252252 0.043137
0.244608 0.252941 0.043137
0.273039 0.253907 0.044746
0.305453 0.256863 0.045588
0.338128 0.257736 0.047059
0.370986 0.260784 0.047059
0.402941 0.261566 0.047059
0.438480 0.263480 0.048284
0.472549 0.264706 0.050199
0.503431 0.265349 0.053431
0.534314 0.267172 0.053431
0.565196 0.268628 0.055821
0.595573 0.268628 0.057353
0.624264 0.269087 0.059590
0.651348 0.272549 0.062378
0.679412 0.272916 0.065196
0.708287 0.274556 0.065196
0.732598 0.276471 0.065472
0.755760 0.276471 0.067050
0.778922 0.276471 0.069118
0.798162 0.276609 0.069118
0.817402 0.278094 0.070741
0.836520 0.280392 0.073039
0.851961 0.281863 0.073039
0.061152 0.250122 0.043137
0.072794 0.253995 0.043137
0.084191 0.257866 0.043137
0.095711 0.261738 0.043137
0.107230 0.265610 0.045175
0.122672 0.269482 0.045466
0.141299 0.273353 0.045466
0.164461 0.275981 0.045466
0.194087 0.279902 0.047059
0.221446 0.282721 0.047059
0.250728 0.283824 0.047059
0.279289 0.283824 0.047059
0.310171 0.286275 0.047059
0.342000 0.287745 0.047059
0.375858 0.288641 0.047059
0.409570 0.291667 0.049387
0.445466 0.292463 0.052144
0.480270 0.295589 0.054056
0.514177 0.295589 0.057231
0.545956 0.295589 0.059770
0.579167 0.296186 0.061152
0.610049 0.299510 0.063545
0.640204 0.299510 0.065572
0.667892 0.301758 0.069443
0.695834 0.303432 0.072917
0.724877 0.303432 0.072917
0.749633 0.305024 0.072917
0.771201 0.305024 0.072917
0.794362 0.305024 0.074510
0.813603 0.305024 0.074728
0.832598 0.305024 0.076838
0.851961 0.305024 0.076888
0.867402 0.305024 0.078431
0.072794 0.277206 0.043137
0.080515 0.281005 0.043137
0.091912 0.284942 0.043137
0.103431 0.290809 0.046898
0.115226 0.294608 0.047059
0.132598 0.298407 0.047059
0.151547 0.302528 0.047059
0.176103 0.306862 0.047059
0.202206 0.310784 0.047059
0.229787 0.313603 0.047059
0.260049 0.314706 0.047059
0.287010 0.314706 0.047059
0.317892 0.317984 0.047059
0.348774 0.318627 0.047059
0.381863 0.318627 0.050229
0.415372 0.322549 0.052152
0.452083 0.322549 0.056005
0.489828 0.324387 0.058824
0.523759 0.326470 0.061780
0.557598 0.326470 0.064951
0.588480 0.326470 0.066667
0.621569 0.327060 0.068873
0.651761 0.330392 0.071277
0.680645 0.330875 0.073277
0.708640 0.334313 0.076716
0.738595 0.334313 0.078431
0.763481 0.334313 0.078431
0.786642 0.333969 0.078431
0.809314 0.332108 0.078431
0.828837 0.332108 0.078431
0.848039 0.331863 0.078431
0.863481 0.328186 0.078431
0.880637 0.328186 0.078431
0.080515 0.302451 0.047059
0.090254 0.308153 0.047059
0.101830 0.313971 0.047059
0.113408 0.317942 0.047059
0.126854 0.321798 0.048882
0.144118 0.327531 0.049142
0.164974 0.333088 0.049142
0.187745 0.336887 0.049142
0.213848 0.340686 0.047580
0.240074 0.345002 0.047059
0.267770 0.345588 0.047059
0.297445 0.349510 0.047059
0.325613 0.349510 0.049142
0.356495 0.349510 0.050233
0.387377 0.349510 0.050980
0.422182 0.353431 0.054902
0.457905 0.353431 0.057905
0.495711 0.354293 0.061769
0.531319 0.357353 0.065633
0.565319 0.357353 0.068750
0.600122 0.357353 0.070588
0.631005 0.357353 0.072672
0.661887 0.357928 0.075161
0.690345 0.361274 0.079017
0.720251 0.361734 0.082353
0.750211 0.361274 0.082353
0.775345 0.361274 0.082353
0.800000 0.360949 0.082353
0.821323 0.358961 0.082353
0.842230 0.355270 0.082353
0.861397 0.355155 0.082353
0.876838 0.351348 0.082353
0.892280 0.351348 0.082353
0.090196 0.333333 0.050980
0.101777 0.339093 0.050980
0.113235 0.343014 0.050980
0.125123 0.348836 0.050980
0.140196 0.354412 0.050980
0.158946 0.358823 0.050980
0.178554 0.365932 0.050980
0.201348 0.369730 0.050980
0.227451 0.373529 0.050980
0.251593 0.377328 0.050980
0.278677 0.378431 0.050980
0.308333 0.382353 0.050980
0.336029 0.382353 0.050980
0.366176 0.382353 0.050980
0.395098 0.382353 0.054044
0.428983 0.383395 0.056986
0.464706 0.386274 0.060784
0.501348 0.386274 0.065625
0.536029 0.387132 0.069485
0.570711 0.388235 0.071385
0.604657 0.388235 0.074510
0.638726 0.388235 0.075184
0.669608 0.390196 0.078431
0.700490 0.390196 0.080944
0.730392 0.392157 0.084804
0.763358 0.391728 0.086275
0.790441 0.389828 0.086275
0.813603 0.388235 0.084314
0.836275 0.384314 0.084069
0.855637 0.383946 0.082353
0.873039 0.380269 0.082353
0.888419 0.376470 0.082353
0.900000 0.376470 0.082353
0.103799 0.364216 0.056740
0.113358 0.371936 0.056740
0.125000 0.375735 0.056740
0.140196 0.379902 0.056740
0.155637 0.387255 0.055132
0.174387 0.391054 0.054902
0.193627 0.395588 0.054902
0.216789 0.402573 0.053274
0.239492 0.406372 0.052818
0.265196 0.408850 0.051497
0.291628 0.411275 0.050980
0.318647 0.414564 0.050980
0.345665 0.415196 0.052818
0.375858 0.415196 0.054902
0.405568 0.415196 0.055936
0.433701 0.415196 0.058824
0.469547 0.416238 0.063664
0.506254 0.417279 0.067529
0.541000 0.419118 0.071392
0.575747 0.419118 0.074510
0.610493 0.419118 0.077129
0.645240 0.419118 0.078431
0.678554 0.419118 0.080921
0.712132 0.419704 0.082870
0.741911 0.421201 0.086275
0.773897 0.419118 0.086275
0.802351 0.418773 0.086275
0.826593 0.414909 0.086275
0.846446 0.413097 0.086275
0.865319 0.409241 0.086275
0.880760 0.405385 0.084191
0.896201 0.401593 0.082353
0.907720 0.401593 0.084191
0.115441 0.399020 0.064461
0.127014 0.402819 0.064461
0.140196 0.406863 0.064461
0.151923 0.410785 0.060746
0.169087 0.418137 0.060539
0.186520 0.421936 0.059092
0.209068 0.426149 0.058824
0.228309 0.430392 0.056618
0.253125 0.434314 0.055331
0.276838 0.437753 0.054902
0.301716 0.441621 0.054902
0.328209 0.442157 0.054902
0.356618 0.443535 0.054902
0.384275 0.443053 0.055921
0.414461 0.444363 0.058824
0.444171 0.444363 0.061711
0.476226 0.444363 0.064706
0.511029 0.446079 0.069416
0.545833 0.446079 0.073269
0.580637 0.446079 0.075207
0.616912 0.446079 0.078431
0.651593 0.446079 0.078431
0.688971 0.446079 0.082353
0.719853 0.446699 0.083456
0.751716 0.448284 0.087255
0.785057 0.446079 0.090196
0.811765 0.444363 0.087990
0.834927 0.441889 0.086275
0.854166 0.438021 0.086275
0.873039 0.434153 0.086275
0.888481 0.432353 0.086275
0.903868 0.428676 0.086275
0.915441 0.426471 0.086275
0.128676 0.429902 0.070588
0.140269 0.433701 0.072132
0.151862 0.437745 0.068405
0.167157 0.441666 0.068260
0.182598 0.447626 0.068260
0.201961 0.451475 0.064702
0.221324 0.455323 0.063044
0.242505 0.459172 0.060926
0.264737 0.463021 0.059222
0.288480 0.465196 0.058824
0.312737 0.468620 0.057223
0.338725 0.470646 0.056495
0.366804 0.472442 0.057951
0.395221 0.473039 0.058824
0.422879 0.473039 0.061726
0.453064 0.473039 0.063591
0.484743 0.473039 0.067463
0.518750 0.473039 0.070588
0.551348 0.473039 0.074510
0.586029 0.473039 0.076103
0.624035 0.473039 0.078431
0.659314 0.473039 0.079779
0.696691 0.473039 0.082353
0.731495 0.473039 0.084601
0.762776 0.475368 0.087255
0.793260 0.473039 0.090196
0.819922 0.471446 0.090196
0.842398 0.468869 0.089832
0.861688 0.464997 0.086275
0.879166 0.461125 0.086275
0.894608 0.457253 0.086275
0.907671 0.453431 0.086275
0.919240 0.451839 0.086275
0.140196 0.460784 0.075980
0.151839 0.464584 0.075980
0.167157 0.468535 0.075980
0.181127 0.472411 0.075980
0.197855 0.476287 0.072549
0.215548 0.480163 0.072059
0.234835 0.483578 0.068597
0.255270 0.486229 0.066989
0.278064 0.490074 0.064216
0.300536 0.493919 0.062745
0.323284 0.495619 0.060294
0.349525 0.498530 0.060294
0.376532 0.500000 0.060294
0.405407 0.500000 0.062745
0.433823 0.502451 0.063572
0.463404 0.502451 0.066667
0.494363 0.503186 0.069363
0.526471 0.502451 0.071277
0.559069 0.502451 0.074510
0.593750 0.502451 0.076103
0.630882 0.502451 0.078431
0.667034 0.500000 0.079779
0.704412 0.500000 0.082353
0.739216 0.502451 0.086275
0.771078 0.503921 0.088358
0.800659 0.501915 0.090196
0.827206 0.499724 0.090196
0.848514 0.495849 0.090196
0.867831 0.492157 0.087745
0.884559 0.488235 0.086275
0.899908 0.484314 0.086275
0.911474 0.482766 0.086275
0.923039 0.478922 0.086275
0.154289 0.490319 0.083701
0.165851 0.494160 0.083701
0.178677 0.498001 0.083701
0.194118 0.499510 0.083701
0.209559 0.503431 0.080101
0.228711 0.507142 0.078642
0.248032 0.511022 0.075858
0.267352 0.513285 0.071936
0.289614 0.517126 0.068658
0.312144 0.520967 0.067046
0.334926 0.522618 0.064898
0.361125 0.525613 0.064093
0.387623 0.526961 0.064093
0.415131 0.528489 0.065621
0.444018 0.530882 0.066667
0.473774 0.530882 0.069382
0.505270 0.530882 0.070588
0.538113 0.530882 0.073143
0.568995 0.530882 0.074510
0.601471 0.530882 0.076103
0.637761 0.529534 0.078431
0.674755 0.529534 0.078431
0.712132 0.529534 0.082353
0.746936 0.529913 0.086275
0.778462 0.530882 0.090196
0.807843 0.530587 0.090196
0.833096 0.526961 0.090196
0.853554 0.523039 0.090196
0.871737 0.521369 0.090196
0.888358 0.518750 0.087496
0.902451 0.513687 0.086275
0.915276 0.511152 0.086275
0.925490 0.507353 0.086275
0.165931 0.518627 0.091422
0.178677 0.522426 0.091422
0.190364 0.525077 0.091422
0.205638 0.528914 0.087753
0.223437 0.532751 0.087500
0.240250 0.534314 0.084000
0.259574 0.538005 0.080392
0.278898 0.540932 0.078699
0.301164 0.544179 0.075735
0.323407 0.545733 0.071814
0.346569 0.549617 0.070588
0.370956 0.553501 0.067892
0.397580 0.555607 0.067892
0.426226 0.557843 0.067892
0.454412 0.557843 0.069409
0.485294 0.561190 0.070588
0.516912 0.561765 0.072549
0.546484 0.560539 0.074510
0.576716 0.557843 0.074510
0.608693 0.557843 0.076103
0.643873 0.556618 0.078431
0.682054 0.556618 0.078431
0.717157 0.556618 0.082353
0.751838 0.557843 0.086275
0.785539 0.557843 0.090196
0.812232 0.557843 0.090196
0.837500 0.556112 0.090196
0.857774 0.553730 0.090196
0.875644 0.550000 0.090196
0.892042 0.546078 0.090196
0.906204 0.542157 0.087424
0.917808 0.540847 0.086275
0.929412 0.538235 0.086275
0.177574 0.545588 0.098039
0.190284 0.549475 0.098039
0.204535 0.553363 0.095221
0.217157 0.556250 0.095221
0.235417 0.559819 0.091789
0.251788 0.561275 0.091299
0.271117 0.564989 0.087378
0.290445 0.568015 0.084314
0.312990 0.571231 0.080515
0.335359 0.573039 0.078741
0.358211 0.576961 0.074855
0.382476 0.580883 0.072660
0.408456 0.584390 0.071002
0.436194 0.584804 0.070588
0.465449 0.588243 0.071208
0.495711 0.588726 0.071691
0.527144 0.588726 0.074510
0.557476 0.588726 0.074510
0.587125 0.587010 0.074510
0.615318 0.584804 0.076758
0.651593 0.583701 0.078431
0.686274 0.583701 0.078810
0.723652 0.584046 0.082353
0.758456 0.584804 0.086275
0.790043 0.585508 0.090196
0.818260 0.587006 0.090196
0.841422 0.584804 0.090196
0.861593 0.580883 0.090196
0.879412 0.580392 0.090196
0.894853 0.576593 0.090196
0.910049 0.573039 0.090196
0.921692 0.569118 0.087378
0.929412 0.569118 0.087378
0.190196 0.573529 0.102941
0.201838 0.577420 0.102941
0.217157 0.581311 0.102941
0.232598 0.584314 0.102941
0.248039 0.587868 0.099142
0.263480 0.589063 0.099019
0.282843 0.592953 0.095098
0.302206 0.595435 0.091176
0.325245 0.599265 0.088236
0.347672 0.603094 0.084161
0.370833 0.606924 0.080331
0.393995 0.610754 0.076838
0.420711 0.612745 0.075490
0.447763 0.616269 0.074908
0.477451 0.616667 0.074510
0.508333 0.620129 0.074510
0.538725 0.620588 0.075000
0.567739 0.619608 0.076869
0.597059 0.616667 0.078431
0.625766 0.614492 0.078431
0.657843 0.612377 0.078431
0.693995 0.611765 0.079779
0.728677 0.612745 0.082353
0.765472 0.613572 0.086275
0.796079 0.616667 0.091176
0.822396 0.616667 0.094118
0.844791 0.615135 0.093566
0.864124 0.612745 0.090196
0.883333 0.608824 0.090196
0.898499 0.608456 0.090196
0.910294 0.604902 0.090196
0.922672 0.600980 0.090196
0.933333 0.600980 0.090196
0.204780 0.603431 0.110662
0.216326 0.607327 0.110662
0.228868 0.611221 0.110662
0.244117 0.614051 0.109884
0.259559 0.615196 0.107123
0.278063 0.619118 0.106016
0.296852 0.623039 0.102122
0.316789 0.626961 0.098897
0.339736 0.629902 0.094976
0.362496 0.633701 0.090437
0.383311 0.637500 0.086543
0.408579 0.641299 0.082648
0.432598 0.644562 0.079289
0.461152 0.646569 0.078780
0.488971 0.650115 0.078431
0.518995 0.650490 0.078431
0.550306 0.650490 0.078431
0.579324 0.650490 0.078431
0.607721 0.648292 0.078431
0.635191 0.646220 0.078431
0.665564 0.642647 0.078431
0.700368 0.642084 0.079779
0.736129 0.642647 0.082621
0.769975 0.645952 0.086516
0.800000 0.647335 0.091176
0.826961 0.646569 0.094118
0.848690 0.646569 0.094118
0.867892 0.645232 0.093639
0.884191 0.642647 0.090947
0.899552 0.638725 0.090196
0.913970 0.638672 0.090196
0.925613 0.634804 0.090196
0.933333 0.634804 0.090196
0.216421 0.630392 0.118382
0.227964 0.634291 0.118382
0.240395 0.638189 0.117693
0.255637 0.642157 0.114460
0.271078 0.646078 0.113817
0.290326 0.650000 0.110539
0.309069 0.653921 0.107215
0.329006 0.656985 0.103393
0.351470 0.660785 0.099755
0.374633 0.664583 0.095749
0.397794 0.667877 0.091927
0.420956 0.669608 0.088105
0.444118 0.673254 0.084283
0.470902 0.675421 0.082652
0.499755 0.677451 0.082353
0.530637 0.679144 0.080660
0.559926 0.679044 0.079166
0.588871 0.677451 0.079166
0.617647 0.676716 0.079166
0.646324 0.673231 0.079166
0.673744 0.671599 0.079166
0.705262 0.669355 0.082353
0.740196 0.670604 0.083579
0.773774 0.673001 0.087378
0.803922 0.676900 0.091176
0.830760 0.677451 0.094118
