src/assets/LUTs/proLUTs/Daisy.cube
TITLE "Daisy" LUT by @rossandhisjpegs
#LUMIXPHOTOSTYLE STD
LUT_3D_SIZE 9
DOMAIN_MIN 0.0 0.0 0.0
DOMAIN_MAX 1.0 1.0 1.0
0.015686 0.015686 0.015686
0.153922 0.019608 0.019608
0.333333 0.019608 0.022549
0.496079 0.019608 0.023529
0.650980 0.011765 0.027451
0.776961 0.003922 0.031373
0.874510 0.003922 0.035294
0.938235 0.000000 0.039216
0.968627 0.007843 0.039216
0.046079 0.138235 0.023529
0.158333 0.141299 0.026961
0.347672 0.138357 0.027328
0.512745 0.119118 0.030883
0.654412 0.084804 0.031373
0.775184 0.028615 0.031373
0.881372 0.022671 0.035294
0.938235 0.023529 0.038297
0.968627 0.034804 0.039216
0.077451 0.305882 0.027451
0.140808 0.311152 0.031373
0.335294 0.312990 0.028431
0.502941 0.317524 0.031373
0.661765 0.310784 0.031373
0.781250 0.290196 0.035294
0.885294 0.267892 0.039216
0.946569 0.237868 0.040074
0.979412 0.217647 0.042157
0.090196 0.469608 0.039216
0.118137 0.478922 0.047059
0.287990 0.476103 0.059804
0.460417 0.475919 0.029289
0.615196 0.478922 0.025000
0.757843 0.468076 0.027451
0.875613 0.439093 0.031005
0.945588 0.415993 0.031679
0.984314 0.395098 0.032843
0.094118 0.613725 0.064706
0.107598 0.617647 0.066666
0.149510 0.616177 0.070588
0.390686 0.613725 0.082598
0.558824 0.615686 0.059804
0.705882 0.610294 0.029167
0.837255 0.597059 0.019608
0.936029 0.568137 0.021569
0.984314 0.547059 0.025490
0.101961 0.722059 0.109804
0.113419 0.727451 0.111274
0.140196 0.726961 0.115196
0.283578 0.725062 0.127880
0.489951 0.724020 0.128922
0.643628 0.724448 0.113664
0.786275 0.723162 0.103554
0.903921 0.707537 0.072059
0.965686 0.688235 0.041176
0.114706 0.819608 0.167647
0.129044 0.823530 0.174510
0.151225 0.824265 0.177206
0.188480 0.822549 0.180882
0.421569 0.823039 0.208333
0.584681 0.822917 0.200858
0.733088 0.819608 0.183333
0.866667 0.818627 0.174510
0.940196 0.802941 0.171568
0.153431 0.911275 0.268628
0.168627 0.914705 0.271568
0.195588 0.914705 0.275981
0.218934 0.914522 0.279718
0.372059 0.909068 0.291667
0.552267 0.910784 0.301654
0.690564 0.907230 0.291912
0.821079 0.903860 0.280392
0.925490 0.902941 0.275981
0.196078 0.964706 0.333333
0.211765 0.968627 0.341176
0.231373 0.964706 0.341176
0.250980 0.964706 0.338725
0.331372 0.964706 0.350981
0.536765 0.964706 0.368627
0.668628 0.964706 0.365686
0.786275 0.964706 0.368627
0.905882 0.968627 0.364706
0.037745 0.015686 0.111274
0.185723 0.015686 0.107843
0.334436 0.016176 0.096569
0.504902 0.015686 0.105576
0.651226 0.010049 0.081618
0.772855 0.004228 0.065503
0.876961 0.003922 0.061274
0.934252 0.000000 0.061765
0.964706 0.000000 0.058334
0.043076 0.146140 0.118199
0.184490 0.142111 0.125238
0.350276 0.125353 0.108333
0.505783 0.075552 0.090809
0.649020 0.032598 0.076226
0.770159 0.022587 0.065196
0.874403 0.015196 0.061382
0.936941 0.019118 0.057415
0.968627 0.027451 0.058334
0.083211 0.318505 0.130024
0.168305 0.315089 0.119868
0.344118 0.315227 0.119731
0.507307 0.318091 0.097273
0.657598 0.308517 0.072610
0.778247 0.285065 0.065196
0.882445 0.262040 0.061765
0.942647 0.238281 0.059191
0.980269 0.218627 0.061275
0.088909 0.473713 0.102451
0.121263 0.482805 0.101363
0.293750 0.476088 0.108011
0.466368 0.477581 0.099517
0.618719 0.480055 0.081342
0.756556 0.464767 0.069117
0.872013 0.442693 0.068535
0.944324 0.421975 0.061114
0.984314 0.401471 0.058027
0.094118 0.611765 0.093138
0.111519 0.619363 0.099020
0.166728 0.618137 0.107108
0.398775 0.614951 0.116268
0.563480 0.614583 0.097549
0.705484 0.612102 0.124847
0.835171 0.597549 0.101226
0.936029 0.568137 0.071048
0.984314 0.547059 0.070833
0.099510 0.724510 0.133027
0.114583 0.729412 0.138212
0.143183 0.727543 0.139752
0.293022 0.724334 0.156487
0.491422 0.725827 0.159161
0.647917 0.725981 0.163848
0.787960 0.724173 0.198407
0.905208 0.707391 0.199142
0.967157 0.690380 0.183517
0.117279 0.822549 0.200980
0.129948 0.823530 0.208226
0.154841 0.822764 0.206066
0.215426 0.822549 0.210310
0.431556 0.819608 0.235049
0.588174 0.822595 0.244960
0.731618 0.822273 0.257905
0.867647 0.818260 0.284651
0.936765 0.803064 0.295466
0.157353 0.914277 0.306250
0.168742 0.911703 0.309743
0.195818 0.914491 0.312745
0.220205 0.911236 0.311910
0.384099 0.908609 0.321354
0.562109 0.907046 0.341467
0.691008 0.906878 0.353202
0.824142 0.906916 0.363350
0.925919 0.902941 0.382414
0.200000 0.964706 0.367156
0.215196 0.968627 0.371017
0.234314 0.964706 0.370220
0.254718 0.965993 0.360294
0.362255 0.964706 0.377206
0.551961 0.964706 0.398039
0.678432 0.964706 0.416789
0.793628 0.965625 0.430331
0.909804 0.968137 0.449019
0.108824 0.007843 0.277451
0.248529 0.007843 0.276103
0.384314 0.008578 0.260784
0.507475 0.007843 0.223284
0.651471 0.003922 0.232843
0.771569 0.001103 0.245098
0.874510 0.007598 0.241912
0.937745 0.010172 0.236397
0.971569 0.016667 0.232353
0.088235 0.154289 0.287133
0.199893 0.116973 0.288695
0.388082 0.098131 0.274510
0.509084 0.068551 0.241743
0.650735 0.025306 0.247243
0.773774 0.027053 0.252084
0.872549 0.037990 0.241268
0.935064 0.051838 0.236259
0.976471 0.067892 0.233701
0.059804 0.327206 0.288971
0.160447 0.327114 0.295956
0.360355 0.317524 0.290074
0.520037 0.297886 0.272978
0.658946 0.277451 0.260417
0.777604 0.265870 0.252819
0.881924 0.255331 0.247488
0.945680 0.239032 0.237408
0.980392 0.231373 0.235539
0.078309 0.486152 0.297916
0.144945 0.489828 0.300214
0.319761 0.482108 0.296722
0.472871 0.479994 0.297733
0.620466 0.478064 0.295404
0.755453 0.461075 0.273560
0.866575 0.446569 0.264001
0.944087 0.425046 0.254412
0.984314 0.411520 0.250123
0.088726 0.619608 0.303431
0.114828 0.623897 0.303064
0.226225 0.618137 0.301348
0.410417 0.613174 0.310417
0.568873 0.615686 0.312745
0.705821 0.614645 0.319118
0.834436 0.600980 0.308211
0.936152 0.576225 0.290012
0.982353 0.558823 0.283824
0.103064 0.728064 0.326103
0.120543 0.733088 0.328201
0.156495 0.730637 0.326991
0.336045 0.725383 0.336964
0.505453 0.724755 0.348529
0.648391 0.726440 0.354151
0.785386 0.725735 0.367984
0.901961 0.710616 0.356755
0.966544 0.695098 0.346569
0.122304 0.822794 0.372059
0.137500 0.823530 0.376961
0.167647 0.822182 0.378860
0.277910 0.821170 0.384130
0.454779 0.820343 0.399020
0.599632 0.819332 0.406832
0.733640 0.820159 0.414951
0.863358 0.818536 0.423928
0.939460 0.806863 0.424510
0.160417 0.910784 0.435784
0.180392 0.911795 0.437255
0.203187 0.911244 0.439920
0.259298 0.910386 0.442846
0.418137 0.908946 0.453493
0.577221 0.905331 0.467417
0.701654 0.906924 0.470834
0.824954 0.903416 0.477972
0.925490 0.902941 0.489706
0.203922 0.964706 0.482353
0.219118 0.964706 0.483211
0.235049 0.964706 0.483824
0.259191 0.965809 0.482353
0.412255 0.963235 0.491177
0.568995 0.961152 0.508333
0.688481 0.963971 0.522549
0.798529 0.964829 0.526593
0.908824 0.965686 0.541176
0.131863 0.002451 0.466666
0.264522 0.000000 0.473223
0.431250 0.000000 0.473039
0.546507 0.000000 0.433395
0.652206 0.000000 0.377451
0.767647 0.000000 0.364216
0.867647 0.008823 0.376961
0.932843 0.036458 0.390992
0.976471 0.081373 0.405882
0.088052 0.109987 0.489338
0.215204 0.075222 0.477068
0.413098 0.032537 0.472932
0.541667 0.031687 0.439461
0.648285 0.023009 0.384405
0.763664 0.033456 0.375812
0.868566 0.039354 0.390947
0.943443 0.103355 0.410355
0.980392 0.153431 0.417647
0.097304 0.339706 0.487010
0.120343 0.335079 0.496339
0.344639 0.291146 0.491146
0.535585 0.285846 0.462944
0.649020 0.279228 0.416422
0.769669 0.276241 0.422105
0.874234 0.266421 0.427390
0.943750 0.267494 0.426164
0.982108 0.288235 0.426593
0.049142 0.488235 0.477084
0.068245 0.496936 0.480568
0.277083 0.493045 0.478049
0.474456 0.479266 0.474081
0.623039 0.466789 0.455791
0.748185 0.454496 0.446078
0.857828 0.447028 0.444317
0.938044 0.438718 0.438235
0.984865 0.437316 0.431311
0.030392 0.621569 0.462745
0.102788 0.626808 0.473131
0.275306 0.622672 0.473407
0.435784 0.615686 0.476195
0.570956 0.616054 0.484191
0.701777 0.617371 0.487990
0.822978 0.603431 0.473039
0.925398 0.589062 0.463388
0.978432 0.577696 0.455392
0.091054 0.731372 0.486336
0.163917 0.732215 0.495772
0.251532 0.732200 0.493827
0.388373 0.727681 0.489844
0.522518 0.722518 0.496079
0.653577 0.727106 0.508969
0.780591 0.725981 0.514936
0.900490 0.717026 0.504664
0.964154 0.702451 0.494546
0.132230 0.826470 0.512745
0.151716 0.826838 0.512071
0.227696 0.824265 0.514675
0.344148 0.822549 0.518505
0.485662 0.817341 0.523284
0.616759 0.818627 0.536504
0.737010 0.819638 0.541391
0.858916 0.818949 0.546201
0.939828 0.807844 0.541176
0.165196 0.910784 0.543321
0.184314 0.912967 0.543651
0.227895 0.910784 0.542923
0.324150 0.908571 0.549624
0.464369 0.906954 0.554749
0.596147 0.903010 0.567049
0.711979 0.903630 0.573407
0.825429 0.902083 0.577190
0.925674 0.899019 0.588235
0.200000 0.964706 0.569608
0.213235 0.967340 0.572243
0.234682 0.967157 0.571079
0.317218 0.964706 0.575061
0.457843 0.963480 0.580638
0.583885 0.960784 0.592218
0.701593 0.962622 0.607353
0.807169 0.964706 0.613051
0.909804 0.960784 0.620588
0.113726 0.031372 0.637255
0.250735 0.023530 0.640931
0.412745 0.000000 0.634804
0.566667 0.000000 0.623775
0.679412 0.000000 0.596079
0.771078 0.000000 0.526470
0.862255 0.004902 0.492647
0.930392 0.030147 0.494608
0.976471 0.074510 0.515686
0.091912 0.094608 0.639215
0.219209 0.063603 0.644148
0.393444 0.018627 0.638051
0.560447 0.026317 0.627543
0.674510 0.019485 0.597181
0.767157 0.017739 0.533824
0.861520 0.059314 0.501654
0.939736 0.114246 0.513756
0.984069 0.138235 0.537255
0.095588 0.321569 0.649510
0.114461 0.307598 0.658211
0.338358 0.266054 0.652206
0.542341 0.245098 0.643750
0.670588 0.250980 0.616667
0.764522 0.256434 0.560233
0.860907 0.292647 0.535662
0.938664 0.299693 0.546813
0.983824 0.309314 0.563725
0.096814 0.500490 0.648284
0.112102 0.501225 0.650245
0.175980 0.493076 0.646998
0.455362 0.468107 0.641452
0.632598 0.464338 0.621814
0.731066 0.465686 0.581127
0.839645 0.465319 0.582292
0.929810 0.457445 0.581219
0.981127 0.460049 0.588725
0.029412 0.622549 0.625490
0.045833 0.629289 0.627328
0.196079 0.625490 0.631617
0.411152 0.623284 0.624877
0.563235 0.617157 0.624510
0.698039 0.607230 0.615074
0.815441 0.597304 0.609069
0.916912 0.590196 0.600858
0.969608 0.589216 0.598039
0.018873 0.733088 0.612990
0.110049 0.734712 0.609559
0.227941 0.731679 0.617463
0.404442 0.729136 0.621293
0.540319 0.723407 0.622917
0.660815 0.726440 0.635263
0.778186 0.726348 0.632475
0.893628 0.714706 0.625827
0.962010 0.707598 0.619118
0.143627 0.826960 0.624510
0.189706 0.826470 0.625551
0.259804 0.823530 0.628799
0.397733 0.823775 0.632414
0.513726 0.818872 0.631863
0.629902 0.817218 0.646385
0.745711 0.817524 0.650981
0.857108 0.818137 0.651716
0.944117 0.810784 0.650980
0.210539 0.907353 0.649265
0.246814 0.909099 0.649694
0.294485 0.907046 0.649326
0.374265 0.907107 0.652053
0.500123 0.902451 0.652941
0.611673 0.902206 0.658578
0.727206 0.900797 0.668873
0.830883 0.899081 0.674541
0.929412 0.895589 0.678677
0.225490 0.966666 0.660784
0.258333 0.964706 0.660784
0.301961 0.964706 0.662255
0.389461 0.963971 0.664706
0.505883 0.964706 0.671569
0.612255 0.962010 0.679902
0.718137 0.960784 0.692157
0.817402 0.962500 0.696079
0.911764 0.960784 0.701960
0.113725 0.060294 0.757353
0.245588 0.056373 0.754902
0.395098 0.044608 0.754412
0.541605 0.003493 0.748529
0.681618 0.000000 0.739951
0.783885 0.000000 0.718137
0.867770 0.002819 0.653922
0.926470 0.028248 0.609314
0.976471 0.074510 0.605882
0.100000 0.091851 0.752145
0.221790 0.071998 0.754741
0.384268 0.062439 0.755407
0.537745 0.036773 0.754718
0.676624 0.039675 0.739522
0.780883 0.023031 0.714997
0.864400 0.031863 0.659329
0.937355 0.095711 0.621546
0.980392 0.173530 0.622427
0.102451 0.294485 0.763358
0.129565 0.285080 0.765426
0.343383 0.252941 0.764736
0.519317 0.227803 0.761734
0.671078 0.238971 0.754718
0.780392 0.238082 0.731664
0.863113 0.227114 0.679657
0.934635 0.283334 0.646017
0.982230 0.330269 0.649878
0.126409 0.504902 0.764644
0.140188 0.504902 0.766184
0.236259 0.491299 0.762975
0.456457 0.465686 0.763320
0.635754 0.453922 0.756434
0.749425 0.453692 0.736826
0.836535 0.449081 0.692050
0.923836 0.465686 0.670466
0.974020 0.473100 0.679902
0.108088 0.636029 0.754902
0.124602 0.636029 0.758639
0.191115 0.635478 0.756128
0.397763 0.632659 0.756709
0.560417 0.616299 0.753922
0.714951 0.604871 0.738971
0.804167 0.601777 0.709498
0.905974 0.600398 0.702022
0.964706 0.596814 0.709559
0.051164 0.731372 0.738848
0.078753 0.737745 0.739032
0.208211 0.736213 0.742601
0.370159 0.736251 0.742930
0.529412 0.731403 0.740901
0.659314 0.727106 0.737400
0.778339 0.718826 0.729595
0.884919 0.710983 0.727321
0.958395 0.706924 0.726900
0.045343 0.826470 0.729289
0.119500 0.826838 0.728523
0.220067 0.824265 0.728983
0.358762 0.825000 0.732154
0.524693 0.822549 0.735784
0.643811 0.817938 0.738955
0.751961 0.817187 0.747763
0.863067 0.816927 0.745726
0.950490 0.810294 0.745588
0.181250 0.909497 0.733823
0.225712 0.912929 0.739277
0.290549 0.910646 0.734053
0.406066 0.909137 0.741667
0.541421 0.903340 0.744516
0.635616 0.901846 0.747250
0.739966 0.896446 0.756005
0.840625 0.899019 0.759804
0.936765 0.895589 0.760172
0.254902 0.968627 0.745588
0.289522 0.965196 0.747549
0.354779 0.966544 0.751961
0.466667 0.964706 0.755882
0.555637 0.964706 0.753432
0.648468 0.961703 0.760723
0.740196 0.960784 0.769118
0.832537 0.960600 0.774816
0.921569 0.956863 0.776961
0.135294 0.088236 0.847059
0.257843 0.087255 0.846078
0.387745 0.077206 0.846814
0.528309 0.065196 0.846078
0.662745 0.025490 0.840196
0.780883 0.000000 0.829289
0.878186 0.001961 0.807843
0.930025 0.028799 0.764951
0.976471 0.074510 0.723529
0.125613 0.109804 0.848652
0.236703 0.102451 0.845971
0.375858 0.094731 0.847457
0.521262 0.086275 0.849418
0.664032 0.080208 0.843076
0.784865 0.105805 0.834804
0.879075 0.075827 0.813174
0.941222 0.089706 0.773407
0.980392 0.125000 0.734314
0.127206 0.294853 0.851716
0.216115 0.285662 0.853737
0.361274 0.263542 0.856679
0.504994 0.239645 0.854749
0.653431 0.236642 0.854167
0.778064 0.242433 0.839951
0.874387 0.238970 0.821691
0.939001 0.226808 0.784436
0.980147 0.274510 0.744608
0.145956 0.506985 0.850000
0.188005 0.507031 0.857476
0.328064 0.500153 0.853370
0.473836 0.475230 0.853768
0.623468 0.456434 0.853002
0.757062 0.452849 0.842540
0.855269 0.447733 0.824173
0.928064 0.439890 0.789262
0.970711 0.461520 0.763235
0.149019 0.642157 0.846569
0.177758 0.644118 0.846569
0.250367 0.641912 0.846569
0.432598 0.636949 0.847733
0.571814 0.613971 0.846078
0.719118 0.599571 0.842831
0.826716 0.593873 0.825368
0.908701 0.589645 0.795404
0.961764 0.598039 0.781863
0.140073 0.742647 0.842770
0.176716 0.745496 0.842892
0.263511 0.741943 0.842218
0.409911 0.743980 0.843321
0.541115 0.744117 0.840870
0.665518 0.727451 0.839982
0.792034 0.714032 0.826930
0.882399 0.713358 0.804412
0.955392 0.716054 0.804412
0.132353 0.829657 0.831863
0.177145 0.828799 0.833211
0.248346 0.828738 0.831740
0.373131 0.828186 0.830913
0.524142 0.827206 0.832353
0.649571 0.823683 0.832108
0.757047 0.817892 0.827757
0.866789 0.810692 0.824326
0.952941 0.810784 0.821078
0.122304 0.909926 0.819608
0.175934 0.910401 0.819332
0.249602 0.909926 0.822365
0.350490 0.910784 0.823254
0.518199 0.906801 0.824448
0.648361 0.902987 0.828768
0.756219 0.898162 0.830116
0.848912 0.896339 0.833931
0.944608 0.895221 0.837622
0.228432 0.964706 0.818627
0.268627 0.964706 0.818627
0.332108 0.964706 0.822549
0.453064 0.964706 0.822917
0.571569 0.964706 0.830882
0.678799 0.964338 0.837255
0.758823 0.961519 0.838235
0.848530 0.959436 0.842525
0.929412 0.956863 0.846078
0.185294 0.122059 0.918137
0.284314 0.118566 0.918076
0.392524 0.115073 0.918627
0.516360 0.106066 0.922917
0.644853 0.088726 0.924265
0.773039 0.067647 0.921262
0.877941 0.075490 0.906862
0.937745 0.063664 0.894669
0.975981 0.075000 0.868628
0.173101 0.140747 0.915134
0.273476 0.133770 0.918137
0.387745 0.129519 0.921952
0.511726 0.117670 0.922488
0.642923 0.117402 0.922304
0.775551 0.151532 0.923897
0.881955 0.156266 0.914644
0.942042 0.143689 0.898920
0.976839 0.121079 0.868566
0.191789 0.309559 0.925980
0.275352 0.304074 0.923285
0.384681 0.285325 0.924173
0.507307 0.263373 0.925812
0.638971 0.260662 0.928064
0.769776 0.269899 0.925306
0.874111 0.276501 0.915073
0.945435 0.266958 0.902620
0.980392 0.241177 0.879902
0.217340 0.515809 0.921262
0.279902 0.512600 0.922978
0.382705 0.502022 0.922549
0.493582 0.484138 0.923422
0.618229 0.468535 0.926470
0.748460 0.461098 0.926585
0.865319 0.456541 0.917693
0.941398 0.451203 0.905246
0.970404 0.440563 0.876164
0.214706 0.648775 0.918627
0.246078 0.646845 0.918168
0.357843 0.644853 0.915134
0.475337 0.635876 0.917555
0.586520 0.617647 0.919608
0.719608 0.604075 0.922549
0.840564 0.594731 0.914705
0.928891 0.590686 0.902941
0.968627 0.584313 0.875981
0.222059 0.749510 0.916176
0.253025 0.748200 0.914522
0.346186 0.749510 0.914353
0.460363 0.749694 0.911083
0.572304 0.747457 0.912745
0.681556 0.729902 0.914223
0.810417 0.714583 0.917509
0.907682 0.708517 0.902512
0.963235 0.702451 0.876777
0.232231 0.830392 0.909804
0.266299 0.833885 0.913404
0.332905 0.832905 0.911152
0.457368 0.832123 0.910784
0.569179 0.834375 0.912071
0.675490 0.834360 0.910662
0.772763 0.822549 0.908364
0.887991 0.808165 0.902941
0.956005 0.806495 0.887255
0.224510 0.907291 0.909865
0.259314 0.910409 0.903056
0.313112 0.910800 0.906479
0.436619 0.907085 0.908739
0.554994 0.906862 0.903799
0.663159 0.906434 0.902781
0.765992 0.902834 0.903799
0.863725 0.898644 0.902880
0.949878 0.895098 0.902451
0.213236 0.960784 0.891667
0.254473 0.964706 0.895098
0.305147 0.963358 0.895466
0.405086 0.960784 0.894915
0.541422 0.960784 0.895098
0.660600 0.960784 0.898529
0.780025 0.960661 0.903431
0.872488 0.956863 0.906862
0.941666 0.952941 0.910294
0.215686 0.149020 0.945098
0.308824 0.141666 0.949020
0.403921 0.137255 0.949020
0.511765 0.133333 0.951471
0.629412 0.119608 0.949020
0.750980 0.100490 0.952941
0.850000 0.102941 0.950000
0.930392 0.125490 0.949020
0.968627 0.109804 0.945098
0.215196 0.167647 0.949020
0.304473 0.160294 0.948530
0.400123 0.152573 0.949020
0.504228 0.145098 0.949204
0.624020 0.140196 0.952696
0.753125 0.175184 0.955576
0.855147 0.179044 0.953799
0.934742 0.186764 0.952941
0.972549 0.179412 0.949020
0.244118 0.329412 0.955882
0.323529 0.324632 0.956005
0.405637 0.307598 0.956128
0.509313 0.293137 0.956863
0.625490 0.285784 0.956863
0.745956 0.285294 0.959681
0.857108 0.278431 0.957598
0.930515 0.285294 0.956863
0.975491 0.281373 0.951961
0.282353 0.515686 0.956863
0.342463 0.511765 0.956863
0.418382 0.506005 0.958701
0.511703 0.492157 0.959252
0.618382 0.478922 0.960784
0.735294 0.471078 0.960784
0.851348 0.462255 0.960784
0.930392 0.460784 0.959007
0.972549 0.455392 0.956863
0.290196 0.647059 0.952941
0.345833 0.643382 0.956618
0.427451 0.643137 0.956863
0.504166 0.634068 0.957598
0.600980 0.623529 0.960784
0.716176 0.609804 0.960784
0.833334 0.600981 0.960784
0.924755 0.595833 0.960784
0.968627 0.590196 0.956863
0.290196 0.748039 0.955392
0.344118 0.749326 0.952941
0.428799 0.749142 0.954657
0.513787 0.747120 0.955025
0.602696 0.741176 0.956863
0.697059 0.732291 0.959865
0.809191 0.719240 0.960784
0.921569 0.710294 0.960784
0.968627 0.704902 0.956863
0.298039 0.829412 0.956863
0.340196 0.829412 0.953309
0.432598 0.827451 0.956128
0.526471 0.834314 0.956250
0.612745 0.834314 0.954902
0.704289 0.831373 0.955025
0.788971 0.820343 0.957598
0.901593 0.810784 0.957721
0.968627 0.807844 0.955882
0.305392 0.902941 0.956863
0.354902 0.902941 0.956863
0.438235 0.906862 0.956863
0.527267 0.905208 0.954718
0.621323 0.904902 0.956863
0.712439 0.909007 0.956863
0.803922 0.907843 0.956863
0.879902 0.903003 0.955944
0.960784 0.895098 0.952941
0.286275 0.960784 0.952941
0.321079 0.960784 0.952941
0.388235 0.960784 0.951961
0.487255 0.960784 0.950490
0.598040 0.960784 0.949020
0.698530 0.960784 0.951471
0.797059 0.956863 0.952941
0.891176 0.952941 0.952941
0.949020 0.952941 0.952941
