src/assets/LUTs/proLUTs/Daisy.cube
TITLE "Daisy" LUT by @rossandhisjpegs
#LUMIXPHOTOSTYLE STD
LUT_3D_SIZE 5
DOMAIN_MIN 0.0 0.0 0.0
DOMAIN_MAX 1.0 1.0 1.0
0.015686 0.015686 0.015686
0.333333 0.019608 0.022549
0.650980 0.011765 0.027451
0.874510 0.003922 0.035294
0.968627 0.007843 0.039216
0.077451 0.305882 0.027451
0.335294 0.312990 0.028431
0.661765 0.310784 0.031373
0.885294 0.267892 0.039216
0.979412 0.217647 0.042157
0.094118 0.613725 0.064706
0.149510 0.616177 0.070588
0.558824 0.615686 0.059804
0.837255 0.597059 0.019608
0.984314 0.547059 0.025490
0.114706 0.819608 0.167647
0.151225 0.824265 0.177206
0.421569 0.823039 0.208333
0.733088 0.819608 0.183333
0.940196 0.802941 0.171568
0.196078 0.964706 0.333333
0.231373 0.964706 0.341176
0.331372 0.964706 0.350981
0.668628 0.964706 0.365686
0.905882 0.968627 0.364706
0.108824 0.007843 0.277451
0.384314 0.008578 0.260784
0.651471 0.003922 0.232843
0.874510 0.007598 0.241912
0.971569 0.016667 0.232353
0.059804 0.327206 0.288971
0.360355 0.317524 0.290074
0.658946 0.277451 0.260417
0.881924 0.255331 0.247488
0.980392 0.231373 0.235539
0.088726 0.619608 0.303431
0.226225 0.618137 0.301348
0.568873 0.615686 0.312745
0.834436 0.600980 0.308211
0.982353 0.558823 0.283824
0.122304 0.822794 0.372059
0.167647 0.822182 0.378860
0.454779 0.820343 0.399020
0.733640 0.820159 0.414951
0.939460 0.806863 0.424510
0.203922 0.964706 0.482353
0.235049 0.964706 0.483824
0.412255 0.963235 0.491177
0.688481 0.963971 0.522549
0.908824 0.965686 0.541176
0.113726 0.031372 0.637255
0.412745 0.000000 0.634804
0.679412 0.000000 0.596079
0.862255 0.004902 0.492647
0.976471 0.074510 0.515686
0.095588 0.321569 0.649510
0.338358 0.266054 0.652206
0.670588 0.250980 0.616667
0.860907 0.292647 0.535662
0.983824 0.309314 0.563725
0.029412 0.622549 0.625490
0.196079 0.625490 0.631617
0.563235 0.617157 0.624510
0.815441 0.597304 0.609069
0.969608 0.589216 0.598039
0.143627 0.826960 0.624510
0.259804 0.823530 0.628799
0.513726 0.818872 0.631863
0.745711 0.817524 0.650981
0.944117 0.810784 0.650980
0.225490 0.966666 0.660784
0.301961 0.964706 0.662255
0.505883 0.964706 0.671569
0.718137 0.960784 0.692157
0.911764 0.960784 0.701960
0.135294 0.088236 0.847059
0.387745 0.077206 0.846814
0.662745 0.025490 0.840196
0.878186 0.001961 0.807843
0.976471 0.074510 0.723529
0.127206 0.294853 0.851716
0.361274 0.263542 0.856679
0.653431 0.236642 0.854167
0.874387 0.238970 0.821691
0.980147 0.274510 0.744608
0.149019 0.642157 0.846569
0.250367 0.641912 0.846569
0.571814 0.613971 0.846078
0.826716 0.593873 0.825368
0.961764 0.598039 0.781863
0.132353 0.829657 0.831863
0.248346 0.828738 0.831740
0.524142 0.827206 0.832353
0.757047 0.817892 0.827757
0.952941 0.810784 0.821078
0.228432 0.964706 0.818627
0.332108 0.964706 0.822549
0.571569 0.964706 0.830882
0.758823 0.961519 0.838235
0.929412 0.956863 0.846078
0.215686 0.149020 0.945098
0.403921 0.137255 0.949020
0.629412 0.119608 0.949020
0.850000 0.102941 0.950000
0.968627 0.109804 0.945098
0.244118 0.329412 0.955882
0.405637 0.307598 0.956128
0.625490 0.285784 0.956863
0.857108 0.278431 0.957598
0.975491 0.281373 0.951961
0.290196 0.647059 0.952941
0.427451 0.643137 0.956863
0.600980 0.623529 0.960784
0.833334 0.600981 0.960784
0.968627 0.590196 0.956863
0.298039 0.829412 0.956863
0.432598 0.827451 0.956128
0.612745 0.834314 0.954902
0.788971 0.820343 0.957598
0.968627 0.807844 0.955882
0.286275 0.960784 0.952941
0.388235 0.960784 0.951961
0.598040 0.960784 0.949020
0.797059 0.956863 0.952941
0.949020 0.952941 0.952941
