src/assets/LUTs/proLUTs/Daisy.cube
TITLE "Daisy" LUT by @rossandhisjpegs
#LUMIXPHOTOSTYLE STD
LUT_3D_SIZE 33
DOMAIN_MIN 0.0 0.0 0.0
DOMAIN_MAX 1.0 1.0 1.0
0.015686 0.015686 0.015686
0.031005 0.015686 0.019485
0.073039 0.015686 0.019363
0.112254 0.015686 0.015686
0.153922 0.019608 0.019608
0.199633 0.019608 0.019608
0.240196 0.019608 0.022794
0.285907 0.019608 0.019608
0.333333 0.019608 0.022549
0.377696 0.019608 0.023529
0.414951 0.019608 0.023529
0.457353 0.019608 0.024877
0.496079 0.019608 0.023529
0.539461 0.015686 0.027451
0.579657 0.015686 0.027451
0.614338 0.013603 0.027451
0.650980 0.011765 0.027451
0.687622 0.009927 0.029289
0.718872 0.007843 0.031373
0.747549 0.007843 0.031373
0.776961 0.003922 0.031373
0.804044 0.003922 0.031373
0.828431 0.003922 0.035294
0.857108 0.003922 0.035294
0.874510 0.003922 0.035294
0.899755 0.003922 0.035294
0.914460 0.000000 0.035294
0.926103 0.000000 0.035294
0.938235 0.000000 0.039216
0.949388 0.000000 0.039216
0.957108 0.003922 0.039216
0.964706 0.003922 0.039216
0.968627 0.007843 0.039216
0.015686 0.031005 0.015686
0.031005 0.031005 0.015686
0.073047 0.031005 0.019248
0.119252 0.027574 0.019497
0.157720 0.027206 0.019608
0.200245 0.027206 0.019608
0.242670 0.023406 0.019708
0.288113 0.023502 0.020439
0.335263 0.023406 0.022549
0.377696 0.023406 0.023529
0.418589 0.023406 0.023529
0.459766 0.020914 0.027371
0.496079 0.019608 0.027451
0.541054 0.019608 0.027451
0.579657 0.019539 0.027451
0.614093 0.017704 0.029469
0.654779 0.015625 0.027451
0.687622 0.013783 0.031373
0.715005 0.011711 0.031373
0.745956 0.011642 0.032966
0.774586 0.007843 0.031373
0.801470 0.007843 0.033908
0.827206 0.007720 0.035294
0.851559 0.007720 0.035294
0.878401 0.003922 0.035294
0.899755 0.004753 0.035294
0.914460 0.007720 0.035294
0.923511 0.007720 0.035294
0.938235 0.007720 0.035891
0.949388 0.007720 0.039216
0.957108 0.008080 0.039216
0.964706 0.011642 0.039216
0.968627 0.011642 0.039216
0.015686 0.061765 0.019363
0.031005 0.061650 0.019248
0.076715 0.061765 0.019608
0.108923 0.065441 0.019608
0.158057 0.061519 0.019608
0.203753 0.055071 0.019608
0.239614 0.050000 0.023483
0.287922 0.046079 0.023338
0.333210 0.039461 0.023529
0.377765 0.034804 0.023529
0.418781 0.032031 0.023529
0.457430 0.027206 0.024877
0.496997 0.024908 0.026072
0.541054 0.024877 0.027451
0.579657 0.023284 0.027451
0.616176 0.021331 0.027581
0.650980 0.019608 0.029289
0.683946 0.017639 0.031373
0.716667 0.015579 0.031373
0.745956 0.015441 0.031473
0.776808 0.014062 0.035141
0.801470 0.011520 0.033946
0.829733 0.011520 0.035294
0.851540 0.007843 0.035294
0.881188 0.007843 0.035294
0.899755 0.007843 0.039024
0.914460 0.011520 0.038281
0.922794 0.011558 0.035294
0.938235 0.012224 0.035294
0.949388 0.015441 0.035662
0.957108 0.015456 0.039216
0.964821 0.019363 0.039216
0.968627 0.019363 0.039216
0.026716 0.096201 0.019608
0.035160 0.096312 0.019608
0.080859 0.096201 0.023506
0.115809 0.100088 0.023161
0.157797 0.100077 0.026593
0.200303 0.099625 0.023529
0.239392 0.099456 0.023529
0.289461 0.093547 0.023529
0.334926 0.088603 0.023529
0.372323 0.080618 0.024529
0.416291 0.076348 0.026340
0.462017 0.063109 0.027451
0.502175 0.050980 0.027451
0.537500 0.047400 0.027451
0.579657 0.036114 0.029657
0.614511 0.030638 0.029339
0.650980 0.027083 0.029412
0.684118 0.023161 0.031373
0.716873 0.019240 0.031373
0.747399 0.019240 0.033483
0.774739 0.015686 0.031511
0.801470 0.015318 0.034073
0.831128 0.014208 0.035294
0.855289 0.011765 0.035294
0.881372 0.015318 0.035294
0.899755 0.015318 0.039216
0.915127 0.016352 0.039216
0.926658 0.019240 0.038848
0.938235 0.019240 0.039216
0.949388 0.019608 0.035627
0.957108 0.023161 0.039216
0.964706 0.023529 0.039216
0.968627 0.027083 0.039216
0.046079 0.138235 0.023529
0.049877 0.138725 0.023529
0.077665 0.138725 0.023529
0.123208 0.132138 0.023529
0.158333 0.141299 0.026961
0.203217 0.138725 0.026425
0.243781 0.142647 0.027451
0.299494 0.142157 0.026961
0.347672 0.138357 0.027328
0.389583 0.137392 0.027451
0.429933 0.132199 0.027451
0.475490 0.126149 0.028631
0.512745 0.119118 0.030883
0.547917 0.118260 0.030883
0.586734 0.106832 0.031373
0.617999 0.098637 0.031373
0.654412 0.084804 0.031373
0.687393 0.070082 0.031373
0.716391 0.050399 0.031373
0.746155 0.035861 0.033257
0.775184 0.028615 0.031373
0.801470 0.024801 0.032552
0.828768 0.022549 0.035294
0.854427 0.021584 0.035294
0.881372 0.022671 0.035294
0.899755 0.023039 0.039216
0.915196 0.023039 0.039216
0.930025 0.023529 0.039216
0.938235 0.023529 0.038297
0.949709 0.027282 0.038772
0.960325 0.030883 0.039216
0.964829 0.034329 0.039216
0.968627 0.034804 0.039216
0.054289 0.174020 0.023529
0.058701 0.173426 0.023529
0.077083 0.173407 0.023529
0.122916 0.170408 0.023529
0.162255 0.176838 0.027451
0.206959 0.177328 0.027451
0.251494 0.181135 0.027451
0.292892 0.180771 0.027451
0.341943 0.184559 0.029933
0.387573 0.181691 0.027451
0.432476 0.180829 0.027451
0.476015 0.178064 0.027853
0.518137 0.172412 0.031373
0.554526 0.171818 0.031373
0.591077 0.166054 0.031373
0.627328 0.162174 0.031373
0.664400 0.157843 0.034988
0.696649 0.149223 0.034969
0.725490 0.137255 0.034949
0.756380 0.127578 0.035294
0.782567 0.119731 0.035294
0.805181 0.102731 0.035294
0.830936 0.086152 0.035294
0.856150 0.071323 0.035294
0.881372 0.056036 0.035294
0.900479 0.043995 0.035907
0.917884 0.040181 0.036527
0.930025 0.036861 0.039216
0.937822 0.034145 0.039216
0.949755 0.034681 0.039216
0.961029 0.038603 0.039216
0.964829 0.042524 0.039216
0.968627 0.042524 0.039216
0.065196 0.215196 0.023529
0.069830 0.212009 0.027428
0.081327 0.215931 0.027451
0.119662 0.212308 0.027152
0.162163 0.215931 0.027451
0.208088 0.215931 0.027451
0.244715 0.215931 0.027451
0.292892 0.222342 0.029941
0.335661 0.223774 0.031189
0.386274 0.223568 0.030844
0.432093 0.225965 0.030867
0.475613 0.223292 0.031120
0.516942 0.222580 0.031373
0.554113 0.219117 0.031373
0.590364 0.218382 0.031787
0.621592 0.214806 0.031764
0.662010 0.208946 0.034926
0.696055 0.204780 0.035294
0.726302 0.197059 0.035294
0.755829 0.189338 0.035294
0.783088 0.181618 0.035294
0.808701 0.175253 0.037385
0.835784 0.168628 0.038710
0.859635 0.159068 0.039216
0.885355 0.147610 0.038664
0.909513 0.136152 0.039216
0.921569 0.124372 0.039216
0.930140 0.109566 0.039216
0.941666 0.097549 0.039216
0.953607 0.083578 0.039216
0.961029 0.066666 0.039216
0.967915 0.056518 0.039216
0.968627 0.050245 0.039216
0.076715 0.259314 0.023529
0.081373 0.262378 0.026497
0.089093 0.265250 0.026402
0.112952 0.265521 0.027451
0.158318 0.265701 0.031373
0.208812 0.265441 0.031373
0.251225 0.266138 0.027451
0.295090 0.266111 0.028121
0.342372 0.270006 0.029075
0.385535 0.270221 0.031989
0.429657 0.272327 0.031373
0.471201 0.273284 0.031373
0.515365 0.269363 0.031373
0.554412 0.267260 0.031373
0.590939 0.265924 0.031373
0.627083 0.262956 0.031373
0.661887 0.260662 0.031802
0.695921 0.254902 0.031775
0.724027 0.248039 0.035294
0.751980 0.241563 0.035294
0.781419 0.236198 0.035294
0.808824 0.229852 0.035294
0.833211 0.225100 0.037669
0.858211 0.217900 0.035294
0.885417 0.209467 0.036918
0.910179 0.204044 0.039216
0.923040 0.194891 0.039216
0.934080 0.184547 0.039216
0.945588 0.179167 0.039323
0.957231 0.171446 0.039993
0.964951 0.162010 0.040265
0.971718 0.153405 0.043137
0.975613 0.144853 0.042279
0.077451 0.305882 0.027451
0.085172 0.309804 0.027451
0.093873 0.313542 0.028431
0.109069 0.314706 0.031373
0.140808 0.311152 0.031373
0.201594 0.310784 0.034773
0.250490 0.310539 0.031924
0.290809 0.310018 0.030730
0.335294 0.312990 0.028431
0.377665 0.314584 0.030546
0.419301 0.316299 0.031373
0.460907 0.318964 0.031373
0.502941 0.317524 0.031373
0.546354 0.317034 0.034314
0.584559 0.315993 0.031373
0.621262 0.316269 0.031373
0.661765 0.310784 0.031373
0.691728 0.307966 0.031373
0.723223 0.300245 0.031373
0.753217 0.296446 0.032353
0.781250 0.290196 0.035294
0.808303 0.285907 0.035294
0.835049 0.280454 0.035294
0.859038 0.271017 0.035294
0.885294 0.267892 0.039216
0.908241 0.258946 0.036275
0.922304 0.250981 0.039216
0.934099 0.242678 0.039216
0.946569 0.237868 0.040074
0.954565 0.233946 0.039308
0.966115 0.226471 0.040196
0.975521 0.222519 0.043014
0.979412 0.217647 0.042157
0.081250 0.354166 0.030270
0.085084 0.351436 0.027451
0.093804 0.354166 0.031373
0.105411 0.355269 0.032372
0.119700 0.358226 0.031511
0.181399 0.353332 0.040981
0.237010 0.354741 0.040931
0.280270 0.354408 0.035049
0.325735 0.353462 0.031097
0.372059 0.354166 0.027451
0.414583 0.356028 0.030492
0.455258 0.358467 0.030404
0.488971 0.359191 0.031373
0.533168 0.361520 0.031373
0.573399 0.359191 0.031373
0.613534 0.362009 0.030787
0.650674 0.358640 0.029412
0.685784 0.354166 0.031373
0.720105 0.349012 0.031855
0.747549 0.343057 0.031821
0.775613 0.338113 0.032476
0.802573 0.333211 0.034325
0.832231 0.327474 0.033356
0.860107 0.321691 0.035294
0.888389 0.313971 0.035294
0.909317 0.307107 0.036397
0.923936 0.302451 0.036397
0.935489 0.296102 0.039216
0.946691 0.289828 0.039216
0.958494 0.283211 0.039216
0.967838 0.279588 0.039216
0.976559 0.274598 0.039216
0.980392 0.270710 0.039216
0.086275 0.395098 0.035294
0.090196 0.399020 0.035294
0.097794 0.399188 0.035294
0.109069 0.399020 0.037990
0.117157 0.401532 0.039216
0.150284 0.401103 0.042946
0.221553 0.398300 0.046324
0.273361 0.399341 0.046101
0.320527 0.395772 0.038971
0.367279 0.397450 0.031250
0.404626 0.398177 0.027451
0.447495 0.400789 0.027451
0.487990 0.401716 0.029228
0.522672 0.402819 0.029772
0.562791 0.401026 0.028677
0.602941 0.404412 0.029941
0.643750 0.401838 0.031373
0.679205 0.396569 0.030109
0.712745 0.392647 0.027987
0.742524 0.384804 0.029772
0.771814 0.378952 0.031373
0.801470 0.374264 0.031373
0.829274 0.367892 0.031373
0.854634 0.364093 0.032131
0.883578 0.356679 0.034620
0.906350 0.350467 0.033188
0.923040 0.346354 0.035294
0.934137 0.341054 0.035294
0.945741 0.329902 0.035447
0.958709 0.325980 0.036520
0.969117 0.323284 0.039216
0.976594 0.319240 0.039216
0.983088 0.311520 0.039216
0.088848 0.431128 0.037868
0.090196 0.436274 0.037868
0.095382 0.440234 0.037868
0.106863 0.440319 0.041548
0.118015 0.440319 0.042969
0.128799 0.440319 0.043539
0.191062 0.439706 0.050245
0.251888 0.434386 0.054902
0.306005 0.436397 0.050613
0.350712 0.436397 0.041923
0.394417 0.438588 0.034666
0.436860 0.435049 0.030025
0.475383 0.437239 0.025842
0.515196 0.441119 0.026405
0.554312 0.442793 0.027451
0.589583 0.444240 0.028167
0.628186 0.443627 0.027451
0.670079 0.442241 0.027451
0.705392 0.438013 0.027451
0.737132 0.431128 0.028979
0.765901 0.424770 0.028294
0.794975 0.416789 0.027451
0.821515 0.411941 0.029182
0.851471 0.407843 0.028799
0.878432 0.399112 0.031373
0.904534 0.392965 0.031668
0.922304 0.388603 0.033203
0.931985 0.380882 0.032721
0.943183 0.375904 0.032721
0.954898 0.369363 0.035294
0.967769 0.363312 0.035294
0.979086 0.361765 0.035294
0.984314 0.354044 0.035294
0.090196 0.469608 0.039216
0.094072 0.474877 0.043014
0.098039 0.477451 0.043137
0.106847 0.480255 0.046691
0.118137 0.478922 0.047059
0.126946 0.482230 0.049510
0.153248 0.480117 0.051624
0.226165 0.476149 0.057966
0.287990 0.476103 0.059804
0.335753 0.475000 0.055607
0.376746 0.475000 0.049510
0.423775 0.475000 0.038588
0.460417 0.475919 0.029289
0.503186 0.479795 0.023529
0.544761 0.482016 0.021078
0.578431 0.482843 0.025000
0.615196 0.478922 0.025000
0.656572 0.476930 0.026302
0.692586 0.477206 0.026072
0.725490 0.471354 0.027451
0.757843 0.468076 0.027451
0.787255 0.458808 0.027451
0.818137 0.453707 0.027451
0.846860 0.446446 0.028922
0.875613 0.439093 0.031005
0.898698 0.433012 0.031373
0.922580 0.429136 0.031373
0.934176 0.423177 0.031373
0.945588 0.415993 0.031679
0.957368 0.411887 0.035064
0.967647 0.404320 0.035294
0.978968 0.398974 0.033870
0.984314 0.395098 0.032843
0.094118 0.513603 0.045466
0.097916 0.513603 0.045466
0.099533 0.513603 0.044876
0.104849 0.513603 0.047059
0.112500 0.517524 0.047059
0.122549 0.515560 0.048403
0.131564 0.517524 0.050980
0.181882 0.514177 0.056147
0.270098 0.513603 0.064492
0.322423 0.513603 0.063929
0.367517 0.514698 0.056357
0.409739 0.513603 0.049690
0.451011 0.513603 0.043750
0.489338 0.516578 0.033701
0.529159 0.516827 0.023851
0.566445 0.518761 0.019608
0.608639 0.518689 0.021201
0.644987 0.513603 0.021201
0.679741 0.511887 0.022219
0.712902 0.511064 0.023529
0.746323 0.506755 0.024126
0.776961 0.500490 0.024077
0.809689 0.492770 0.024027
0.836930 0.487297 0.026796
0.865932 0.481250 0.027451
0.894872 0.473529 0.029270
0.918681 0.466544 0.029642
0.930637 0.462010 0.029044
0.943551 0.454580 0.029044
0.957231 0.450491 0.031522
0.968872 0.443015 0.032966
0.978137 0.439093 0.032966
0.981985 0.435171 0.032966
0.092402 0.548285 0.049265
0.094118 0.548285 0.049265
0.100107 0.549893 0.049265
0.103516 0.550000 0.051471
0.111029 0.553921 0.055392
0.120611 0.553653 0.053186
0.128677 0.553508 0.056786
0.143482 0.552581 0.056733
0.228493 0.548285 0.066912
0.296699 0.546699 0.074027
0.347503 0.550000 0.070098
0.393727 0.549410 0.063457
0.431066 0.549173 0.059314
0.474020 0.550000 0.049142
0.509329 0.553171 0.042386
0.550299 0.553010 0.030814
0.594486 0.553921 0.021814
0.633402 0.553921 0.017402
0.668153 0.553171 0.019608
0.700896 0.547388 0.021323
0.733732 0.544362 0.020251
0.766445 0.539852 0.021323
0.798774 0.532062 0.023529
0.829657 0.525858 0.023529
0.858333 0.518198 0.023958
0.887500 0.508586 0.025727
0.912576 0.502941 0.027451
0.925613 0.496959 0.028899
0.938235 0.490901 0.027451
0.951310 0.484888 0.027612
0.962990 0.481372 0.029305
0.978255 0.475437 0.031373
0.984314 0.473774 0.031373
0.094118 0.580882 0.058824
0.097982 0.584739 0.060907
0.101846 0.580882 0.060907
0.105710 0.579216 0.059069
0.109574 0.584314 0.058824
0.117034 0.586355 0.060907
0.126448 0.587232 0.064829
0.136397 0.584348 0.064829
0.187439 0.580484 0.069148
0.263917 0.580813 0.077328
0.324226 0.580308 0.078677
0.371814 0.582250 0.075387
0.416713 0.582184 0.071523
0.454535 0.582820 0.063837
0.495113 0.584804 0.057897
0.535662 0.583697 0.052087
0.578064 0.583762 0.037623
0.620711 0.582851 0.025988
0.657598 0.583088 0.021691
0.688481 0.580135 0.020845
0.719363 0.576961 0.019608
0.752799 0.576329 0.019608
0.787707 0.569975 0.019608
0.821936 0.564093 0.021105
0.853278 0.556894 0.021446
0.883245 0.551137 0.021902
0.911075 0.543015 0.023529
0.926428 0.535294 0.025080
0.938480 0.529657 0.025367
0.949805 0.521936 0.025367
0.961390 0.515923 0.027566
0.972672 0.508153 0.031373
0.980392 0.502451 0.031373
0.094118 0.613725 0.064706
0.096017 0.613725 0.062807
0.099877 0.613725 0.066421
0.103738 0.617647 0.066666
0.107598 0.617647 0.066666
0.114767 0.615686 0.068321
0.124755 0.618015 0.070588
0.134436 0.617647 0.072120
0.149510 0.616177 0.070588
0.215319 0.615135 0.078738
0.289583 0.613725 0.083701
0.348101 0.612439 0.085601
0.390686 0.613725 0.082598
0.435172 0.612561 0.078064
0.475735 0.613725 0.072304
0.518260 0.614767 0.064583
0.558824 0.615686 0.059804
0.600306 0.615686 0.051103
0.641054 0.614583 0.039461
0.675797 0.616851 0.034498
0.705882 0.610294 0.029167
0.738051 0.607843 0.022181
0.770220 0.606618 0.019608
0.806372 0.599448 0.018750
0.837255 0.597059 0.019608
0.868995 0.592831 0.019608
0.899020 0.583578 0.019976
0.922794 0.573897 0.021569
0.936029 0.568137 0.021569
0.949571 0.562562 0.021752
0.963235 0.554779 0.023529
0.974694 0.547059 0.025490
0.984314 0.547059 0.025490
0.094118 0.644730 0.074264
0.097974 0.644730 0.076283
0.101961 0.646569 0.076118
0.105514 0.648652 0.072599
0.109314 0.646569 0.074035
0.115276 0.650203 0.074264
0.124755 0.648798 0.077842
0.135539 0.650088 0.079412
0.140196 0.647090 0.080269
0.171990 0.646569 0.079684
0.255185 0.646569 0.092073
0.319118 0.643995 0.098529
0.366835 0.643336 0.097794
0.415453 0.644485 0.093872
0.457529 0.648775 0.091789
0.499996 0.647431 0.083946
0.542463 0.650368 0.077941
0.582847 0.646569 0.071320
0.620588 0.648407 0.062377
0.657954 0.647415 0.055649
0.695711 0.648407 0.049801
0.728412 0.645711 0.045221
0.756005 0.638726 0.029657
0.788970 0.634287 0.020929
0.822917 0.629902 0.019148
0.854657 0.627730 0.018172
0.883846 0.622304 0.019608
0.911274 0.614258 0.019608
0.928324 0.604779 0.019868
0.940073 0.599142 0.019608
0.955515 0.591422 0.019608
0.970833 0.583824 0.021748
0.982476 0.579902 0.023529
0.094118 0.673530 0.085784
0.098039 0.673530 0.085784
0.101961 0.673530 0.087853
0.109436 0.675735 0.087990
0.113235 0.675735 0.089706
0.113725 0.677597 0.089706
0.124433 0.676057 0.089706
0.132475 0.679282 0.089706
0.141850 0.677451 0.093198
0.149502 0.673399 0.092394
0.214951 0.672350 0.100735
0.286520 0.674977 0.106840
0.347672 0.672457 0.111519
0.395343 0.672833 0.111228
0.438970 0.673530 0.104902
0.481495 0.674563 0.101103
0.523407 0.676348 0.099755
0.565372 0.678623 0.092593
0.603707 0.673530 0.085784
0.642731 0.676432 0.081380
0.680637 0.677451 0.073621
0.718260 0.676325 0.066176
0.748284 0.672840 0.065687
0.777934 0.667272 0.056120
0.809314 0.666912 0.045834
0.843995 0.659558 0.033831
0.875735 0.656296 0.024433
0.903186 0.647182 0.021055
0.918413 0.639522 0.019394
0.934352 0.633946 0.019608
0.947794 0.626226 0.019608
0.963182 0.618505 0.019662
0.974755 0.614706 0.019608
0.098039 0.698897 0.099632
0.099632 0.698897 0.098970
0.105048 0.698897 0.101225
0.107475 0.700490 0.101225
0.113434 0.700490 0.101225
0.115069 0.704163 0.101225
0.121132 0.702819 0.103117
0.132127 0.702819 0.103554
0.141391 0.702819 0.105300
0.147917 0.702819 0.107027
0.181771 0.700123 0.106748
0.248464 0.698897 0.113970
0.318505 0.698897 0.119638
0.373897 0.698897 0.123162
0.422633 0.698897 0.123568
0.467046 0.699644 0.119240
0.506618 0.699694 0.113787
0.548273 0.702819 0.111152
0.587094 0.701800 0.104128
0.624387 0.700490 0.099843
0.663863 0.701823 0.093505
0.701593 0.702271 0.088178
0.735547 0.699993 0.086635
0.765931 0.698242 0.085539
0.799387 0.695190 0.079320
0.831966 0.688725 0.068769
0.862638 0.686696 0.060103
0.894363 0.680634 0.046320
0.913113 0.676762 0.038940
0.928772 0.672672 0.030828
0.947917 0.666544 0.022695
0.959413 0.658896 0.019658
0.970220 0.652696 0.019608
0.101961 0.722059 0.109804
0.101961 0.725981 0.111228
0.105882 0.728278 0.111274
0.109804 0.727451 0.111274
0.113419 0.727451 0.111274
0.117034 0.727221 0.111274
0.121109 0.729902 0.112745
0.131617 0.725981 0.114874
0.140196 0.726961 0.115196
0.147917 0.724219 0.115196
0.159007 0.725981 0.115196
0.218122 0.725138 0.121691
0.283578 0.725062 0.127880
0.349265 0.724985 0.134819
0.400980 0.724602 0.135447
0.446155 0.726762 0.131572
0.489951 0.724020 0.128922
0.530959 0.726670 0.127282
0.570343 0.725981 0.118872
0.607077 0.726976 0.116667
0.643628 0.724448 0.113664
0.683839 0.725475 0.107475
0.719363 0.725981 0.101746
0.755101 0.725981 0.103431
0.786275 0.723162 0.103554
0.818505 0.719286 0.097059
0.852635 0.714951 0.091146
0.880392 0.709911 0.080607
0.903921 0.707537 0.072059
0.917141 0.702221 0.065809
0.936274 0.695986 0.054167
0.951716 0.692111 0.044072
0.965686 0.688235 0.041176
0.101961 0.750490 0.117769
0.105802 0.750532 0.117769
0.109643 0.753064 0.120182
0.114706 0.754286 0.121565
0.118505 0.756664 0.121691
0.118995 0.753064 0.120554
0.122434 0.753064 0.121691
0.131912 0.754680 0.125318
0.143474 0.753064 0.124265
0.149265 0.753064 0.125613
0.156059 0.750490 0.124686
0.188672 0.751375 0.130297
0.249388 0.750490 0.136872
0.323840 0.747614 0.147246
0.377819 0.748774 0.151348
0.422917 0.751857 0.149142
0.469853 0.751164 0.143321
0.515093 0.750490 0.142015
0.553186 0.751616 0.137010
0.590384 0.750490 0.132908
0.628186 0.749142 0.130637
0.665101 0.750027 0.123801
0.703623 0.748721 0.118152
0.738971 0.749866 0.118271
0.773744 0.749479 0.114430
0.808873 0.745220 0.111152
0.838979 0.744485 0.110669
0.864985 0.736975 0.103220
0.890150 0.733134 0.099923
0.909191 0.729408 0.092892
0.924632 0.725613 0.090074
0.940073 0.721611 0.082395
0.955515 0.715196 0.075980
0.107108 0.780147 0.135784
0.110991 0.780147 0.139668
0.114874 0.780147 0.139706
0.117394 0.780147 0.139706
0.121232 0.780147 0.142065
0.124877 0.780147 0.140740
0.128906 0.780147 0.143627
0.134291 0.777451 0.140932
0.147059 0.780821 0.144301
0.152183 0.777451 0.140932
0.159559 0.776226 0.144470
0.174196 0.776226 0.146622
0.224541 0.776226 0.152696
0.294118 0.776226 0.163243
0.355637 0.776226 0.169899
0.406127 0.778064 0.172342
0.456373 0.780147 0.172304
0.502941 0.778064 0.168383
0.540686 0.780147 0.169026
0.579665 0.779649 0.167885
0.616207 0.776685 0.157383
0.654044 0.776647 0.152152
0.688726 0.777451 0.147549
0.722694 0.777106 0.145389
0.760294 0.777819 0.139951
0.801248 0.776593 0.133456
0.833349 0.772794 0.130392
0.856549 0.766299 0.126034
0.882261 0.761765 0.122212
0.899027 0.757475 0.115702
0.916835 0.752696 0.112086
0.932353 0.748652 0.108249
0.947794 0.742157 0.104412
0.113725 0.802206 0.151226
0.117524 0.803309 0.155112
0.118681 0.803309 0.156181
0.121569 0.803309 0.156250
0.125138 0.803309 0.156250
0.128972 0.803309 0.159069
0.132805 0.803309 0.159069
0.138117 0.802447 0.159069
0.148867 0.803309 0.162010
0.155760 0.803309 0.162990
0.163480 0.801670 0.164928
0.171201 0.797537 0.163959
0.204948 0.799387 0.164752
0.265809 0.799387 0.174835
0.328201 0.799387 0.183218
0.385838 0.802206 0.190047
0.442892 0.800796 0.190441
0.490250 0.799387 0.187623
0.527941 0.799387 0.185287
0.565847 0.801716 0.186520
0.600812 0.799387 0.182889
0.635907 0.799387 0.175479
0.674510 0.801325 0.169952
0.710294 0.799387 0.163783
0.745956 0.801501 0.163695
0.785539 0.799387 0.155392
0.822105 0.799387 0.150697
0.848407 0.795466 0.154216
0.876333 0.792647 0.155285
0.897671 0.791176 0.152064
0.913181 0.783525 0.145412
0.929657 0.776873 0.138848
0.945098 0.770221 0.137133
0.114706 0.819608 0.167647
0.118597 0.823499 0.168597
0.122488 0.826286 0.171384
0.125214 0.823805 0.174234
0.129044 0.823530 0.174510
0.132874 0.826011 0.176992
0.136703 0.824081 0.178432
0.141299 0.823530 0.175490
0.151225 0.824265 0.177206
0.159957 0.826470 0.175766
0.167402 0.824448 0.177390
0.173192 0.822549 0.179075
0.188480 0.822549 0.180882
0.245282 0.819608 0.187010
0.299203 0.822549 0.197304
0.361581 0.823009 0.207966
0.421569 0.823039 0.208333
0.470833 0.819608 0.206404
0.514154 0.822549 0.206250
0.547763 0.822549 0.202543
0.584681 0.822917 0.200858
0.621109 0.822549 0.195742
0.657169 0.822856 0.193260
0.693750 0.821446 0.187960
0.733088 0.819608 0.183333
0.770098 0.819393 0.180178
0.806311 0.820159 0.176471
0.837439 0.819455 0.175705
0.866667 0.818627 0.174510
0.892984 0.815686 0.171568
0.905637 0.811581 0.174387
0.924755 0.804779 0.171476
0.940196 0.802941 0.171568
0.121569 0.845711 0.190809
0.122427 0.845711 0.190809
0.126294 0.845711 0.190809
0.130189 0.845711 0.190809
0.133701 0.845711 0.190809
0.137500 0.845711 0.193873
0.141299 0.848775 0.194731
0.145098 0.846381 0.194060
0.156740 0.846477 0.197794
0.164461 0.848775 0.197794
0.170075 0.845711 0.197794
0.178554 0.845711 0.196741
0.185937 0.845389 0.198116
0.224246 0.846955 0.203535
0.279910 0.845335 0.213113
0.340495 0.847147 0.222549
0.406127 0.845282 0.226777
0.454937 0.845255 0.227730
0.496576 0.843130 0.225245
0.535662 0.845711 0.221324
0.573407 0.846860 0.219409
0.609903 0.845711 0.216349
0.642670 0.845711 0.212232
0.675866 0.845711 0.214097
0.716697 0.845067 0.206495
0.753121 0.841789 0.203244
0.788886 0.842525 0.202574
0.820956 0.844374 0.198173
0.855254 0.841789 0.194256
0.882598 0.838645 0.194650
0.898476 0.836872 0.194784
0.917034 0.833824 0.191640
0.932475 0.830025 0.193873
0.127696 0.866421 0.212255
0.131618 0.869509 0.212255
0.135539 0.869608 0.216177
0.139461 0.869608 0.216177
0.143382 0.870343 0.216912
0.146691 0.869608 0.215556
0.149893 0.866421 0.215442
0.154289 0.868911 0.219240
0.164951 0.869057 0.216973
0.173652 0.866215 0.219730
0.181373 0.866421 0.217402
0.186267 0.869126 0.215442
0.192892 0.867616 0.216177
0.210784 0.869171 0.220534
0.263802 0.864292 0.225567
0.322403 0.867180 0.238235
0.394976 0.864951 0.240931
0.442402 0.865342 0.247549
0.486596 0.865686 0.247549
0.525613 0.865250 0.241598
0.561489 0.866943 0.242433
0.597909 0.866046 0.239560
0.631847 0.868367 0.238235
0.664132 0.867770 0.236926
0.699878 0.864767 0.229473
0.742563 0.864216 0.229657
