src/assets/LUTs/proLUTs/Earth.cube
TITLE "Earth" LUT by @rossandhisjpegs
#LUMIXPHOTOSTYLE LAND
LUT_3D_SIZE 5
DOMAIN_MIN 0.0 0.0 0.0
DOMAIN_MAX 1.0 1.0 1.0
0.019608 0.027451 0.023529
0.250000 0.035294 0.027451
0.503922 0.041177 0.027451
0.733333 0.047059 0.031373
0.800000 0.047059 0.035294
0.011765 0.260784 0.039216
0.288726 0.280392 0.036029
0.631863 0.279412 0.040196
0.856373 0.262010 0.045343
0.855883 0.235294 0.042157
0.025490 0.594118 0.135294
0.224510 0.620588 0.122059
0.687255 0.647059 0.188236
0.915196 0.588725 0.101470
0.917647 0.550980 0.052941
0.062745 0.810784 0.346079
0.232353 0.830392 0.316912
0.631863 0.824510 0.303921
0.893137 0.834314 0.382598
0.930392 0.811764 0.381373
0.227451 0.905882 0.478431
0.342157 0.913725 0.466667
0.613725 0.911764 0.431373
0.821569 0.901961 0.447059
0.921569 0.901961 0.474510
0.015686 0.027451 0.269608
0.226471 0.020588 0.275735
0.512255 0.032353 0.199020
0.724020 0.039216 0.178677
0.792157 0.043137 0.175490
0.005637 0.279412 0.292647
0.257537 0.319669 0.330698
0.659314 0.305392 0.284682
0.865932 0.309804 0.279473
0.874755 0.304166 0.276716
0.036275 0.618137 0.284314
0.185417 0.643137 0.305024
0.688970 0.659069 0.348775
0.911642 0.609191 0.338235
0.921079 0.581372 0.318137
0.063480 0.818627 0.394118
0.234191 0.840686 0.389154
0.620221 0.834682 0.389583
0.888419 0.840686 0.468321
0.933333 0.822549 0.477451
0.230393 0.905882 0.504902
0.340931 0.913725 0.504902
0.605882 0.920589 0.500000
0.819363 0.905882 0.505147
0.925490 0.905882 0.536274
0.003922 0.023529 0.513726
0.108824 0.020098 0.540196
0.460784 0.004902 0.539216
0.732353 0.015686 0.442647
0.839216 0.115686 0.470588
0.001471 0.245588 0.561275
0.127941 0.284804 0.609436
0.609069 0.269853 0.663480
0.881740 0.322304 0.577819
0.902941 0.380392 0.578922
0.057843 0.623530 0.641177
0.205147 0.655147 0.666912
0.645098 0.659804 0.663235
0.893873 0.638726 0.620833
0.937255 0.636274 0.622549
0.266177 0.846569 0.625490
0.313481 0.856250 0.625858
0.588971 0.854902 0.620098
0.876348 0.857353 0.664706
0.941176 0.834314 0.656373
0.317647 0.913725 0.647059
0.384313 0.917157 0.649510
0.601961 0.929412 0.657843
0.817647 0.927451 0.667647
0.927451 0.921569 0.692157
0.000000 0.027451 0.684314
0.048774 0.027451 0.692157
0.298039 0.023529 0.726471
0.642157 0.019608 0.722794
0.811765 0.065687 0.715686
0.014216 0.223530 0.730637
0.100674 0.249204 0.770772
0.438603 0.265196 0.833701
0.814032 0.266667 0.863358
0.899265 0.313481 0.857843
0.194117 0.598039 0.830882
0.288726 0.621079 0.843137
0.560539 0.642157 0.864706
0.866789 0.628431 0.890441
0.940686 0.638725 0.865686
0.228431 0.842402 0.846814
0.296630 0.853921 0.858395
0.569240 0.858946 0.866544
0.857292 0.861520 0.865625
0.945098 0.853186 0.847059
0.378431 0.909804 0.834314
0.456618 0.916667 0.838235
0.660784 0.927941 0.848039
0.831373 0.941176 0.850981
0.930392 0.938235 0.865686
0.000000 0.027451 0.729412
0.018627 0.027451 0.733333
0.243138 0.023529 0.749020
0.534314 0.020588 0.776471
0.796078 0.039216 0.792157
0.018627 0.198039 0.785294
0.102206 0.214951 0.803676
0.392157 0.231863 0.842157
0.735539 0.236519 0.884314
0.888235 0.265686 0.883334
0.309804 0.596078 0.890197
0.368137 0.618137 0.895588
0.546078 0.626470 0.912745
0.793137 0.620098 0.937745
0.931372 0.629412 0.933334
0.342156 0.800000 0.917647
0.415441 0.811764 0.920589
0.616177 0.827941 0.931863
0.816667 0.855637 0.945098
0.937255 0.857843 0.941176
0.447059 0.913725 0.929412
0.510784 0.916667 0.933333
0.670588 0.929412 0.941176
0.866667 0.941176 0.945098
0.929412 0.941176 0.945098
