src/assets/LUTs/proLUTs/Earth.cube
TITLE "Earth" LUT by @rossandhisjpegs
#LUMIXPHOTOSTYLE LAND
LUT_3D_SIZE 33
DOMAIN_MIN 0.0 0.0 0.0
DOMAIN_MAX 1.0 1.0 1.0
0.019608 0.027451 0.023529
0.027206 0.027451 0.027328
0.061274 0.027696 0.023774
0.100123 0.031005 0.023529
0.127941 0.031373 0.027451
0.154412 0.031373 0.027451
0.189216 0.031373 0.027451
0.220098 0.035294 0.027451
0.250000 0.035294 0.027451
0.281863 0.035294 0.027451
0.311274 0.035294 0.027451
0.339706 0.036642 0.027451
0.370588 0.039216 0.027451
0.405392 0.039216 0.027451
0.436274 0.039216 0.027451
0.469240 0.039216 0.027451
0.503922 0.041177 0.027451
0.534681 0.043137 0.027451
0.569853 0.043137 0.027451
0.602451 0.043137 0.029044
0.633333 0.043137 0.031373
0.658946 0.044485 0.031373
0.689951 0.045833 0.031373
0.709191 0.047059 0.031373
0.733333 0.047059 0.031373
0.755515 0.047059 0.034436
0.778677 0.047059 0.032108
0.796691 0.047059 0.035294
0.800000 0.047059 0.035294
0.800000 0.047059 0.035294
0.800000 0.047059 0.035539
0.800000 0.047059 0.039093
0.800000 0.047059 0.035294
0.019731 0.046569 0.027328
0.034808 0.046691 0.027332
0.061757 0.046576 0.027328
0.096680 0.046680 0.027328
0.131372 0.047166 0.027451
0.158927 0.049896 0.027451
0.193037 0.050490 0.027451
0.220098 0.050490 0.027451
0.257720 0.047641 0.027451
0.288481 0.046691 0.027451
0.313970 0.044163 0.027451
0.344934 0.040522 0.027451
0.378385 0.040640 0.027451
0.409241 0.039216 0.027451
0.441858 0.039216 0.027451
0.473219 0.039281 0.027451
0.507843 0.041177 0.027451
0.544485 0.043137 0.027451
0.577083 0.043137 0.029588
0.608628 0.043137 0.029044
0.637209 0.043137 0.031296
0.666667 0.047017 0.031373
0.693750 0.043137 0.031373
0.716911 0.047059 0.031373
0.737255 0.047059 0.031373
0.763235 0.047059 0.031373
0.786397 0.047059 0.032108
0.800000 0.047059 0.035294
0.800475 0.047059 0.035294
0.800000 0.047059 0.035294
0.800000 0.047059 0.035294
0.800000 0.047059 0.035294
0.800000 0.047059 0.035294
0.019608 0.073775 0.027451
0.031128 0.069975 0.027451
0.058089 0.069853 0.031143
0.095856 0.073530 0.031128
0.127696 0.073775 0.027451
0.161681 0.076876 0.028026
0.197059 0.073775 0.027451
0.228501 0.073775 0.027451
0.257843 0.073775 0.030270
0.294991 0.074632 0.027451
0.324096 0.073361 0.027451
0.352574 0.067195 0.027451
0.388327 0.065778 0.027451
0.416812 0.063258 0.027451
0.449862 0.055883 0.027451
0.484437 0.052213 0.027451
0.515563 0.048652 0.027451
0.552076 0.043137 0.027566
0.587010 0.043137 0.027589
0.617793 0.043137 0.031373
0.647243 0.043137 0.031373
0.674471 0.046898 0.031373
0.701639 0.046890 0.031373
0.724701 0.047059 0.031373
0.748958 0.047059 0.032353
0.774877 0.047059 0.032177
0.793382 0.047059 0.035294
0.800000 0.047059 0.035294
0.800000 0.047059 0.035294
0.800023 0.047059 0.035294
0.800000 0.047059 0.035294
0.800000 0.047059 0.035294
0.800000 0.047059 0.035294
0.019608 0.097304 0.027819
0.031128 0.093494 0.027819
0.057499 0.096591 0.031005
0.091912 0.096936 0.031373
0.120420 0.096936 0.027895
0.154780 0.100801 0.031005
0.199947 0.100559 0.028186
0.228229 0.097714 0.027451
0.266207 0.102543 0.027727
0.302819 0.100961 0.030006
0.331985 0.100490 0.027451
0.362867 0.096695 0.027451
0.397534 0.094348 0.027451
0.429071 0.092797 0.027451
0.466751 0.092441 0.027451
0.498162 0.086470 0.027451
0.532598 0.082292 0.027451
0.567034 0.074755 0.027451
0.598284 0.067402 0.031166
0.625245 0.059831 0.031373
0.654794 0.052466 0.031373
0.682108 0.049391 0.031373
0.706495 0.049502 0.031373
0.732353 0.047059 0.031373
0.756495 0.047059 0.034038
0.782598 0.047059 0.032231
0.799701 0.047059 0.035294
0.800000 0.047059 0.035294
0.800000 0.047059 0.035294
0.800000 0.047059 0.035294
0.800000 0.047059 0.035294
0.800000 0.047059 0.035294
0.800000 0.047059 0.035294
0.019608 0.127451 0.031373
0.027696 0.126961 0.031373
0.050490 0.124234 0.031373
0.088480 0.123529 0.031373
0.119608 0.123529 0.031373
0.150751 0.123943 0.034268
0.196232 0.127849 0.031373
0.233900 0.128309 0.031373
0.273039 0.123897 0.031373
0.305254 0.124019 0.031373
0.342065 0.124019 0.031373
0.371937 0.123698 0.027451
0.409130 0.120098 0.027451
0.445956 0.121492 0.031082
0.480852 0.119884 0.027451
0.513235 0.115916 0.031143
0.549509 0.112009 0.029657
0.581235 0.109926 0.031113
0.615502 0.105852 0.031373
0.646002 0.098407 0.031373
0.675306 0.095404 0.032660
0.699541 0.087086 0.032552
0.723775 0.081618 0.031373
0.749265 0.074035 0.034804
0.767647 0.063726 0.032598
0.793382 0.060034 0.035294
0.803432 0.053922 0.035294
0.800414 0.050490 0.035294
0.800429 0.050490 0.035294
0.800000 0.050168 0.035294
0.800214 0.047059 0.035294
0.800000 0.047059 0.035294
0.800000 0.047059 0.035294
0.019608 0.157720 0.034681
0.023406 0.161539 0.034578
0.050206 0.154657 0.034681
0.081438 0.154412 0.034371
0.123116 0.154412 0.031787
0.154412 0.154412 0.031890
0.192164 0.158333 0.031373
0.237511 0.161776 0.033958
0.279780 0.157720 0.031373
0.316372 0.155342 0.031373
0.354465 0.151524 0.031373
0.387711 0.154010 0.031373
0.426333 0.154412 0.029075
0.460784 0.155143 0.031124
0.499655 0.154067 0.031373
0.535620 0.151923 0.031373
0.567708 0.148223 0.031373
0.605227 0.147427 0.031373
0.635785 0.143972 0.031373
0.667164 0.138112 0.031373
0.694623 0.136029 0.035064
0.721201 0.128921 0.034892
0.747740 0.125123 0.034873
0.770098 0.120711 0.035294
0.789798 0.117586 0.035294
0.811053 0.115809 0.035294
0.818383 0.108701 0.037983
0.818383 0.101497 0.035811
0.817356 0.097059 0.035294
0.814461 0.092459 0.035294
0.813641 0.085294 0.035294
0.810540 0.077960 0.035294
0.806618 0.071446 0.035294
0.015686 0.186029 0.035294
0.016398 0.192302 0.034559
0.042739 0.186182 0.035248
0.069853 0.185662 0.035294
0.111519 0.190962 0.038082
0.159168 0.181870 0.035792
0.192264 0.189078 0.035294
0.234069 0.189216 0.034720
0.282782 0.194547 0.034559
0.327083 0.193137 0.035087
0.368873 0.191207 0.032598
0.407475 0.192402 0.034559
0.444087 0.190411 0.031373
0.481358 0.189813 0.031373
0.519685 0.190610 0.031373
0.555883 0.190518 0.031373
0.588358 0.188480 0.032966
0.623407 0.186642 0.034559
0.656373 0.182843 0.034972
0.689147 0.180638 0.035294
0.715931 0.176440 0.035294
0.745588 0.172059 0.038481
0.770098 0.168137 0.035294
0.792364 0.167241 0.038481
0.813297 0.164215 0.038481
0.833249 0.160294 0.039055
0.833823 0.153049 0.035891
0.833211 0.152451 0.035294
0.829902 0.150827 0.035937
0.829902 0.144240 0.035363
0.829902 0.139752 0.035294
0.829167 0.136029 0.038481
0.825245 0.128186 0.038481
0.012623 0.223162 0.035294
0.015617 0.221025 0.035294
0.024701 0.220151 0.035294
0.062622 0.220385 0.035294
0.103906 0.219990 0.038358
0.158490 0.222070 0.039350
0.192118 0.226348 0.038519
0.234069 0.226413 0.035294
0.283670 0.231648 0.035294
0.335899 0.239331 0.035294
0.380293 0.237990 0.034704
0.421469 0.233406 0.032426
0.461519 0.230147 0.031373
0.499774 0.227593 0.031373
0.538726 0.231005 0.031373
0.574843 0.232441 0.033000
0.607230 0.232537 0.035294
0.644853 0.230147 0.038358
0.678799 0.226708 0.038358
0.708088 0.226226 0.038358
0.737178 0.222304 0.039216
0.766177 0.218382 0.039216
0.786275 0.214461 0.038948
0.809195 0.213599 0.039216
0.832935 0.209773 0.038573
0.849264 0.209011 0.039216
0.849264 0.203393 0.039216
0.848786 0.198775 0.039216
0.845726 0.197810 0.039216
0.845056 0.194485 0.039136
0.845343 0.190877 0.038358
0.841421 0.186887 0.038385
0.838358 0.183088 0.039216
0.011765 0.260784 0.039216
0.011765 0.257843 0.038235
0.016421 0.256863 0.035294
0.051103 0.260509 0.038848
0.089338 0.261030 0.039584
0.148866 0.263878 0.041697
0.192585 0.267463 0.039767
0.240074 0.270711 0.040747
0.288726 0.280392 0.036029
0.341299 0.287133 0.035294
0.393566 0.293444 0.036520
0.442862 0.293137 0.034314
0.482108 0.289706 0.031373
0.520649 0.283548 0.036642
0.557108 0.279718 0.034865
0.596569 0.279412 0.036857
0.631863 0.279412 0.040196
0.664277 0.280515 0.042157
0.699326 0.276716 0.045098
0.730514 0.271967 0.043750
0.756862 0.267647 0.042524
0.783486 0.265319 0.042800
0.808578 0.265441 0.043137
0.831740 0.261918 0.045251
0.856373 0.262010 0.045343
0.861428 0.258946 0.043137
0.863910 0.254105 0.042157
0.863726 0.250981 0.042157
0.863358 0.249755 0.043505
0.860784 0.246783 0.043045
0.858027 0.244056 0.043137
0.859804 0.242065 0.043137
0.855883 0.235294 0.042157
0.011765 0.296446 0.039216
0.007966 0.296446 0.039216
0.008877 0.299264 0.038182
0.032005 0.305637 0.036294
0.073162 0.311029 0.039354
0.130465 0.307107 0.039216
0.190081 0.311029 0.039216
0.243015 0.319730 0.041418
0.296385 0.325337 0.039921
0.351168 0.334379 0.035294
0.399387 0.345098 0.035294
0.454056 0.353945 0.037144
0.501317 0.354504 0.038113
0.545588 0.346856 0.041586
0.579649 0.335171 0.040801
0.617770 0.331958 0.042034
0.653554 0.330637 0.047365
0.682993 0.326715 0.049877
0.717900 0.321699 0.049877
0.750938 0.317728 0.049877
0.773652 0.314951 0.049877
0.801704 0.316422 0.049877
0.823897 0.311029 0.048997
0.849877 0.309003 0.049877
0.871170 0.304994 0.049877
0.876466 0.300368 0.047059
0.877121 0.300161 0.049349
0.876225 0.299092 0.049877
0.872656 0.294378 0.047059
0.873407 0.292421 0.047323
0.873407 0.291176 0.047235
0.872304 0.287466 0.048686
0.872304 0.283578 0.047059
0.011765 0.341667 0.039216
0.011765 0.345588 0.039216
0.009161 0.342892 0.038067
0.023537 0.346446 0.035294
0.058671 0.355454 0.039216
0.113725 0.359436 0.039216
0.176685 0.363971 0.036520
0.242011 0.364606 0.038626
0.301042 0.370282 0.037194
0.354166 0.377428 0.035639
0.402558 0.388342 0.035294
0.458035 0.399142 0.038795
0.510509 0.411703 0.044822
0.557843 0.407475 0.045833
0.600736 0.398928 0.045833
0.637255 0.389338 0.046484
0.668260 0.379044 0.051716
0.701026 0.373897 0.055109
0.733134 0.367938 0.053676
0.764706 0.361274 0.053676
0.790196 0.361029 0.055454
0.813358 0.354656 0.053676
0.840441 0.354656 0.054519
0.861665 0.349678 0.053676
0.882782 0.349510 0.053676
0.888971 0.346813 0.053676
0.886551 0.344394 0.054672
0.884858 0.345397 0.053676
0.885386 0.338971 0.054902
0.885049 0.337745 0.051233
0.883824 0.335049 0.051149
0.883824 0.331005 0.053592
0.885049 0.327205 0.050980
0.011765 0.384069 0.041789
0.011765 0.385578 0.039339
0.011765 0.385578 0.039216
0.016540 0.391671 0.037994
0.048207 0.398943 0.037546
0.093470 0.404814 0.035505
0.168635 0.409689 0.035294
0.236470 0.412278 0.037868
0.301011 0.416759 0.039154
0.358088 0.426103 0.039717
0.402642 0.429902 0.041789
0.455078 0.441544 0.043478
0.505622 0.453064 0.049004
0.565801 0.464028 0.060532
0.609681 0.459483 0.056495
0.650123 0.448671 0.050980
0.684926 0.437622 0.054902
0.715093 0.425387 0.058824
0.744585 0.413725 0.058066
0.773407 0.406307 0.058824
0.798759 0.402206 0.056511
0.824877 0.397986 0.054902
0.849387 0.395029 0.054902
0.872549 0.390307 0.054902
0.888879 0.389338 0.054902
0.896691 0.385417 0.054902
0.892770 0.385164 0.056250
0.894941 0.383666 0.056250
0.892770 0.377574 0.054902
0.892770 0.377206 0.054902
0.892770 0.373407 0.054902
0.892770 0.369731 0.054902
0.892770 0.372304 0.054902
0.014216 0.426471 0.041667
0.014216 0.430316 0.041667
0.014216 0.434160 0.041759
0.015548 0.435416 0.041667
0.041973 0.443811 0.046262
0.085080 0.445466 0.042050
0.148070 0.456832 0.044118
0.220343 0.457231 0.042203
0.299265 0.461274 0.048529
0.355882 0.466054 0.047993
0.407108 0.472089 0.051961
0.458916 0.479887 0.059298
0.506434 0.489767 0.068628
0.560095 0.499265 0.079565
0.616391 0.509957 0.090809
0.657384 0.504120 0.076884
0.691421 0.491176 0.062990
0.725460 0.477696 0.059973
0.755147 0.465349 0.058824
0.781832 0.453202 0.056771
0.805944 0.444608 0.058272
0.830867 0.439200 0.055745
0.854657 0.433548 0.057813
0.879580 0.430760 0.057353
0.897182 0.427941 0.058211
0.903876 0.425169 0.056051
0.903952 0.423285 0.055362
0.900490 0.418030 0.055515
0.898345 0.416176 0.058640
0.900260 0.415809 0.054902
0.898039 0.409804 0.058732
0.900490 0.410784 0.057353
0.900490 0.409314 0.057353
0.015686 0.471201 0.054044
0.015686 0.474410 0.056373
0.015686 0.478064 0.058701
0.017796 0.482679 0.062255
0.031495 0.484360 0.066253
0.081986 0.491418 0.058827
0.130637 0.503132 0.057965
0.198756 0.504515 0.056147
0.282047 0.509253 0.059559
0.348449 0.509681 0.062826
0.406878 0.515204 0.069003
0.459624 0.520899 0.078799
0.505499 0.529412 0.087868
0.558122 0.538515 0.098564
0.605392 0.544853 0.109436
0.661543 0.550980 0.126360
0.702328 0.546507 0.113541
0.735171 0.532207 0.088369
0.764338 0.516544 0.064063
0.791421 0.503309 0.057441
0.815181 0.492386 0.057353
0.840866 0.480818 0.054902
0.862278 0.473162 0.055400
0.881740 0.467199 0.058169
0.898254 0.467739 0.055883
0.908211 0.463358 0.058824
0.908211 0.459995 0.058824
0.907962 0.456009 0.056859
0.908211 0.454488 0.057231
0.907992 0.452302 0.060417
0.905882 0.446837 0.058778
0.905882 0.445393 0.061102
0.905882 0.444608 0.057231
0.019608 0.520834 0.073284
0.019608 0.520780 0.079412
0.019608 0.520343 0.088726
0.021607 0.523200 0.093176
0.027972 0.528186 0.094393
0.075858 0.535907 0.085662
0.122472 0.543949 0.081863
0.180132 0.544362 0.075482
0.262132 0.549939 0.075980
0.337990 0.547181 0.079534
0.402114 0.550980 0.083134
0.452451 0.554779 0.089339
0.502053 0.560294 0.101716
0.549020 0.571040 0.117157
0.598514 0.577451 0.127436
0.651593 0.583456 0.143083
0.705882 0.589461 0.158701
0.744064 0.582108 0.148093
0.771308 0.567908 0.122794
0.795504 0.555147 0.095427
0.820833 0.539706 0.071140
0.845466 0.528408 0.057797
0.866958 0.517892 0.054902
0.886765 0.507836 0.056488
0.906127 0.502880 0.055331
0.913725 0.496821 0.056243
0.912010 0.492969 0.054902
0.912010 0.493038 0.055247
0.911734 0.490686 0.057323
0.910011 0.487094 0.057269
0.912010 0.485402 0.058824
0.912010 0.483280 0.057039
0.909804 0.483333 0.054902
0.023529 0.555515 0.106618
0.021748 0.557411 0.114216
0.021691 0.561159 0.119860
0.023357 0.565024 0.127646
0.026961 0.563358 0.126241
0.071772 0.572752 0.116705
0.119240 0.580737 0.109291
0.168191 0.579044 0.100613
0.241146 0.586121 0.097427
0.324931 0.584804 0.097768
0.394485 0.585455 0.101555
0.451858 0.586887 0.108069
0.497135 0.592647 0.121032
0.547304 0.599743 0.134069
0.596867 0.604412 0.144799
0.645711 0.612500 0.158330
0.697794 0.619056 0.172672
0.746316 0.624265 0.183697
0.778064 0.614162 0.176892
0.803443 0.601471 0.161654
0.827941 0.589170 0.142126
0.852554 0.575226 0.109559
0.872426 0.561634 0.081985
0.894485 0.551593 0.058728
0.909926 0.546232 0.054381
0.917647 0.535697 0.053676
0.916912 0.527673 0.056396
0.914051 0.525367 0.054902
0.915809 0.522059 0.056511
0.915809 0.521886 0.054902
0.915678 0.518007 0.056871
0.913725 0.515989 0.058824
0.915809 0.512132 0.056740
0.025490 0.594118 0.135294
0.027451 0.597978 0.146998
0.027451 0.599877 0.150980
0.027451 0.601961 0.154534
0.030883 0.600245 0.158824
0.066605 0.609191 0.150980
0.115931 0.616912 0.140686
0.154105 0.614583 0.126348
0.224510 0.620588 0.122059
0.305515 0.624387 0.120466
0.379167 0.620956 0.120343
0.438235 0.619608 0.126103
0.491912 0.625245 0.136274
0.542586 0.630576 0.149387
0.590564 0.634191 0.165809
0.633027 0.640258 0.172794
0.687255 0.647059 0.188236
0.739400 0.652819 0.200674
0.782231 0.654902 0.212622
0.807537 0.645037 0.211704
0.831863 0.637010 0.199755
0.855024 0.622794 0.180882
0.875000 0.611887 0.159681
0.899693 0.600306 0.129473
0.915196 0.588725 0.101470
0.919608 0.581495 0.076716
0.917279 0.572181 0.062010
0.917647 0.564093 0.050980
0.917647 0.558578 0.051225
0.917647 0.554902 0.052941
0.917647 0.550980 0.052941
0.917647 0.550980 0.052941
0.917647 0.550980 0.052941
0.031127 0.628799 0.166054
0.031365 0.630760 0.171879
0.031373 0.631013 0.179772
0.031373 0.632720 0.179929
0.032981 0.636412 0.187255
0.067850 0.640196 0.184356
0.117502 0.648261 0.167915
0.153554 0.650544 0.157231
0.213664 0.653431 0.145588
0.290932 0.653091 0.141448
0.364254 0.652574 0.140357
0.431147 0.653206 0.145343
0.483134 0.655024 0.154366
0.535539 0.658578 0.165943
0.583946 0.661818 0.176716
0.628186 0.666422 0.191050
0.679473 0.672181 0.206679
0.726838 0.677941 0.218141
0.773529 0.683456 0.233755
0.811531 0.685428 0.248553
0.836933 0.676471 0.246845
0.858230 0.668034 0.234578
0.878799 0.658946 0.223001
0.903064 0.646718 0.200149
0.915686 0.637500 0.182230
0.921113 0.628922 0.154902
0.921569 0.619830 0.135095
0.917727 0.608866 0.100283
0.919485 0.602466 0.075797
0.921569 0.593138 0.057989
0.921569 0.587615 0.052704
0.921569 0.583578 0.050980
0.921569 0.583578 0.049142
0.035294 0.657843 0.201225
0.036956 0.661642 0.204971
0.035401 0.663971 0.207215
0.036849 0.663764 0.207230
0.037010 0.663971 0.210784
0.070565 0.670933 0.207085
0.115686 0.674924 0.191667
0.154779 0.679175 0.182958
0.205576 0.679657 0.178738
0.275253 0.683440 0.168620
0.348529 0.683578 0.158134
0.420320 0.682452 0.163457
0.478186 0.681556 0.168688
0.531334 0.681985 0.177612
0.577941 0.686535 0.192157
0.621515 0.689584 0.203906
0.669976 0.693382 0.219118
0.716230 0.701103 0.235363
0.761520 0.704902 0.247044
0.800414 0.710907 0.255270
0.836183 0.711275 0.272856
0.860072 0.703554 0.274755
0.883134 0.698085 0.263970
0.900245 0.688113 0.252328
0.916115 0.677757 0.240870
0.921561 0.667402 0.219478
0.921170 0.659237 0.201225
0.923016 0.651447 0.179679
0.921569 0.645313 0.160509
0.919570 0.635823 0.132843
0.921569 0.631862 0.104764
0.921569 0.625927 0.090985
0.921569 0.622059 0.081128
0.040809 0.687133 0.225980
0.040809 0.688603 0.229779
0.040809 0.687232 0.232376
0.043137 0.688576 0.232231
0.040809 0.692356 0.231939
0.073778 0.696071 0.234559
0.125000 0.702681 0.216299
0.155024 0.704572 0.204393
0.202543 0.707353 0.199050
0.262864 0.708333 0.189258
0.336274 0.710662 0.182476
0.406683 0.708333 0.181185
0.469991 0.707736 0.189353
0.522917 0.707686 0.194696
0.573123 0.708946 0.208908
0.616667 0.714584 0.218126
0.661949 0.718505 0.231801
0.705637 0.720343 0.248407
0.750367 0.725452 0.261397
0.789093 0.730270 0.266142
0.828569 0.735064 0.282981
0.861822 0.735719 0.300245
0.886030 0.731135 0.304909
0.904657 0.726183 0.296404
0.918474 0.713450 0.287010
0.925490 0.707315 0.274510
0.925053 0.699157 0.261098
0.925490 0.692284 0.246082
0.925490 0.681986 0.232077
0.923162 0.674633 0.205760
0.923307 0.670466 0.190465
0.925490 0.665124 0.179044
0.923897 0.662868 0.175122
0.044608 0.710294 0.250980
0.044608 0.714093 0.256250
0.044761 0.716667 0.256985
0.046967 0.718045 0.257965
0.047059 0.719424 0.263236
0.081618 0.721676 0.245466
0.133119 0.731158 0.236704
0.162745 0.731372 0.237255
0.198407 0.733211 0.223897
0.250046 0.733823 0.213725
0.328462 0.735049 0.208333
0.402206 0.732859 0.201838
0.462194 0.733823 0.205025
0.514338 0.732828 0.210647
0.567249 0.737745 0.223039
0.607108 0.739047 0.233257
0.655392 0.743627 0.246079
0.696615 0.745588 0.260049
0.738970 0.749112 0.278768
0.777175 0.752558 0.288465
0.817096 0.756434 0.299510
0.850858 0.759804 0.309543
0.881097 0.760049 0.320098
0.904167 0.754902 0.334605
0.919240 0.749387 0.326103
0.928263 0.741743 0.314292
0.928952 0.732108 0.303921
0.926961 0.724770 0.289476
0.925184 0.718014 0.279289
0.923269 0.712867 0.262010
0.925490 0.707690 0.249265
0.925490 0.703845 0.241545
0.925490 0.701471 0.233823
0.050980 0.737377 0.275858
0.050980 0.741219 0.274713
0.050980 0.743712 0.277405
0.050980 0.741667 0.288603
0.053508 0.740977 0.286887
0.097583 0.748740 0.270289
0.138005 0.753929 0.259811
0.170466 0.756985 0.257793
0.204289 0.759253 0.248131
0.248284 0.760907 0.240062
0.318420 0.759137 0.234451
0.389978 0.760444 0.228037
0.455025 0.758456 0.224158
0.510597 0.757786 0.225980
0.557575 0.759559 0.236596
0.601858 0.760275 0.250490
0.650306 0.763480 0.262194
0.690280 0.768608 0.273124
0.731273 0.770565 0.289338
0.764829 0.771871 0.297606
0.802420 0.775245 0.308195
0.835880 0.779167 0.319922
0.871025 0.779167 0.330094
0.895489 0.779546 0.346580
0.918934 0.779871 0.351747
0.925785 0.772108 0.346764
0.927321 0.764959 0.335417
0.929412 0.756285 0.327294
0.926838 0.750000 0.317969
0.929412 0.742647 0.301716
0.925490 0.739989 0.294079
0.925490 0.734804 0.285171
0.925490 0.734804 0.282598
0.057598 0.760539 0.295098
0.054940 0.763235 0.297833
0.054902 0.764461 0.305070
0.055017 0.764598 0.307222
0.067494 0.766023 0.302206
0.114966 0.771882 0.297373
0.148530 0.779412 0.283839
0.178454 0.782253 0.277497
0.212010 0.782047 0.268382
0.253432 0.781373 0.260562
0.316146 0.783686 0.253646
0.384490 0.782721 0.246936
0.448530 0.780607 0.246048
0.502573 0.780147 0.249640
0.549954 0.780147 0.251026
0.593505 0.783494 0.261520
0.641912 0.786765 0.272427
0.683739 0.787990 0.283333
0.723238 0.788480 0.297258
0.754534 0.791414 0.309796
0.790655 0.794608 0.320803
0.823897 0.794608 0.334138
0.857353 0.797687 0.342402
0.884314 0.798874 0.347472
0.915441 0.803677 0.363725
0.930270 0.799854 0.381296
0.933103 0.793597 0.376900
0.931878 0.785715 0.359490
0.930300 0.778248 0.350245
0.929412 0.772304 0.337868
0.929412 0.768214 0.331296
0.929412 0.764376 0.319852
0.929412 0.760539 0.315932
0.058824 0.787623 0.317034
0.058824 0.787623 0.323687
0.058893 0.783946 0.328378
0.059823 0.787623 0.325245
0.087608 0.791054 0.323422
0.130174 0.799215 0.318604
0.163971 0.802987 0.306418
0.187867 0.802447 0.301585
0.222948 0.804289 0.295772
0.262255 0.805645 0.286765
0.312454 0.804190 0.276272
0.378898 0.808356 0.270377
0.444562 0.805852 0.268183
0.504040 0.803799 0.265606
0.545818 0.801593 0.271078
0.593287 0.802723 0.278799
0.637561 0.802757 0.287929
0.680174 0.807966 0.298162
0.712745 0.807231 0.312622
0.746366 0.810704 0.324265
0.782721 0.810462 0.333088
0.812856 0.813971 0.342881
0.844118 0.814315 0.356495
0.871872 0.814763 0.363783
0.906066 0.818872 0.372518
0.926103 0.821197 0.382969
0.932598 0.816177 0.394202
0.929584 0.810539 0.389388
0.933333 0.802819 0.380392
0.933069 0.799123 0.365931
0.929412 0.795221 0.361030
0.929412 0.790353 0.353309
0.929412 0.787623 0.349510
0.062745 0.810784 0.346079
0.059804 0.811734 0.342095
0.059804 0.811764 0.344791
0.070558 0.809099 0.342433
0.114461 0.818627 0.345833
0.149142 0.823530 0.343137
0.175674 0.823530 0.327083
0.202543 0.827451 0.322304
0.232353 0.830392 0.316912
0.268995 0.828278 0.310202
0.317709 0.829473 0.304105
0.382965 0.830392 0.298989
0.440809 0.828554 0.294608
0.492555 0.828646 0.291973
0.545588 0.826470 0.289216
0.591207 0.825949 0.294240
0.631863 0.824510 0.303921
0.673376 0.824448 0.314982
0.709559 0.827757 0.322304
0.743842 0.826470 0.334161
0.776838 0.826470 0.345711
0.809252 0.829749 0.359191
0.838542 0.830392 0.365319
0.866605 0.833058 0.372794
0.893137 0.834314 0.382598
0.918597 0.837255 0.387776
0.931801 0.837684 0.402022
0.933333 0.834161 0.411459
0.933333 0.830025 0.410417
0.933333 0.820496 0.400704
0.933333 0.818627 0.393872
0.933333 0.817555 0.385294
0.930392 0.811764 0.381373
0.062745 0.830025 0.361152
0.062745 0.833946 0.366353
0.071760 0.832897 0.363059
0.107188 0.836642 0.370056
0.141038 0.844087 0.361856
0.165196 0.845577 0.358579
0.191667 0.847917 0.348246
0.214828 0.848775 0.344608
0.243995 0.851930 0.337653
0.275494 0.853312 0.336527
0.314116 0.851739 0.325636
0.380025 0.850980 0.319558
0.438066 0.852696 0.316835
0.491157 0.850368 0.311068
0.541789 0.845711 0.307115
0.586887 0.845711 0.310083
0.624203 0.845711 0.317402
0.664549 0.845255 0.326505
0.702696 0.845228 0.336282
0.735436 0.847181 0.345730
0.766131 0.844853 0.356954
0.800050 0.847917 0.366912
0.827573 0.848507 0.372526
0.858215 0.848158 0.383214
0.882475 0.848131 0.393015
0.907410 0.848774 0.399330
0.922465 0.851838 0.401593
0.930748 0.855147 0.413848
0.933333 0.851455 0.424387
0.933333 0.844853 0.425245
0.933333 0.841544 0.425053
0.933333 0.837745 0.418260
0.933333 0.833946 0.418260
0.066667 0.852451 0.382598
0.068827 0.853186 0.382720
0.101225 0.853186 0.381909
0.134804 0.856809 0.385716
0.161519 0.863817 0.379167
0.185065 0.864951 0.374862
0.207108 0.864813 0.370833
0.230270 0.868712 0.370994
0.252451 0.872059 0.364706
0.283334 0.874877 0.359276
0.326945 0.872059 0.355147
0.381878 0.872059 0.347917
0.436489 0.872518 0.340196
0.494730 0.868138 0.334505
0.539706 0.864951 0.332031
0.582230 0.864216 0.330883
0.622794 0.860662 0.332843
0.665587 0.861030 0.344485
0.701961 0.864216 0.350414
0.733754 0.862623 0.357598
0.763205 0.860295 0.367647
0.792892 0.860295 0.376463
0.819853 0.860295 0.384084
0.847342 0.860295 0.391705
0.873775 0.860295 0.399326
0.895956 0.861152 0.406250
