src/assets/LUTs/proLUTs/Earth.cube
TITLE "Earth" LUT by @rossandhisjpegs
#LUMIXPHOTOSTYLE LAND
LUT_3D_SIZE 9
DOMAIN_MIN 0.0 0.0 0.0
DOMAIN_MAX 1.0 1.0 1.0
0.019608 0.027451 0.023529
0.127941 0.031373 0.027451
0.250000 0.035294 0.027451
0.370588 0.039216 0.027451
0.503922 0.041177 0.027451
0.633333 0.043137 0.031373
0.733333 0.047059 0.031373
0.800000 0.047059 0.035294
0.800000 0.047059 0.035294
0.019608 0.127451 0.031373
0.119608 0.123529 0.031373
0.273039 0.123897 0.031373
0.409130 0.120098 0.027451
0.549509 0.112009 0.029657
0.675306 0.095404 0.032660
0.767647 0.063726 0.032598
0.800429 0.050490 0.035294
0.800000 0.047059 0.035294
0.011765 0.260784 0.039216
0.089338 0.261030 0.039584
0.288726 0.280392 0.036029
0.482108 0.289706 0.031373
0.631863 0.279412 0.040196
0.756862 0.267647 0.042524
0.856373 0.262010 0.045343
0.863358 0.249755 0.043505
0.855883 0.235294 0.042157
0.014216 0.426471 0.041667
0.041973 0.443811 0.046262
0.299265 0.461274 0.048529
0.506434 0.489767 0.068628
0.691421 0.491176 0.062990
0.805944 0.444608 0.058272
0.897182 0.427941 0.058211
0.898345 0.416176 0.058640
0.900490 0.409314 0.057353
0.025490 0.594118 0.135294
0.030883 0.600245 0.158824
0.224510 0.620588 0.122059
0.491912 0.625245 0.136274
0.687255 0.647059 0.188236
0.831863 0.637010 0.199755
0.915196 0.588725 0.101470
0.917647 0.558578 0.051225
0.917647 0.550980 0.052941
0.044608 0.710294 0.250980
0.047059 0.719424 0.263236
0.198407 0.733211 0.223897
0.462194 0.733823 0.205025
0.655392 0.743627 0.246079
0.817096 0.756434 0.299510
0.919240 0.749387 0.326103
0.925184 0.718014 0.279289
0.925490 0.701471 0.233823
0.062745 0.810784 0.346079
0.114461 0.818627 0.345833
0.232353 0.830392 0.316912
0.440809 0.828554 0.294608
0.631863 0.824510 0.303921
0.776838 0.826470 0.345711
0.893137 0.834314 0.382598
0.933333 0.830025 0.410417
0.930392 0.811764 0.381373
0.131373 0.890686 0.425490
0.200061 0.898468 0.420956
0.282353 0.903799 0.408946
0.445772 0.904412 0.383640
0.617402 0.898774 0.371814
0.752635 0.890686 0.386458
0.858211 0.886643 0.417524
0.929902 0.886765 0.436274
0.932843 0.882843 0.439216
0.227451 0.905882 0.478431
0.265687 0.909804 0.478431
0.342157 0.913725 0.466667
0.481373 0.917647 0.450980
0.613725 0.911764 0.431373
0.729902 0.905882 0.431373
0.821569 0.901961 0.447059
0.883333 0.901961 0.462745
0.921569 0.901961 0.474510
0.015686 0.031373 0.139215
0.107904 0.027451 0.142647
0.253922 0.031741 0.115686
0.380576 0.036765 0.096752
0.511520 0.039216 0.088725
0.629412 0.043137 0.081189
0.729411 0.043137 0.076961
0.800000 0.044056 0.076961
0.796568 0.043137 0.076470
0.016544 0.135356 0.142279
0.100437 0.131319 0.131870
0.270573 0.124403 0.113066
0.416911 0.116812 0.104840
0.553707 0.106679 0.100000
0.671913 0.085455 0.090847
0.769026 0.066912 0.091238
0.799456 0.056059 0.088182
0.796568 0.043627 0.080821
0.011888 0.272426 0.108946
0.066943 0.283395 0.121278
0.291422 0.300521 0.134559
0.495818 0.292509 0.137484
0.643382 0.293260 0.134681
0.762209 0.284207 0.135998
0.860784 0.277298 0.131250
0.867708 0.266713 0.122503
0.860662 0.254412 0.109191
0.015502 0.440809 0.134620
0.024127 0.451249 0.140242
0.260386 0.483395 0.137101
0.505530 0.500061 0.170780
0.697151 0.495833 0.188572
0.804412 0.454404 0.152826
0.893857 0.442233 0.145956
0.900490 0.432001 0.138993
0.898345 0.423530 0.133027
0.029412 0.607598 0.202696
0.029841 0.613450 0.216452
0.194118 0.629289 0.174448
0.488817 0.633149 0.191605
0.688970 0.652819 0.245588
0.833824 0.637653 0.255974
0.911949 0.600429 0.211826
0.917647 0.571814 0.159099
0.915931 0.560539 0.149265
0.048529 0.719914 0.286275
0.048797 0.723936 0.292034
0.196936 0.741989 0.261504
0.451800 0.741475 0.238710
0.654167 0.745588 0.278860
0.809513 0.759980 0.331924
0.920144 0.753922 0.358318
0.927535 0.723506 0.317547
0.925306 0.706250 0.290870
0.063603 0.814338 0.363358
0.120420 0.823039 0.366559
0.231372 0.834069 0.346660
0.430653 0.835279 0.319393
0.631005 0.829105 0.330392
0.773897 0.830392 0.368015
0.888573 0.836887 0.409712
0.933333 0.833380 0.440748
0.932965 0.814706 0.414829
0.147059 0.894608 0.444117
0.203922 0.901907 0.435034
0.278554 0.908624 0.422013
0.435532 0.907950 0.403554
0.613266 0.900245 0.395619
0.749877 0.891176 0.412584
0.854519 0.887255 0.437194
0.932468 0.890625 0.462684
0.933333 0.886765 0.463174
0.224019 0.901961 0.486275
0.262623 0.909375 0.486275
0.331740 0.913725 0.475735
0.473039 0.916360 0.472733
0.607843 0.915686 0.454167
0.731066 0.908333 0.450674
0.819363 0.903309 0.463480
0.883824 0.905392 0.478921
0.928432 0.905882 0.494118
0.015686 0.027451 0.269608
0.071446 0.027083 0.285294
0.226471 0.020588 0.275735
0.384804 0.024142 0.216176
0.512255 0.032353 0.199020
0.631863 0.036275 0.186152
0.724020 0.039216 0.178677
0.792157 0.039216 0.174510
0.792157 0.043137 0.175490
0.015686 0.128186 0.274142
0.057629 0.127466 0.280025
0.234069 0.113204 0.282996
0.423928 0.104412 0.231005
0.559130 0.099755 0.219179
0.680882 0.098162 0.211596
0.781219 0.117984 0.216881
0.821446 0.125643 0.215563
0.820588 0.122549 0.210784
0.005637 0.279412 0.292647
0.035907 0.293628 0.304381
0.257537 0.319669 0.330698
0.507874 0.306648 0.285295
0.659314 0.305392 0.284682
0.774111 0.305606 0.284345
0.865932 0.309804 0.279473
0.876256 0.307904 0.279228
0.874755 0.304166 0.276716
0.019608 0.462377 0.287255
0.034329 0.479657 0.301348
0.217647 0.509804 0.307138
0.504259 0.513603 0.321400
0.701532 0.491544 0.317769
0.805744 0.469684 0.309543
0.894884 0.462714 0.305943
0.903753 0.454412 0.305040
0.900858 0.451593 0.305760
0.036275 0.618137 0.284314
0.036765 0.627574 0.304473
0.185417 0.643137 0.305024
0.466851 0.646875 0.301471
0.688970 0.659069 0.348775
0.831189 0.645772 0.364890
0.911642 0.609191 0.338235
0.919792 0.589461 0.316360
0.921079 0.581372 0.318137
0.054289 0.729167 0.333211
0.056097 0.734589 0.343214
0.195374 0.747518 0.331709
0.435309 0.750889 0.321967
0.649694 0.751471 0.355392
0.808946 0.762607 0.408701
0.914675 0.761765 0.439706
0.930499 0.732583 0.406036
0.929412 0.714706 0.383701
0.063480 0.818627 0.394118
0.129167 0.827880 0.395037
0.234191 0.840686 0.389154
0.413725 0.841452 0.383272
0.620221 0.834682 0.389583
0.768106 0.836428 0.425122
0.888419 0.840686 0.468321
0.936949 0.835723 0.498928
0.933333 0.822549 0.477451
0.162622 0.898039 0.460172
0.211658 0.901961 0.461719
0.281036 0.909161 0.458211
0.428554 0.910294 0.457231
0.606250 0.904841 0.444056
0.746645 0.897825 0.461627
0.851072 0.890778 0.482874
0.929887 0.891437 0.511121
0.933333 0.887255 0.514706
0.230393 0.905882 0.504902
0.266177 0.909436 0.507476
0.340931 0.913725 0.504902
0.476961 0.920589 0.509926
0.605882 0.920589 0.500000
0.727084 0.913725 0.491544
0.819363 0.905882 0.505147
0.887133 0.905882 0.520098
0.925490 0.905882 0.536274
0.011765 0.021078 0.394118
0.047365 0.019608 0.413235
0.150613 0.015686 0.436274
0.348591 0.005392 0.414706
0.520343 0.005392 0.341666
0.633395 0.016238 0.317586
0.722672 0.027819 0.304534
0.792157 0.044301 0.309620
0.829902 0.138725 0.349510
0.007843 0.105392 0.401961
0.016950 0.106273 0.415196
0.152374 0.097779 0.445236
0.380101 0.062500 0.438611
0.563144 0.044945 0.362898
0.682345 0.063664 0.346507
0.795328 0.132705 0.357920
0.850796 0.202099 0.380308
0.868321 0.253799 0.399020
0.000000 0.265196 0.437010
0.003753 0.275919 0.445282
0.176930 0.304657 0.491789
0.467279 0.299448 0.507062
0.668444 0.299081 0.445405
0.779289 0.316897 0.433134
0.874387 0.345864 0.433762
0.893214 0.368367 0.447182
0.895956 0.377084 0.446201
0.026899 0.471078 0.485355
0.029902 0.485830 0.502566
0.186520 0.512178 0.527680
0.456373 0.521369 0.529595
0.692157 0.496599 0.474786
0.807414 0.491322 0.465112
0.892601 0.490456 0.465686
0.913725 0.494493 0.467463
0.913174 0.494056 0.467525
0.073529 0.632108 0.477451
0.132200 0.645741 0.494209
0.228370 0.659620 0.491728
0.436948 0.659589 0.478125
0.680760 0.666299 0.500980
0.816605 0.645098 0.493107
0.900061 0.620895 0.479351
0.927941 0.612990 0.479014
0.928677 0.611520 0.482108
0.083333 0.736826 0.459375
0.138235 0.750429 0.465732
0.220803 0.760677 0.466927
0.414905 0.760700 0.464805
0.638511 0.763725 0.480147
0.801003 0.772488 0.522855
0.908961 0.768459 0.544807
0.937186 0.743566 0.521369
0.934252 0.723529 0.500919
0.131005 0.834314 0.477696
0.181986 0.840824 0.483333
0.250582 0.845803 0.486826
0.412684 0.848530 0.491743
0.604902 0.846752 0.494363
0.768628 0.843122 0.525904
0.883854 0.845557 0.557966
0.938097 0.844684 0.586857
0.936274 0.826470 0.562255
0.209804 0.901961 0.524510
0.238504 0.905614 0.529504
0.298300 0.911642 0.534835
0.427918 0.917149 0.538434
0.594914 0.912653 0.533425
0.741192 0.904167 0.540640
0.848039 0.898162 0.560646
0.929435 0.894608 0.584153
0.937071 0.890870 0.595404
0.257353 0.905882 0.558824
0.290074 0.909804 0.561458
0.347182 0.916667 0.566422
0.480821 0.921569 0.570588
0.603921 0.923530 0.567647
0.730453 0.921017 0.562684
0.813848 0.915563 0.574142
0.890993 0.911948 0.587071
0.921569 0.909804 0.598039
0.003922 0.023529 0.513726
0.020588 0.023529 0.524755
0.108824 0.020098 0.540196
0.251226 0.016421 0.565931
0.460784 0.004902 0.539216
0.633333 0.007843 0.478186
0.732353 0.015686 0.442647
0.792647 0.026470 0.433578
0.839216 0.115686 0.470588
0.001716 0.092402 0.526716
0.005392 0.094118 0.534589
0.108088 0.090870 0.552574
0.268137 0.075490 0.583119
0.496201 0.035049 0.564583
0.669118 0.023407 0.496262
0.800367 0.099755 0.497549
0.858548 0.166881 0.514951
0.874020 0.231128 0.526471
0.001471 0.245588 0.561275
0.001961 0.258150 0.572304
0.127941 0.284804 0.609436
0.341667 0.290196 0.655025
0.609069 0.269853 0.663480
0.792402 0.285539 0.596017
0.881740 0.322304 0.577819
0.899203 0.356863 0.576899
0.902941 0.380392 0.578922
0.025980 0.446814 0.618137
0.037102 0.462010 0.629810
0.188419 0.491789 0.660110
0.397580 0.508824 0.678186
0.652941 0.493382 0.679167
0.811060 0.488021 0.623560
0.896998 0.500245 0.607720
0.922794 0.515594 0.607108
0.924755 0.524265 0.607108
0.057843 0.623530 0.641177
0.068750 0.636029 0.649878
0.205147 0.655147 0.666912
0.421691 0.662377 0.668015
0.645098 0.659804 0.663235
0.797549 0.644731 0.636519
0.893873 0.638726 0.620833
0.938235 0.638235 0.617647
0.937255 0.636274 0.622549
0.198039 0.752941 0.622304
0.219761 0.761029 0.631863
0.287132 0.769363 0.635600
0.445037 0.772763 0.630913
0.609068 0.772059 0.627941
0.794608 0.782077 0.656893
0.895833 0.770466 0.649633
0.943872 0.743627 0.626042
0.941176 0.733088 0.611030
0.266177 0.846569 0.625490
0.280025 0.852206 0.630882
0.313481 0.856250 0.625858
0.426838 0.858027 0.619547
0.588971 0.854902 0.620098
0.760601 0.854166 0.636397
0.876348 0.857353 0.664706
0.944240 0.851961 0.680270
0.941176 0.834314 0.656373
0.283088 0.907843 0.639461
0.298223 0.909804 0.639461
0.336213 0.912438 0.637132
0.445343 0.920834 0.637500
0.580760 0.920343 0.639461
0.732200 0.913878 0.641330
0.845833 0.907843 0.651716
0.928983 0.904412 0.677972
0.941176 0.898774 0.689461
0.317647 0.913725 0.647059
0.333334 0.913725 0.645099
0.384313 0.917157 0.649510
0.488725 0.921569 0.652206
0.601961 0.929412 0.657843
0.719608 0.931372 0.658088
0.817647 0.927451 0.667647
0.892892 0.919608 0.678431
0.927451 0.921569 0.692157
0.000000 0.023529 0.606863
0.005209 0.023529 0.613541
0.070098 0.023529 0.623652
0.188725 0.020159 0.646997
0.360294 0.015686 0.657843
0.560723 0.008762 0.640625
0.718505 0.020221 0.611275
0.799694 0.027451 0.576777
0.839216 0.101961 0.603431
0.000000 0.088235 0.619608
0.006043 0.094363 0.623346
0.073529 0.092203 0.642417
0.208517 0.085616 0.664591
0.391177 0.072794 0.691177
0.607238 0.057238 0.680116
0.774648 0.070297 0.650169
0.857905 0.143827 0.662171
0.875613 0.189399 0.669792
0.000000 0.228677 0.652328
0.033946 0.244163 0.672901
0.105882 0.268597 0.703462
0.291759 0.278416 0.737638
0.487561 0.277145 0.776532
0.722182 0.262194 0.774908
0.876808 0.282629 0.743137
0.902665 0.324265 0.730637
0.906985 0.355392 0.720956
0.083824 0.445098 0.720588
0.123951 0.464522 0.738672
0.213266 0.486612 0.751884
0.376264 0.497978 0.772549
0.555392 0.490625 0.795098
0.766728 0.474449 0.800528
0.906112 0.480362 0.769868
0.928608 0.496630 0.747863
0.930331 0.507843 0.742218
0.136274 0.603921 0.752206
0.164124 0.618628 0.761336
0.257476 0.629412 0.768628
0.422273 0.644393 0.778186
0.589338 0.650613 0.784804
0.776501 0.637255 0.795650
0.900613 0.633456 0.760784
0.940196 0.638235 0.744026
0.941911 0.647794 0.748284
0.167096 0.747672 0.755882
0.191605 0.756495 0.761091
0.261964 0.764047 0.771369
0.417364 0.768773 0.775697
0.581924 0.773805 0.780239
0.766322 0.773590 0.776271
0.883180 0.763526 0.754887
0.946806 0.757161 0.750008
0.946017 0.756434 0.743137
0.244363 0.847917 0.745588
0.262500 0.853921 0.753386
0.323162 0.859682 0.757353
0.446385 0.861214 0.761274
0.593076 0.862071 0.760723
0.738465 0.859084 0.755270
0.870864 0.869363 0.778860
0.942678 0.857613 0.767601
0.946201 0.837132 0.743137
0.337377 0.910110 0.757169
0.359007 0.913725 0.757391
0.417325 0.913955 0.762730
0.514714 0.920228 0.767839
0.594271 0.925153 0.751716
0.715755 0.920948 0.751486
0.842617 0.918260 0.763404
0.923552 0.914644 0.778684
0.941176 0.908149 0.791483
0.434804 0.916176 0.759804
0.454902 0.915196 0.765012
0.500245 0.921201 0.768015
0.542770 0.922488 0.760294
0.623040 0.929412 0.754167
0.723529 0.937255 0.763664
0.821569 0.936642 0.766667
0.894915 0.933333 0.777451
0.934804 0.929412 0.786274
0.000000 0.027451 0.684314
0.000000 0.027451 0.685417
0.048774 0.027451 0.692157
0.150613 0.023529 0.705147
0.298039 0.023529 0.726471
0.474265 0.017402 0.728431
0.642157 0.019608 0.722794
0.779044 0.031741 0.711029
0.811765 0.065687 0.715686
0.000000 0.088235 0.693015
0.003432 0.091835 0.700000
0.056649 0.088603 0.711274
0.165196 0.087745 0.726991
0.329657 0.081189 0.753432
0.522901 0.084253 0.777803
0.719363 0.107874 0.787469
0.850122 0.140778 0.792356
0.865196 0.171078 0.796936
0.014216 0.223530 0.730637
0.049356 0.234406 0.753584
0.100674 0.249204 0.770772
0.257046 0.263542 0.801992
0.438603 0.265196 0.833701
0.630668 0.256710 0.862868
0.814032 0.266667 0.863358
0.895435 0.290349 0.860815
0.899265 0.313481 0.857843
0.149510 0.453309 0.801470
0.182766 0.473039 0.816575
0.236397 0.484590 0.825827
0.362071 0.487684 0.839292
0.516115 0.485172 0.863113
0.691069 0.476287 0.886535
0.851746 0.472794 0.888664
0.923085 0.480255 0.880086
0.925122 0.491176 0.874510
0.194117 0.598039 0.830882
0.209620 0.609681 0.837071
0.288726 0.621079 0.843137
0.420772 0.634068 0.849326
0.560539 0.642157 0.864706
0.711029 0.637316 0.886765
0.866789 0.628431 0.890441
0.940196 0.630882 0.876593
0.940686 0.638725 0.865686
0.214829 0.728922 0.841177
0.232552 0.735601 0.845849
0.296845 0.744271 0.855882
0.435355 0.749127 0.861842
0.576164 0.760784 0.866973
0.718995 0.769470 0.871048
0.863235 0.761091 0.877328
0.947151 0.758456 0.861152
0.943260 0.762378 0.848039
0.228431 0.842402 0.846814
0.243872 0.847059 0.853768
0.296630 0.853921 0.858395
0.420466 0.857843 0.864583
0.569240 0.858946 0.866544
0.717126 0.861306 0.868413
0.857292 0.861520 0.865625
0.942831 0.856097 0.850123
0.945098 0.853186 0.847059
0.276348 0.905024 0.837868
0.292969 0.905882 0.842111
0.348100 0.909804 0.846354
0.465809 0.917325 0.850720
0.590809 0.921937 0.854166
0.724418 0.925980 0.853937
0.834896 0.922427 0.853799
0.919102 0.926302 0.868995
0.942034 0.917279 0.864338
0.378431 0.909804 0.834314
0.404412 0.913725 0.837255
0.456618 0.916667 0.838235
0.547916 0.921201 0.844363
0.660784 0.927941 0.848039
0.760539 0.937255 0.850000
0.831373 0.941176 0.850981
0.896324 0.941176 0.868628
0.930392 0.938235 0.865686
0.000000 0.027451 0.729902
0.000000 0.027451 0.729412
0.035785 0.027451 0.733333
0.124510 0.024019 0.735968
0.256373 0.023529 0.750981
0.415993 0.019914 0.764706
0.573529 0.023529 0.777451
0.715134 0.031373 0.788235
0.803432 0.053922 0.796078
0.000000 0.080392 0.745098
0.000375 0.083510 0.741230
0.047916 0.082706 0.748147
0.132820 0.072549 0.746347
0.283824 0.065717 0.767095
0.456870 0.066766 0.790257
0.643551 0.095956 0.819807
0.809865 0.132176 0.842103
0.854412 0.158333 0.850000
0.027819 0.212745 0.789583
0.055393 0.221507 0.801731
0.090135 0.232415 0.808824
0.226716 0.248346 0.827099
0.405576 0.252145 0.849816
0.579779 0.248621 0.875858
0.752635 0.259927 0.889951
0.886045 0.282077 0.889200
0.893137 0.295956 0.889216
0.166667 0.450000 0.859804
0.203654 0.465342 0.863726
0.245175 0.478370 0.871998
0.354971 0.477451 0.880139
0.493383 0.477114 0.893719
0.644608 0.467280 0.912255
0.792479 0.464445 0.920144
0.913074 0.473690 0.917463
0.917647 0.480515 0.917647
0.244117 0.594118 0.886520
0.256097 0.609314 0.891728
0.322427 0.617341 0.894731
0.430208 0.632751 0.901042
0.547794 0.635294 0.915686
0.673468 0.632445 0.927543
0.808885 0.627451 0.937255
0.926225 0.625919 0.935049
0.933088 0.633333 0.935294
0.247733 0.714032 0.902145
0.266200 0.719424 0.902451
0.332705 0.729657 0.907291
0.455691 0.738549 0.914644
0.573376 0.751134 0.922794
0.696216 0.761826 0.931373
0.817218 0.761290 0.941712
0.931250 0.756296 0.941176
0.940992 0.757353 0.937561
0.265074 0.819608 0.909559
0.286168 0.826593 0.913312
0.334559 0.830882 0.917770
0.464507 0.834804 0.921707
0.586397 0.841912 0.927328
0.710662 0.850092 0.930974
0.826746 0.859130 0.930974
0.926363 0.852635 0.933333
0.941176 0.854044 0.921691
0.283824 0.905453 0.914215
0.299341 0.905943 0.914644
0.355561 0.909850 0.925444
0.477206 0.917218 0.924962
0.588970 0.917708 0.926225
0.711987 0.918627 0.929818
0.826639 0.922488 0.927650
0.915456 0.925222 0.925230
0.937255 0.925613 0.919056
0.333333 0.909804 0.902941
0.359314 0.909804 0.906434
0.428677 0.913725 0.906862
0.523529 0.917647 0.905576
0.633578 0.925490 0.908333
0.758517 0.933333 0.913909
0.866176 0.941176 0.918260
0.911275 0.941176 0.921630
0.929902 0.941176 0.926470
0.000000 0.027451 0.729412
0.000000 0.027451 0.732843
0.018627 0.027451 0.733333
0.115686 0.027451 0.737255
0.243138 0.023529 0.749020
0.394118 0.023529 0.762255
0.534314 0.020588 0.776471
0.673039 0.027941 0.784804
0.796078 0.039216 0.792157
0.000000 0.055393 0.740196
0.000000 0.051961 0.740196
0.038725 0.038603 0.737622
0.132169 0.027267 0.737071
0.260539 0.026961 0.750981
0.418015 0.022059 0.764706
0.582353 0.024387 0.780882
0.744179 0.049387 0.798529
0.817647 0.086275 0.817647
0.018627 0.198039 0.785294
0.045588 0.204044 0.794730
0.102206 0.214951 0.803676
0.222181 0.225490 0.821691
0.392157 0.231863 0.842157
0.571323 0.231740 0.870098
0.735539 0.236519 0.884314
0.866544 0.252329 0.884314
0.888235 0.265686 0.883334
0.183333 0.438235 0.857353
0.206372 0.452267 0.863726
0.259191 0.461765 0.870956
0.358333 0.462684 0.874510
0.489216 0.461029 0.890686
0.638726 0.456924 0.907353
0.781985 0.453064 0.920098
0.903248 0.460601 0.916176
0.916176 0.471078 0.916176
0.309804 0.596078 0.890197
0.323284 0.603921 0.893873
0.368137 0.618137 0.895588
0.453186 0.629412 0.905147
0.546078 0.626470 0.912745
0.663480 0.626716 0.927451
0.793137 0.620098 0.937745
0.907598 0.625245 0.935049
0.931372 0.629412 0.933334
0.298039 0.702451 0.903431
0.326654 0.710294 0.907169
0.393995 0.722181 0.909804
0.487316 0.731434 0.917647
0.589706 0.749510 0.928186
0.692770 0.756373 0.934804
0.798652 0.759436 0.941176
0.900000 0.758823 0.944792
0.939706 0.761274 0.941176
0.342156 0.800000 0.917647
0.355637 0.806863 0.917647
0.415441 0.811764 0.920589
0.512377 0.818995 0.926103
0.616177 0.827941 0.931863
0.725613 0.843873 0.938725
0.816667 0.855637 0.945098
0.899019 0.854902 0.942034
0.937255 0.857843 0.941176
0.393137 0.882843 0.925980
0.413174 0.886765 0.926409
0.468260 0.887255 0.929412
0.549019 0.889400 0.933333
0.643627 0.893137 0.937500
0.750184 0.900306 0.945098
0.846201 0.911765 0.945098
0.910355 0.922549 0.945098
0.937255 0.925980 0.941176
0.447059 0.913725 0.929412
0.462255 0.917647 0.933333
0.510784 0.916667 0.933333
0.581373 0.921569 0.937255
0.670588 0.929412 0.941176
0.778431 0.934804 0.943627
0.866667 0.941176 0.945098
0.933333 0.941176 0.941176
0.929412 0.941176 0.945098
