src/assets/LUTs/proLUTs/Hibiscus.cube
TITLE "Hibiscus" LUT by @rossandhisjpegs
#LUMIXPHOTOSTYLE PORT
LUT_3D_SIZE 33
DOMAIN_MIN 0.0 0.0 0.0
DOMAIN_MAX 1.0 1.0 1.0
0.047059 0.062745 0.043137
0.054779 0.058947 0.043137
0.062500 0.062500 0.043137
0.081618 0.062745 0.043137
0.100981 0.062745 0.043137
0.123652 0.066054 0.043137
0.146814 0.066667 0.043137
0.169975 0.069730 0.043137
0.202941 0.074510 0.043137
0.234804 0.075613 0.043137
0.269608 0.078431 0.043137
0.306985 0.078431 0.043137
0.350490 0.074510 0.039216
0.392034 0.076103 0.039216
0.436765 0.078431 0.043137
0.481250 0.082353 0.039216
0.531373 0.082353 0.039216
0.569975 0.082353 0.037378
0.606863 0.084069 0.035294
0.639338 0.086275 0.035294
0.664706 0.086275 0.035294
0.692892 0.086275 0.035294
0.713481 0.086275 0.035294
0.739461 0.086275 0.035294
0.763725 0.086275 0.036275
0.786030 0.086275 0.039216
0.806863 0.086275 0.039216
0.832598 0.086275 0.039216
0.851961 0.086275 0.039216
0.871323 0.086275 0.039216
0.882843 0.086275 0.039461
0.898162 0.090073 0.043137
0.909804 0.090196 0.043137
0.047059 0.070465 0.039339
0.054779 0.070465 0.039339
0.066062 0.070465 0.043137
0.085528 0.074265 0.043137
0.104902 0.081495 0.043137
0.123671 0.085191 0.043137
0.146814 0.089093 0.043137
0.169975 0.090755 0.043968
0.202941 0.096691 0.044087
0.234927 0.097671 0.043137
0.272342 0.097756 0.043137
0.310907 0.097794 0.043137
0.351884 0.095221 0.043137
0.395906 0.091494 0.043087
0.438901 0.087814 0.039270
0.484869 0.088235 0.039216
0.531373 0.090073 0.039216
0.571814 0.090073 0.035294
0.608525 0.090127 0.035294
0.640123 0.090123 0.035294
0.667157 0.093995 0.035294
0.694240 0.090116 0.035294
0.718589 0.093995 0.035294
0.744450 0.093995 0.036363
0.767555 0.093995 0.039216
0.790782 0.093995 0.039216
0.813848 0.093995 0.039216
0.836397 0.093995 0.039216
0.852451 0.093995 0.039216
0.875134 0.093995 0.039216
0.890319 0.097794 0.042900
0.898284 0.098154 0.043137
0.913725 0.109559 0.043137
0.050980 0.093138 0.043137
0.058701 0.093375 0.043137
0.066407 0.097288 0.043137
0.077941 0.101203 0.043137
0.097273 0.101226 0.043137
0.123690 0.104572 0.046814
0.142938 0.108379 0.046814
0.175720 0.109314 0.047005
0.206802 0.115931 0.046814
0.238656 0.117088 0.043137
0.278753 0.116988 0.045665
0.314584 0.116912 0.046814
0.357108 0.116912 0.043137
0.401961 0.112990 0.043137
0.448177 0.106863 0.042999
0.492525 0.101471 0.039216
0.537132 0.099632 0.039216
0.573897 0.099517 0.039216
0.614568 0.099510 0.035294
0.641567 0.101570 0.035294
0.672304 0.101716 0.035294
0.698001 0.101716 0.035294
0.725000 0.101716 0.038971
0.748162 0.101716 0.036397
0.771568 0.101716 0.039216
0.794485 0.101716 0.039216
0.818581 0.101716 0.039216
0.840235 0.102329 0.039216
0.859590 0.105606 0.039675
0.879289 0.105760 0.042892
0.894133 0.113480 0.043137
0.905882 0.124877 0.043137
0.921324 0.136275 0.043137
0.050980 0.116544 0.046691
0.058701 0.112990 0.047048
0.066422 0.116690 0.047059
0.077696 0.120133 0.046691
0.089583 0.123943 0.047013
0.115621 0.128309 0.047059
0.142892 0.128309 0.047059
0.173039 0.132230 0.047059
0.209528 0.132598 0.047059
0.242280 0.133597 0.045956
0.280147 0.136405 0.044363
0.320715 0.136278 0.045470
0.363358 0.136382 0.044470
0.409681 0.136152 0.043137
0.458004 0.133739 0.043137
0.502328 0.127941 0.039388
0.544730 0.122059 0.039216
0.583284 0.114878 0.039216
0.616705 0.109436 0.037293
0.645439 0.109436 0.035294
0.674770 0.109436 0.035294
0.699751 0.109436 0.036516
0.724992 0.109436 0.036658
0.752329 0.110436 0.039216
0.776379 0.113265 0.039216
0.802493 0.113848 0.039216
0.825367 0.117509 0.039216
0.847549 0.124575 0.039216
0.868214 0.131541 0.043137
0.889863 0.136187 0.043137
0.902083 0.143873 0.043160
0.913603 0.151482 0.043137
0.928677 0.159681 0.046691
0.050980 0.135784 0.046569
0.058701 0.135784 0.047059
0.066453 0.135784 0.047059
0.078017 0.139338 0.047381
0.085785 0.143137 0.050490
0.107843 0.150858 0.047059
0.142157 0.154902 0.047702
0.175720 0.155009 0.047059
0.209804 0.158823 0.047059
0.248407 0.158823 0.047059
0.287500 0.159313 0.046722
0.328355 0.159313 0.044317
0.374326 0.160600 0.044608
0.422519 0.159313 0.043137
0.465227 0.159313 0.043137
0.506618 0.155392 0.042647
0.549019 0.151225 0.040931
0.589093 0.146829 0.039216
0.625980 0.143137 0.037224
0.652941 0.142647 0.035294
0.680086 0.138725 0.035294
0.707185 0.138725 0.036642
0.733088 0.139215 0.039216
0.759681 0.139215 0.039216
0.780393 0.142770 0.040074
0.806005 0.146676 0.039216
0.832445 0.150582 0.042739
0.849311 0.154979 0.043137
0.871997 0.159375 0.043137
0.894363 0.163557 0.043459
0.906342 0.167156 0.046569
0.917770 0.171094 0.047059
0.929412 0.175490 0.047059
0.050980 0.158946 0.050367
0.058701 0.158946 0.050961
0.066996 0.158946 0.050980
0.077753 0.159559 0.050980
0.085785 0.163404 0.050980
0.097331 0.170194 0.050980
0.127574 0.178316 0.050865
0.175379 0.186397 0.050367
0.218106 0.187224 0.047886
0.261152 0.186397 0.047059
0.305760 0.185784 0.047059
0.354255 0.188569 0.047059
0.399648 0.189706 0.046676
0.448039 0.189706 0.043137
0.491054 0.189706 0.043137
0.531047 0.186071 0.041054
0.569363 0.182169 0.039216
0.606127 0.181863 0.039216
0.640931 0.177941 0.038948
0.669857 0.177941 0.039216
0.697304 0.177711 0.039216
0.721814 0.177328 0.040353
0.747549 0.177328 0.041490
0.770883 0.177328 0.041766
0.794700 0.178309 0.042984
0.819753 0.182108 0.043137
0.844117 0.186405 0.043137
0.863875 0.189802 0.043137
0.886106 0.193627 0.046446
0.902083 0.197549 0.047059
0.913603 0.201509 0.047266
0.925716 0.205515 0.050367
0.940563 0.213235 0.047059
0.050980 0.185294 0.050980
0.061788 0.181396 0.054067
0.069608 0.182062 0.057353
0.078063 0.185662 0.057353
0.085785 0.186673 0.054167
0.093505 0.190572 0.050980
0.112714 0.197794 0.050980
0.160333 0.208004 0.048491
0.213297 0.219791 0.048039
0.266261 0.223774 0.047955
0.313481 0.223774 0.047059
0.359804 0.218497 0.047059
0.409773 0.217862 0.044332
0.453745 0.220588 0.043137
0.499096 0.216989 0.043137
0.539093 0.214974 0.041054
0.576103 0.212745 0.039216
0.614461 0.212745 0.039951
0.646079 0.210953 0.039216
0.674931 0.208824 0.039216
0.703646 0.208824 0.039216
0.729052 0.208824 0.041046
0.755882 0.208824 0.040717
0.779251 0.208824 0.043137
0.802390 0.212193 0.043137
0.825367 0.213603 0.043137
0.848530 0.214078 0.047059
0.868505 0.217900 0.047059
0.891575 0.224510 0.047059
0.906548 0.225544 0.047059
0.918091 0.228478 0.047059
0.932720 0.232376 0.047871
0.943627 0.237010 0.050980
0.047917 0.208333 0.057966
0.058701 0.208333 0.061765
0.066475 0.205461 0.061887
0.074920 0.209111 0.061968
0.085785 0.211872 0.061887
0.093505 0.219006 0.058445
0.104411 0.223981 0.052129
0.141479 0.231675 0.050310
0.204534 0.246446 0.050000
0.269232 0.261275 0.048778
0.320244 0.262378 0.047059
0.371446 0.259509 0.046496
0.420543 0.254535 0.043137
0.465338 0.251122 0.043137
0.508693 0.247924 0.043137
0.545186 0.248985 0.041054
0.584313 0.246691 0.039216
0.622181 0.243226 0.039216
0.653064 0.241046 0.039216
0.683946 0.239706 0.042279
0.710907 0.239706 0.042601
0.736519 0.239706 0.042842
0.760271 0.239706 0.043137
0.785662 0.241184 0.043137
0.806986 0.240686 0.045435
0.833088 0.243628 0.043995
0.855515 0.247549 0.047059
0.875012 0.247683 0.047059
0.895481 0.251961 0.047059
0.910459 0.255392 0.047059
0.924931 0.255446 0.047059
0.936520 0.259436 0.050149
0.948162 0.267157 0.050980
0.047059 0.238235 0.064706
0.055729 0.245006 0.072427
0.063480 0.245098 0.072549
0.073867 0.245006 0.075582
0.085295 0.245956 0.075490
0.091023 0.252329 0.068627
0.101226 0.257659 0.062868
0.120527 0.265472 0.052481
0.182843 0.276471 0.048529
0.246783 0.291085 0.050980
0.321997 0.305698 0.047059
0.378155 0.308854 0.046416
0.424387 0.302941 0.046078
0.473407 0.296691 0.040411
0.515931 0.286581 0.039216
0.554013 0.284314 0.039216
0.589706 0.282843 0.039216
0.624877 0.280392 0.039216
0.657414 0.277451 0.040503
0.686550 0.277451 0.042157
0.714216 0.273529 0.043137
0.741330 0.273529 0.043137
0.763787 0.274203 0.043137
0.787623 0.273805 0.043137
0.810784 0.277451 0.046078
0.836244 0.277665 0.047702
0.856373 0.278431 0.047059
0.876195 0.281526 0.047059
0.898039 0.282721 0.047427
0.913480 0.286274 0.050000
0.925000 0.289216 0.050980
0.937469 0.289339 0.050980
0.949020 0.294118 0.050980
0.036397 0.289706 0.084069
0.047917 0.295255 0.087990
0.058472 0.295343 0.094554
0.067402 0.295343 0.098549
0.077941 0.296308 0.096186
0.085662 0.299927 0.092353
0.094485 0.304289 0.087094
0.108471 0.312136 0.074395
0.173928 0.320098 0.059130
0.236519 0.330637 0.049877
0.303945 0.340977 0.050980
0.384838 0.354435 0.050256
0.442157 0.356740 0.048116
0.488970 0.347917 0.045956
0.528676 0.339576 0.040449
0.566694 0.328554 0.037718
0.604228 0.320527 0.039216
0.637623 0.318137 0.039216
0.669608 0.316054 0.039216
0.696120 0.313235 0.040319
0.724878 0.311075 0.040319
0.748418 0.309313 0.043137
0.770021 0.310194 0.043137
0.793570 0.312132 0.044240
0.818505 0.310294 0.046232
0.841789 0.312374 0.047059
0.863320 0.313442 0.047059
0.883751 0.317157 0.047499
0.902941 0.317157 0.050980
0.918279 0.320079 0.048426
0.929902 0.321323 0.050980
0.941333 0.326191 0.050980
0.952941 0.328921 0.050980
0.036520 0.324510 0.095588
0.043014 0.332315 0.103309
0.051884 0.335125 0.107185
0.059682 0.337745 0.111274
0.067402 0.335049 0.111611
0.079044 0.334628 0.111466
0.089951 0.338235 0.106127
0.101471 0.342303 0.097304
0.156066 0.348652 0.086519
0.218727 0.358701 0.069187
0.278922 0.366422 0.051823
0.354358 0.376172 0.050980
0.430790 0.392616 0.053676
0.485784 0.393145 0.051348
0.531372 0.386519 0.048529
0.567969 0.376141 0.039828
0.606618 0.367157 0.037868
0.640158 0.356740 0.036520
0.669608 0.350245 0.039752
0.698897 0.347541 0.039216
0.723744 0.346569 0.040227
0.750069 0.344118 0.043137
0.775000 0.341421 0.043137
0.799042 0.342134 0.044363
0.819608 0.343199 0.046140
0.842747 0.344118 0.047059
0.864216 0.344623 0.047059
0.883770 0.344731 0.047059
0.906709 0.348039 0.048284
0.920826 0.348154 0.050980
0.933747 0.349433 0.050980
0.943995 0.353271 0.050980
0.952941 0.357108 0.050980
0.033946 0.355392 0.108456
0.041709 0.367034 0.114871
0.046898 0.373407 0.118873
0.058456 0.371079 0.122794
0.067356 0.371079 0.123974
0.077818 0.367559 0.126716
0.089208 0.369248 0.126716
0.097181 0.375663 0.117624
0.138297 0.381863 0.109681
0.205392 0.389583 0.095477
0.263480 0.398108 0.075368
0.330051 0.405909 0.057897
0.397258 0.414936 0.053431
0.472109 0.431185 0.055450
0.530346 0.432843 0.056717
0.570550 0.423039 0.050839
0.607230 0.412806 0.043750
0.645221 0.402555 0.039216
0.674977 0.391644 0.037768
0.700490 0.383023 0.039764
0.726103 0.378416 0.040181
0.751375 0.376689 0.040101
0.777030 0.375000 0.043137
0.799387 0.376850 0.043861
0.821538 0.375000 0.043474
0.845711 0.375000 0.044485
0.866046 0.376348 0.047059
0.884191 0.378519 0.047059
0.905683 0.377574 0.049632
0.920956 0.378922 0.050980
0.936152 0.380270 0.050980
0.945221 0.382885 0.050980
0.952941 0.384191 0.053554
0.035294 0.392647 0.121569
0.043014 0.397993 0.130269
0.050735 0.405790 0.134069
0.058456 0.408333 0.136535
0.068321 0.409314 0.138051
0.077818 0.405025 0.142157
0.085540 0.406403 0.142157
0.096323 0.409482 0.137622
0.137623 0.414583 0.131005
0.199050 0.420466 0.118949
0.254871 0.428186 0.105392
0.316176 0.435907 0.089001
0.378860 0.442708 0.067647
0.440472 0.453692 0.057369
0.512653 0.464216 0.059651
0.566131 0.467157 0.059973
0.605147 0.457843 0.056618
0.641253 0.448162 0.050122
0.673530 0.439063 0.046967
0.700490 0.426746 0.041667
0.727512 0.417708 0.039216
0.752558 0.411412 0.039216
0.776991 0.408578 0.040686
0.801838 0.408747 0.040319
0.825367 0.408333 0.043137
0.847840 0.406418 0.043137
0.867402 0.408333 0.043872
0.886413 0.408333 0.044991
0.905698 0.408639 0.048529
0.923422 0.410784 0.047197
0.937500 0.410784 0.048529
0.947672 0.410861 0.048606
0.955392 0.413235 0.050980
0.039216 0.436030 0.145098
0.045393 0.440614 0.147427
0.054657 0.446791 0.153432
0.062377 0.445493 0.156005
0.070098 0.445834 0.153968
0.077818 0.443264 0.160907
0.089461 0.440687 0.161956
0.115177 0.444608 0.154535
0.157414 0.447549 0.150735
0.205147 0.452451 0.139748
0.253669 0.458563 0.130277
0.309804 0.465809 0.121013
0.362975 0.468260 0.105377
0.417892 0.478956 0.080760
0.481449 0.484597 0.062171
0.547438 0.495098 0.063982
0.603554 0.500674 0.065870
0.640319 0.492157 0.060405
0.671201 0.483739 0.055515
0.701436 0.474177 0.050770
0.728447 0.465073 0.044868
0.754910 0.455760 0.039698
0.778546 0.448039 0.039216
0.803309 0.442360 0.040319
0.825276 0.440288 0.040962
0.849633 0.440687 0.040809
0.868873 0.440687 0.043137
0.888113 0.440687 0.043386
0.907062 0.440687 0.047258
0.926225 0.442130 0.047059
0.941421 0.442279 0.048552
0.949143 0.442352 0.048652
0.956863 0.446201 0.048652
0.039216 0.463725 0.155637
0.046936 0.469309 0.161152
0.056863 0.477099 0.168873
0.064583 0.477413 0.172832
0.072304 0.477206 0.173039
0.081740 0.476103 0.173039
0.094439 0.473683 0.174341
0.140924 0.471568 0.176103
0.173591 0.476225 0.166176
0.209559 0.480645 0.158808
0.253677 0.484513 0.154121
0.300958 0.491544 0.142647
0.354657 0.496171 0.129105
0.404243 0.503960 0.120918
0.458089 0.509819 0.096599
0.514760 0.514583 0.070259
0.581373 0.527083 0.069485
0.631426 0.533509 0.070956
0.666161 0.523039 0.067157
0.696691 0.517524 0.063236
0.725245 0.507261 0.058487
0.751616 0.498162 0.052596
0.775245 0.490441 0.049065
0.802076 0.483954 0.042655
0.824816 0.475429 0.039216
0.847051 0.471568 0.039216
0.868873 0.471568 0.039216
0.888113 0.471568 0.040931
0.907077 0.471293 0.043137
0.926225 0.471362 0.043137
0.941421 0.467647 0.044991
0.953064 0.469363 0.047059
0.960784 0.469363 0.047059
0.045221 0.490686 0.170956
0.049142 0.500253 0.174877
0.058579 0.504174 0.180392
0.066299 0.504289 0.184363
0.076103 0.506372 0.184559
0.083498 0.506047 0.186397
0.110294 0.503945 0.189629
0.157912 0.500823 0.188883
0.193107 0.503309 0.185264
0.226348 0.506372 0.178405
0.264537 0.509643 0.172794
0.307146 0.515422 0.164461
0.350812 0.520343 0.153830
0.398039 0.528910 0.146691
0.447480 0.532774 0.131250
0.497423 0.537745 0.112994
0.548652 0.545343 0.087929
0.605641 0.556131 0.072557
0.655499 0.560470 0.075421
0.692548 0.553921 0.073908
0.721446 0.546201 0.069118
0.747936 0.539687 0.067402
0.773529 0.532598 0.062339
0.798066 0.525463 0.056469
0.822549 0.518781 0.052144
0.845711 0.511520 0.046902
0.868482 0.506227 0.042992
0.886030 0.502126 0.039216
0.906862 0.500138 0.039216
0.922477 0.498334 0.043137
0.939468 0.496446 0.043137
0.951046 0.498285 0.043137
0.960784 0.496446 0.043137
0.049019 0.525490 0.186275
0.054779 0.529289 0.193995
0.062500 0.531250 0.195956
0.070220 0.533149 0.199816
0.079902 0.531373 0.201716
0.096201 0.533333 0.200306
0.131618 0.533333 0.203554
0.173713 0.531801 0.204350
0.212745 0.530882 0.201961
0.246569 0.532782 0.197181
0.275490 0.537255 0.191421
0.312194 0.541789 0.187623
0.352696 0.546324 0.175980
0.392034 0.551348 0.172181
0.435662 0.556863 0.163358
0.480086 0.562868 0.150858
0.529412 0.566667 0.134314
0.580576 0.574387 0.108211
0.631618 0.582108 0.087868
0.678186 0.589032 0.079228
0.713725 0.586765 0.081618
0.742586 0.579044 0.078432
0.768383 0.575245 0.074510
0.795466 0.569485 0.070037
0.818627 0.561765 0.066666
0.841789 0.554901 0.063174
0.866912 0.550613 0.060049
0.887807 0.548100 0.056556
0.907107 0.538970 0.050735
0.926225 0.537071 0.048836
0.941544 0.535171 0.045098
0.953064 0.533394 0.045098
0.960784 0.535294 0.047059
0.050980 0.548529 0.199755
0.058701 0.554469 0.205392
0.066422 0.558456 0.211519
0.081200 0.560489 0.215441
0.096339 0.560294 0.215472
0.123162 0.562377 0.214829
0.153676 0.562377 0.215441
0.186186 0.559892 0.217524
0.225766 0.558915 0.217279
0.257870 0.557870 0.212622
0.286964 0.561803 0.208824
0.317299 0.564951 0.204308
0.355269 0.571523 0.197304
0.392034 0.575379 0.192658
0.429603 0.580270 0.187623
0.468264 0.587014 0.177818
0.516850 0.590748 0.166299
0.560294 0.596695 0.153558
0.606618 0.600299 0.137377
0.653542 0.610038 0.109448
0.699877 0.618122 0.088419
0.736887 0.620324 0.086907
0.765112 0.615234 0.086719
0.790809 0.606591 0.082108
0.814308 0.602911 0.079289
0.839951 0.596971 0.076348
0.863113 0.592770 0.074119
0.884191 0.587132 0.070343
0.905024 0.581510 0.066421
0.922304 0.575785 0.064388
0.939698 0.569860 0.062500
0.953064 0.565997 0.060597
0.960784 0.564216 0.058578
0.054902 0.575490 0.217402
0.066000 0.581564 0.222986
0.084697 0.589323 0.226961
0.107514 0.589461 0.226961
0.125460 0.586029 0.225459
0.146959 0.586987 0.226693
0.167723 0.585861 0.227374
0.196078 0.585539 0.230882
0.235785 0.585539 0.231985
0.275735 0.581618 0.229787
0.305591 0.584850 0.230882
0.334536 0.588702 0.223039
0.365533 0.591912 0.218382
0.396040 0.596607 0.211274
0.430638 0.602466 0.210034
0.465319 0.605147 0.203064
0.506986 0.612133 0.191666
0.550490 0.616000 0.185677
0.593382 0.620833 0.172059
0.631985 0.626348 0.157636
0.674448 0.633180 0.138388
0.719240 0.643995 0.112768
0.757843 0.646415 0.099571
0.787140 0.643390 0.091912
0.809498 0.637684 0.090809
0.835769 0.633831 0.085784
0.856786 0.627451 0.083257
0.877941 0.623652 0.081250
0.897518 0.619853 0.077727
0.916666 0.612132 0.073858
0.934421 0.608333 0.072304
0.951348 0.602872 0.072304
0.959069 0.600735 0.072304
0.072304 0.600858 0.229044
0.093873 0.608701 0.238358
0.115541 0.612477 0.240763
0.133456 0.612623 0.240809
0.145465 0.612623 0.241100
0.163725 0.612623 0.240437
0.185593 0.612623 0.242402
0.214706 0.612623 0.245975
0.253217 0.609099 0.243597
0.294485 0.608701 0.246771
0.325000 0.610302 0.246821
0.348710 0.611822 0.241422
0.377834 0.615671 0.239078
0.406250 0.620466 0.233177
0.436971 0.624388 0.230760
0.467157 0.627562 0.225479
0.503125 0.634191 0.219669
0.544007 0.640319 0.210784
0.581740 0.643099 0.202045
0.617490 0.648863 0.191720
0.653692 0.652712 0.181357
0.696079 0.656315 0.164706
0.739101 0.667157 0.144861
0.774878 0.673568 0.132678
0.804075 0.669730 0.116268
0.829676 0.666441 0.107250
0.851157 0.660838 0.101348
0.871813 0.657353 0.097913
0.889139 0.654535 0.093842
0.910689 0.646963 0.089094
0.929902 0.643114 0.085539
0.946814 0.640859 0.085539
0.956863 0.638603 0.085539
0.110294 0.629412 0.248529
0.120910 0.633211 0.251348
0.136275 0.633333 0.250000
0.150153 0.634804 0.251471
0.165686 0.637255 0.253921
0.184819 0.637255 0.255392
0.210784 0.636979 0.257843
0.241284 0.635784 0.257843
0.277451 0.635784 0.259682
0.312959 0.635784 0.262822
0.342433 0.635784 0.267678
0.366682 0.637393 0.264078
0.393689 0.642157 0.262317
0.421691 0.646078 0.256388
0.448131 0.650000 0.254013
0.480392 0.653554 0.250690
0.511765 0.660539 0.245588
0.544608 0.663235 0.239170
0.579657 0.668229 0.234069
0.615211 0.671201 0.228799
0.648468 0.676471 0.221630
0.684804 0.679764 0.207108
0.719363 0.685754 0.196048
0.755147 0.693183 0.188772
0.793505 0.699142 0.178554
0.825168 0.700000 0.169194
0.851440 0.696078 0.161029
0.870343 0.691774 0.150857
0.887562 0.687929 0.139216
0.906847 0.683946 0.125735
0.924755 0.680147 0.112163
0.947672 0.676471 0.110784
0.959314 0.676471 0.112255
0.133456 0.655024 0.262868
0.148855 0.658946 0.265441
0.164338 0.662623 0.269202
0.177206 0.662868 0.269237
0.193551 0.662868 0.271615
0.213760 0.661731 0.271936
0.235784 0.661773 0.269363
0.259999 0.662573 0.272989
0.294822 0.658946 0.275551
0.324877 0.658946 0.279055
0.355461 0.658946 0.280706
0.385539 0.658946 0.281127
0.410049 0.662868 0.277712
0.434256 0.666789 0.274877
0.457230 0.670121 0.270711
0.486029 0.675368 0.268157
0.511152 0.679167 0.266115
0.544608 0.682966 0.259682
0.578064 0.687523 0.256472
0.608146 0.691112 0.249510
0.639828 0.695205 0.245711
0.673284 0.696814 0.235838
0.705093 0.701961 0.227275
0.736152 0.705760 0.221446
0.774755 0.713480 0.212622
0.811447 0.723212 0.204829
0.838979 0.724518 0.197296
0.862833 0.722426 0.191475
0.882154 0.717448 0.181373
0.899016 0.710907 0.167030
0.918298 0.707353 0.155599
0.936152 0.707353 0.154332
0.949020 0.706005 0.151838
0.151471 0.678187 0.273039
0.169324 0.682108 0.279572
0.186351 0.683425 0.280882
0.198047 0.686030 0.280882
0.214308 0.686030 0.284651
0.231986 0.684804 0.282108
0.251225 0.683839 0.282613
0.275345 0.685072 0.284804
0.309007 0.682108 0.290319
0.340441 0.682108 0.291889
0.371323 0.682108 0.292647
0.397059 0.682108 0.295221
0.421109 0.686030 0.295803
0.444730 0.689453 0.293873
0.466667 0.691468 0.290778
0.493176 0.695305 0.287293
0.518260 0.698529 0.283456
0.545833 0.702290 0.280270
0.574310 0.706127 0.277497
0.602451 0.709926 0.271446
0.632108 0.713725 0.265962
0.662990 0.717402 0.260225
0.695098 0.720098 0.253431
0.724755 0.724020 0.248530
0.756066 0.725919 0.241605
0.793727 0.732721 0.233234
0.826210 0.740211 0.225245
0.854481 0.743819 0.218941
0.878186 0.742004 0.212408
0.894853 0.738120 0.204029
0.910463 0.733088 0.188971
0.932230 0.733088 0.182598
0.945098 0.733088 0.185294
0.171936 0.702451 0.289584
0.190196 0.706338 0.296236
0.202819 0.705339 0.296324
0.215338 0.707824 0.298426
0.229917 0.706587 0.301348
0.248089 0.706373 0.301348
0.267479 0.708456 0.300613
0.298161 0.706131 0.302209
0.329749 0.705545 0.304565
0.357173 0.706373 0.308088
0.383824 0.706373 0.309191
0.411753 0.705270 0.313113
0.433548 0.707031 0.311351
0.459027 0.709191 0.309191
0.479412 0.711880 0.309191
0.501076 0.715713 0.304289
0.524326 0.719546 0.301042
0.550735 0.723380 0.298530
0.575980 0.723775 0.295228
0.604209 0.729247 0.292318
0.631204 0.733134 0.287868
0.660049 0.733824 0.284325
0.688894 0.738626 0.279144
0.717344 0.741667 0.274207
0.745802 0.745465 0.267279
0.775739 0.749024 0.256981
0.805967 0.753064 0.250329
0.836642 0.760172 0.244263
0.867034 0.764231 0.239094
0.887378 0.765196 0.238462
0.909260 0.761167 0.228255
0.926838 0.758456 0.223809
0.942279 0.758456 0.222181
0.199019 0.729411 0.320588
0.211642 0.733333 0.321569
0.226961 0.733333 0.321569
0.242310 0.733333 0.327175
0.261397 0.733333 0.323652
0.279687 0.736274 0.324510
0.306434 0.736274 0.328247
0.332077 0.733548 0.327665
0.358088 0.733333 0.328186
0.386183 0.733058 0.332659
0.413971 0.733333 0.335968
0.439706 0.733333 0.337868
0.460662 0.733333 0.339583
0.480729 0.736856 0.340196
0.500613 0.740196 0.337561
0.522916 0.742739 0.336734
0.546569 0.747549 0.333823
0.569363 0.751440 0.332353
0.593382 0.751961 0.329657
0.616544 0.755882 0.326838
0.643628 0.759191 0.324020
0.666789 0.759804 0.320251
0.693199 0.763725 0.316360
0.717861 0.766943 0.310815
0.741912 0.767647 0.302696
0.774142 0.770802 0.301103
0.800245 0.772304 0.293382
0.824019 0.778432 0.288603
0.854412 0.782843 0.282353
0.880607 0.786642 0.278340
0.904473 0.790257 0.274510
0.924755 0.788235 0.274632
0.943137 0.788235 0.278431
0.218260 0.754657 0.338113
0.236669 0.755515 0.339829
0.251401 0.755706 0.342892
0.263645 0.759069 0.339829
0.282123 0.758686 0.339078
0.301972 0.758579 0.338492
0.325000 0.758004 0.341620
0.345098 0.756185 0.342892
0.373162 0.754871 0.346048
0.397545 0.755273 0.346814
0.425490 0.755515 0.349510
0.451716 0.754952 0.354094
0.474877 0.757430 0.356572
0.493157 0.758579 0.355005
0.514215 0.760784 0.354657
0.536519 0.762955 0.354657
0.559681 0.766851 0.352267
0.578922 0.768716 0.350736
0.599502 0.770718 0.347296
0.621323 0.774265 0.343401
0.644485 0.778187 0.342892
0.667647 0.781545 0.341839
0.690541 0.782108 0.338335
0.716417 0.783211 0.331985
0.740962 0.786795 0.331771
0.767280 0.789951 0.327206
0.791015 0.790809 0.319646
0.813948 0.793873 0.316276
0.838971 0.797794 0.307215
0.863277 0.800938 0.306943
0.889269 0.805025 0.299563
0.913235 0.809654 0.299877
0.932475 0.813481 0.304534
0.236765 0.774755 0.354412
0.249119 0.777842 0.357499
0.264461 0.777942 0.354565
0.282790 0.777942 0.351524
0.294608 0.775153 0.353278
0.313970 0.774517 0.354174
0.336658 0.777344 0.356266
0.362584 0.775452 0.357598
0.388113 0.774571 0.357353
0.413320 0.777045 0.360623
0.439706 0.776946 0.366452
0.462263 0.774020 0.369362
0.484988 0.776747 0.370098
0.506058 0.774755 0.366613
0.525322 0.778355 0.370098
0.544585 0.780369 0.366177
0.567402 0.783824 0.366912
0.585148 0.787278 0.365832
0.605882 0.789706 0.364047
0.629044 0.791896 0.364583
0.648284 0.793628 0.359988
0.670458 0.793880 0.358334
0.693873 0.798774 0.356143
0.713848 0.799180 0.355147
0.739645 0.803003 0.354167
0.763358 0.806250 0.347143
