src/assets/LUTs/proLUTs/Hibiscus.cube
TITLE "Hibiscus" LUT by @rossandhisjpegs
#LUMIXPHOTOSTYLE PORT
LUT_3D_SIZE 9
DOMAIN_MIN 0.0 0.0 0.0
DOMAIN_MAX 1.0 1.0 1.0
0.047059 0.062745 0.043137
0.100981 0.062745 0.043137
0.202941 0.074510 0.043137
0.350490 0.074510 0.039216
0.531373 0.082353 0.039216
0.664706 0.086275 0.035294
0.763725 0.086275 0.036275
0.851961 0.086275 0.039216
0.909804 0.090196 0.043137
0.050980 0.135784 0.046569
0.085785 0.143137 0.050490
0.209804 0.158823 0.047059
0.374326 0.160600 0.044608
0.549019 0.151225 0.040931
0.680086 0.138725 0.035294
0.780393 0.142770 0.040074
0.871997 0.159375 0.043137
0.929412 0.175490 0.047059
0.047059 0.238235 0.064706
0.085295 0.245956 0.075490
0.182843 0.276471 0.048529
0.424387 0.302941 0.046078
0.589706 0.282843 0.039216
0.714216 0.273529 0.043137
0.810784 0.277451 0.046078
0.898039 0.282721 0.047427
0.949020 0.294118 0.050980
0.035294 0.392647 0.121569
0.068321 0.409314 0.138051
0.137623 0.414583 0.131005
0.378860 0.442708 0.067647
0.605147 0.457843 0.056618
0.727512 0.417708 0.039216
0.825367 0.408333 0.043137
0.905698 0.408639 0.048529
0.955392 0.413235 0.050980
0.049019 0.525490 0.186275
0.079902 0.531373 0.201716
0.212745 0.530882 0.201961
0.352696 0.546324 0.175980
0.529412 0.566667 0.134314
0.713725 0.586765 0.081618
0.818627 0.561765 0.066666
0.907107 0.538970 0.050735
0.960784 0.535294 0.047059
0.110294 0.629412 0.248529
0.165686 0.637255 0.253921
0.277451 0.635784 0.259682
0.393689 0.642157 0.262317
0.511765 0.660539 0.245588
0.648468 0.676471 0.221630
0.793505 0.699142 0.178554
0.887562 0.687929 0.139216
0.959314 0.676471 0.112255
0.199019 0.729411 0.320588
0.261397 0.733333 0.323652
0.358088 0.733333 0.328186
0.460662 0.733333 0.339583
0.546569 0.747549 0.333823
0.643628 0.759191 0.324020
0.741912 0.767647 0.302696
0.854412 0.782843 0.282353
0.943137 0.788235 0.278431
0.300490 0.825000 0.409314
0.373958 0.824938 0.408762
0.450000 0.821936 0.410172
0.533333 0.822181 0.415196
0.602696 0.826470 0.418627
0.674510 0.834130 0.413235
0.749387 0.840319 0.407966
0.828922 0.848039 0.397978
0.901961 0.855882 0.389706
0.380392 0.886275 0.466667
0.441667 0.886765 0.466667
0.514706 0.886275 0.465687
0.585294 0.887745 0.474510
0.654902 0.892157 0.482353
0.716667 0.898039 0.487745
0.779412 0.906862 0.487255
0.840196 0.913725 0.485785
0.898039 0.917647 0.482353
0.050980 0.066667 0.103921
0.100919 0.063174 0.111826
0.210661 0.070588 0.111764
0.363419 0.074510 0.094424
0.538725 0.080637 0.086520
0.662929 0.082353 0.068137
0.760294 0.086275 0.066177
0.848530 0.083272 0.066667
0.913235 0.097549 0.070098
0.053983 0.147059 0.111764
0.089277 0.150551 0.119555
0.222809 0.156143 0.111182
0.399916 0.147059 0.089254
0.560509 0.113358 0.064645
0.682192 0.105821 0.058150
0.776363 0.105821 0.055162
0.864154 0.110647 0.058763
0.932843 0.179841 0.077451
0.047917 0.265073 0.137377
0.074663 0.268137 0.133900
0.202359 0.286888 0.116421
0.443551 0.296569 0.071385
0.598775 0.275858 0.062255
0.718091 0.263358 0.059789
0.817555 0.265410 0.062255
0.899341 0.273330 0.066177
0.949388 0.303922 0.082721
0.039216 0.408333 0.175000
0.058763 0.419363 0.171852
0.155714 0.418949 0.166666
0.380446 0.444110 0.110355
0.607598 0.451961 0.076225
0.728983 0.413235 0.058334
0.825904 0.404596 0.060647
0.909191 0.404718 0.066177
0.957169 0.419914 0.085785
0.052941 0.531373 0.234559
0.066820 0.540931 0.225613
0.217463 0.535600 0.230882
0.353339 0.547120 0.207353
0.531373 0.567647 0.164951
0.715594 0.588573 0.097702
0.821079 0.561765 0.085539
0.907353 0.538756 0.075490
0.960784 0.539216 0.091422
0.132169 0.639522 0.295098
0.153493 0.641444 0.279129
0.278064 0.641498 0.284069
0.398460 0.645159 0.287079
0.510693 0.661704 0.269853
0.648468 0.677520 0.242777
0.795956 0.701348 0.204412
0.892073 0.688197 0.180883
0.959130 0.680392 0.209314
0.210662 0.737132 0.365196
0.243275 0.739829 0.351134
0.354473 0.740411 0.355392
0.464752 0.736351 0.365273
0.548591 0.748039 0.354963
0.641253 0.759804 0.344975
0.744454 0.769363 0.328370
0.857154 0.785095 0.313113
0.942770 0.790809 0.336029
0.306924 0.828431 0.443689
0.347740 0.828922 0.433157
0.445588 0.828217 0.431603
0.528347 0.822204 0.435355
0.603125 0.826501 0.439951
0.674019 0.832844 0.436703
0.749280 0.840196 0.431158
0.828860 0.848039 0.423705
0.905392 0.856311 0.439706
0.384314 0.886275 0.497549
0.442157 0.889767 0.498039
0.514706 0.890196 0.505269
0.585600 0.888419 0.515380
0.652942 0.890196 0.522794
0.716667 0.898039 0.526287
0.775858 0.905882 0.525980
0.839767 0.913725 0.528003
0.898039 0.917647 0.524510
0.050980 0.074510 0.209804
0.081863 0.070588 0.222181
0.210049 0.066667 0.234314
0.377328 0.070588 0.227941
0.545098 0.069608 0.206373
0.670098 0.074510 0.189216
0.763971 0.081863 0.190196
0.855392 0.112255 0.185784
0.921569 0.136274 0.179412
0.054779 0.153922 0.224142
0.085662 0.154044 0.239982
0.227206 0.142892 0.250521
0.409651 0.111320 0.236795
0.571998 0.096324 0.206924
0.689829 0.109298 0.195251
0.789185 0.129902 0.184773
0.876563 0.147044 0.177467
0.943750 0.198529 0.189705
0.047059 0.287255 0.253677
0.072886 0.299755 0.269577
0.245404 0.296814 0.271384
0.447457 0.294884 0.257016
0.603431 0.284559 0.233701
0.730361 0.268474 0.206893
0.827941 0.259804 0.181066
0.911029 0.255607 0.152573
0.955147 0.315441 0.222549
0.052818 0.433333 0.281618
0.070098 0.443750 0.285202
0.239461 0.434712 0.289583
0.408211 0.447687 0.267264
0.611336 0.443137 0.227083
0.735815 0.411504 0.193658
0.837132 0.401317 0.172794
0.916084 0.395542 0.149372
0.960784 0.430883 0.239706
0.061765 0.544118 0.300000
0.091973 0.551961 0.301961
0.212622 0.549019 0.297917
0.371630 0.552022 0.295711
0.537745 0.571569 0.261520
0.720527 0.583885 0.213480
0.827083 0.553554 0.181372
0.916238 0.531127 0.147243
0.964706 0.546079 0.256373
0.150490 0.645098 0.344608
0.171967 0.650261 0.342463
0.248621 0.651379 0.330576
0.400368 0.646446 0.339874
0.513603 0.662194 0.329718
0.651609 0.678922 0.306664
0.801134 0.701348 0.276746
0.894256 0.687745 0.254534
0.956495 0.677083 0.316667
0.217647 0.737255 0.405637
0.250153 0.744117 0.407537
0.315625 0.744914 0.388970
0.448866 0.740931 0.399479
0.544976 0.748407 0.401838
0.638603 0.760907 0.391789
0.747855 0.770649 0.377758
0.860723 0.785417 0.357813
0.937255 0.791176 0.411029
0.303922 0.832353 0.485417
0.348775 0.832246 0.485294
0.404167 0.832813 0.461948
0.509590 0.826884 0.464691
0.595956 0.826654 0.477083
0.671308 0.833992 0.470956
0.745864 0.841330 0.465503
0.828814 0.851961 0.455591
0.906372 0.858456 0.497059
0.377451 0.886275 0.539215
0.438236 0.887623 0.544485
0.510049 0.887255 0.550980
0.581986 0.889828 0.558456
0.656372 0.891667 0.570588
0.719608 0.898039 0.574510
0.782353 0.905882 0.577451
0.837623 0.914705 0.574510
0.898039 0.917647 0.570588
0.057353 0.074510 0.345588
0.081863 0.070588 0.357353
0.178799 0.055883 0.372426
0.387255 0.058824 0.399020
0.549019 0.063480 0.371569
0.668995 0.058272 0.335784
0.767524 0.056373 0.312378
0.857169 0.062745 0.305085
0.926961 0.153921 0.324020
0.054902 0.154902 0.367647
0.082989 0.151202 0.388013
0.193076 0.133364 0.403202
0.411213 0.085478 0.413978
0.566330 0.086428 0.377941
0.689936 0.074020 0.339599
0.784191 0.072687 0.319026
0.877229 0.115403 0.313825
0.944792 0.223836 0.340870
0.036275 0.278554 0.393015
0.056679 0.288557 0.419746
0.217708 0.288052 0.426226
0.440028 0.266115 0.435401
0.594486 0.260478 0.400000
0.723529 0.251103 0.367050
0.827206 0.257384 0.352114
0.911152 0.288251 0.351608
0.956863 0.348529 0.381986
0.057353 0.446998 0.414706
0.073537 0.459007 0.429473
0.197381 0.458395 0.433257
0.444240 0.450345 0.438235
0.595496 0.441391 0.422274
0.717157 0.435784 0.404818
0.820067 0.431863 0.390885
0.908938 0.417157 0.360669
0.960784 0.450919 0.396997
0.128186 0.563235 0.417647
0.169363 0.572212 0.429167
0.293260 0.572181 0.432598
0.435539 0.558364 0.441667
0.556127 0.573774 0.434191
0.711305 0.572580 0.413235
0.819179 0.550674 0.387684
0.909160 0.539553 0.364369
0.963480 0.558824 0.410539
0.211274 0.657292 0.444179
0.234865 0.661765 0.447618
0.284360 0.664997 0.435264
0.429473 0.658969 0.450781
0.535784 0.660999 0.453677
0.656656 0.678577 0.437661
0.803738 0.697917 0.417908
0.894118 0.679282 0.393628
0.955392 0.668627 0.433885
0.246079 0.744730 0.479902
0.270956 0.750261 0.483824
0.327635 0.751961 0.474786
0.443765 0.751823 0.476762
0.552512 0.748039 0.486765
0.644317 0.756893 0.479902
0.748744 0.769914 0.469761
0.863710 0.786581 0.452696
0.938112 0.785417 0.499878
0.307353 0.828922 0.547059
0.351310 0.833663 0.549364
0.405285 0.836274 0.538496
0.487569 0.836343 0.528255
0.590686 0.828431 0.536121
0.670711 0.833939 0.534996
0.748529 0.843152 0.530254
0.831066 0.848530 0.519715
0.912928 0.859314 0.568811
0.368627 0.886275 0.593137
0.434314 0.890196 0.596875
0.506618 0.890196 0.601593
0.576532 0.890748 0.611213
0.650980 0.890196 0.620098
0.720037 0.898039 0.628432
0.779044 0.905882 0.630269
0.841483 0.913725 0.629902
0.901961 0.917647 0.624510
0.054902 0.078431 0.482353
0.081863 0.076470 0.495588
0.129902 0.069608 0.505392
0.347304 0.057353 0.525490
0.535294 0.066667 0.529412
0.667157 0.070588 0.502941
0.766177 0.070098 0.479412
0.855882 0.064706 0.460294
0.923530 0.109803 0.450981
0.051225 0.150980 0.508578
0.076011 0.141636 0.527206
0.147120 0.130024 0.533640
0.367188 0.094455 0.547151
0.554289 0.083824 0.544485
0.686121 0.084559 0.517494
0.782537 0.083395 0.487071
0.873284 0.093689 0.471569
0.941176 0.151471 0.462010
0.045588 0.278922 0.523529
0.065993 0.284314 0.550490
0.204534 0.280270 0.552573
0.392463 0.256005 0.566361
0.585049 0.224755 0.571569
0.716605 0.223284 0.543444
0.817157 0.236765 0.518872
0.907107 0.236213 0.493198
0.951961 0.310294 0.502941
0.046814 0.422549 0.535049
0.077451 0.430821 0.550092
0.240809 0.435417 0.559620
0.417647 0.435815 0.568658
0.587500 0.422304 0.578309
0.707077 0.426716 0.554473
0.809620 0.424020 0.535233
0.902206 0.406710 0.508517
0.956863 0.451716 0.528186
0.076470 0.570588 0.540196
0.091789 0.578309 0.552696
0.203676 0.581372 0.561520
0.426471 0.577206 0.569485
0.575490 0.571569 0.574020
0.695343 0.566667 0.564583
0.796078 0.564461 0.555392
0.889706 0.556372 0.539461
0.951961 0.571569 0.550000
0.211520 0.670343 0.547059
0.236765 0.674908 0.553676
0.311826 0.679596 0.558333
0.457139 0.676961 0.567892
0.567892 0.664216 0.574510
0.670343 0.676961 0.577972
0.791973 0.685600 0.569424
0.881127 0.667065 0.549111
0.949020 0.665196 0.552206
0.292157 0.755882 0.581373
0.314338 0.758333 0.586765
0.370956 0.763235 0.585417
0.462010 0.762500 0.581311
0.573529 0.750981 0.594608
0.662561 0.754350 0.597426
0.755882 0.769485 0.592647
0.866054 0.784620 0.580576
0.936274 0.776471 0.593137
0.336029 0.835784 0.625981
0.374295 0.839951 0.629442
0.417647 0.840196 0.621079
0.486519 0.840196 0.612255
0.591299 0.833456 0.618260
0.676471 0.829473 0.623284
0.752206 0.838909 0.622182
0.834314 0.848070 0.614216
0.917157 0.859804 0.647794
0.372549 0.890196 0.656863
0.436520 0.890196 0.662500
0.499510 0.890686 0.662745
0.568137 0.894118 0.665931
0.648039 0.893137 0.676470
0.724510 0.896814 0.685784
0.780882 0.904412 0.689706
0.840441 0.913725 0.688481
0.903922 0.919608 0.688236
0.050980 0.095588 0.600490
0.077941 0.095588 0.610478
0.117647 0.094486 0.612255
0.318199 0.079902 0.630944
0.499265 0.070588 0.637745
0.652022 0.078431 0.641176
0.764706 0.080515 0.629902
0.855882 0.082537 0.613235
0.921569 0.134804 0.609804
0.050980 0.156373 0.617464
0.070404 0.147549 0.638787
0.135784 0.138281 0.639170
0.337240 0.122557 0.654787
0.517647 0.087316 0.655790
0.671944 0.092823 0.658824
0.782537 0.093628 0.642724
0.865280 0.095673 0.618589
0.929412 0.168933 0.625980
0.057966 0.277329 0.630882
0.084988 0.277987 0.650398
0.217586 0.272671 0.658793
0.370588 0.255331 0.673529
0.549755 0.223774 0.690870
0.705852 0.193367 0.691100
0.813051 0.191146 0.671569
0.895328 0.211320 0.653064
0.937255 0.307353 0.647917
0.114767 0.416176 0.640686
0.152022 0.423836 0.656434
0.261995 0.430883 0.667524
0.405392 0.427022 0.677658
0.552972 0.414675 0.693842
0.701494 0.404412 0.693651
0.804611 0.404274 0.675628
0.892218 0.402750 0.656932
0.944546 0.444608 0.657843
0.147304 0.548284 0.644853
0.181710 0.554075 0.654657
0.260049 0.557047 0.667647
0.417647 0.557353 0.670803
0.552083 0.559804 0.683211
0.693382 0.555851 0.693566
0.791299 0.554350 0.677757
0.878339 0.546568 0.664216
0.945098 0.562745 0.660049
0.173101 0.673529 0.650919
0.197059 0.678807 0.659199
0.245527 0.683303 0.666238
0.409314 0.681924 0.675000
0.558823 0.678003 0.682567
0.684145 0.679703 0.691606
0.783333 0.676838 0.685417
0.865748 0.669899 0.676517
0.934865 0.671079 0.671079
0.250490 0.764828 0.659314
0.269914 0.767647 0.666590
0.317525 0.773774 0.676011
0.443964 0.773177 0.678922
0.582782 0.767341 0.688726
0.682613 0.759191 0.696967
0.766575 0.768536 0.701256
0.862822 0.772043 0.687393
0.934068 0.759681 0.685294
0.330576 0.840196 0.697365
0.355699 0.843934 0.701287
0.408456 0.844117 0.701210
0.494501 0.848039 0.702160
0.598100 0.841514 0.705147
0.691674 0.832353 0.710409
0.763909 0.836274 0.716712
0.840625 0.844317 0.716521
0.922365 0.861091 0.724142
0.359314 0.890196 0.720588
0.428615 0.891667 0.724510
0.499633 0.896324 0.732353
0.573530 0.898039 0.736274
0.643137 0.899265 0.736274
0.719669 0.901042 0.742647
0.784436 0.901961 0.748039
0.845404 0.911948 0.751961
0.909804 0.919118 0.753432
0.051960 0.118627 0.690196
0.077941 0.118627 0.698040
0.148039 0.116176 0.703922
0.315809 0.110784 0.720833
0.482353 0.100000 0.731373
0.629412 0.086275 0.733579
0.751961 0.090196 0.736519
0.851103 0.090196 0.732353
0.917647 0.137255 0.730392
0.055760 0.168627 0.702696
0.080147 0.160891 0.723591
0.188450 0.158395 0.730821
0.341943 0.149342 0.745174
0.501470 0.134007 0.751471
0.647549 0.102987 0.749632
0.764308 0.102819 0.750735
0.863404 0.102819 0.744286
0.921569 0.168137 0.751593
0.114461 0.280392 0.718873
0.160508 0.283058 0.743290
0.256311 0.281679 0.751532
0.382077 0.266452 0.766177
0.530515 0.246201 0.786029
0.678799 0.213695 0.787102
0.797671 0.195098 0.784068
0.886367 0.196170 0.777206
0.928432 0.274755 0.764216
0.175490 0.424020 0.730882
0.210662 0.429733 0.745940
0.294822 0.433333 0.760172
0.411244 0.430239 0.767341
0.535478 0.418137 0.781005
0.673039 0.397902 0.785953
0.793076 0.387377 0.786029
0.883563 0.383027 0.780393
0.935171 0.430760 0.770465
0.191176 0.541176 0.730392
0.224264 0.545527 0.738480
0.288726 0.550980 0.751961
0.420833 0.553431 0.759252
0.543137 0.554902 0.772549
0.667647 0.546323 0.785294
0.785294 0.541054 0.785662
0.879412 0.536459 0.778186
0.933333 0.560294 0.764706
0.202819 0.654779 0.734559
0.227773 0.660417 0.740947
0.281312 0.663052 0.753523
0.414154 0.663956 0.759727
0.546446 0.663971 0.765931
0.666682 0.670695 0.777344
0.779872 0.670374 0.785876
0.860723 0.663373 0.772503
0.929044 0.669363 0.768015
0.220588 0.762745 0.744117
0.243045 0.763725 0.751103
0.276838 0.770037 0.756434
0.403585 0.770006 0.762531
0.556373 0.768137 0.771201
0.676103 0.768474 0.781342
0.775490 0.770037 0.783578
0.855239 0.764369 0.776471
0.925245 0.760784 0.771568
0.277451 0.844117 0.759804
0.303385 0.848039 0.763618
0.345006 0.850827 0.766146
0.440870 0.852497 0.771875
0.575306 0.849387 0.780699
0.694118 0.844347 0.786933
0.777421 0.836397 0.789675
0.844669 0.846921 0.794348
0.925490 0.852451 0.795466
0.327451 0.898039 0.782353
0.385294 0.899387 0.786397
0.464951 0.901226 0.790196
0.550858 0.905882 0.796569
0.634804 0.906372 0.799019
0.717647 0.906862 0.802328
0.785539 0.905882 0.808088
0.848162 0.909804 0.811152
0.912745 0.920589 0.810784
0.092157 0.142156 0.769607
0.150000 0.149510 0.777942
0.227574 0.145956 0.785294
0.347855 0.145588 0.799693
0.484559 0.143872 0.811029
0.618934 0.132537 0.814216
0.734191 0.102819 0.814093
0.836765 0.102512 0.820159
0.925490 0.145588 0.832844
0.136765 0.195588 0.785233
0.181081 0.188174 0.797434
0.257966 0.187699 0.808211
0.369302 0.182430 0.822733
0.503431 0.172304 0.833824
0.634130 0.157131 0.835784
0.749510 0.130576 0.834620
0.852397 0.133019 0.835846
0.925490 0.176471 0.844117
0.186274 0.304412 0.803922
0.233027 0.305392 0.816988
0.302543 0.300459 0.836152
0.405392 0.282185 0.843750
0.523529 0.257108 0.853186
0.664109 0.232705 0.856848
0.782598 0.212316 0.858855
0.871798 0.211994 0.855867
0.926470 0.262132 0.845098
0.226777 0.437561 0.811275
0.263320 0.443811 0.822894
0.333563 0.448560 0.841468
0.428232 0.441352 0.849203
0.530790 0.419608 0.851869
0.660784 0.398154 0.859804
0.780837 0.383900 0.863588
0.875651 0.379121 0.859804
0.928125 0.422365 0.850490
0.232108 0.547304 0.807108
0.262745 0.553186 0.816452
0.325674 0.560784 0.834253
0.437530 0.563419 0.843076
0.540931 0.555883 0.853186
0.650889 0.541759 0.859804
0.769118 0.535049 0.865196
0.871814 0.530913 0.865441
0.927451 0.554902 0.857843
0.235968 0.651471 0.808823
0.270282 0.656863 0.816666
0.319194 0.663235 0.828569
0.433272 0.663235 0.838067
0.546477 0.663235 0.842831
0.654971 0.663235 0.850980
0.757567 0.659237 0.862301
0.858985 0.659007 0.864216
0.925490 0.663235 0.856189
0.251470 0.751961 0.816666
0.277573 0.753049 0.821446
0.320221 0.758885 0.831495
0.427313 0.760126 0.842111
0.556189 0.756862 0.844179
0.664829 0.756204 0.844883
0.760693 0.759804 0.854749
0.855561 0.762929 0.859850
0.925490 0.763725 0.853309
0.271078 0.843627 0.832353
0.294172 0.844117 0.833272
0.327895 0.847549 0.840304
0.421607 0.849525 0.845243
0.556403 0.848070 0.848958
0.675000 0.844546 0.854128
0.771185 0.844546 0.859804
0.855882 0.848039 0.867280
0.925980 0.847610 0.859866
0.281863 0.901961 0.840196
0.320650 0.905882 0.844117
0.393505 0.905882 0.848039
0.497243 0.909804 0.854412
0.599265 0.912010 0.855882
0.698039 0.915196 0.863419
0.782966 0.913725 0.863848
0.855882 0.913725 0.871568
0.917647 0.921569 0.875490
0.196078 0.180392 0.843137
0.246569 0.184314 0.847059
0.302941 0.188235 0.858824
0.394118 0.188235 0.874510
0.503922 0.188235 0.886275
0.623039 0.184314 0.895588
0.733333 0.171569 0.900980
0.835784 0.136765 0.897059
0.925490 0.156863 0.901961
0.224510 0.240686 0.857843
0.275919 0.244179 0.868689
0.329779 0.242524 0.877451
0.406863 0.233823 0.878431
0.515686 0.220833 0.888235
0.637255 0.209498 0.894302
0.750368 0.194608 0.894976
0.848468 0.156802 0.890625
0.918137 0.176471 0.894608
0.254902 0.340196 0.873530
0.303309 0.348530 0.883946
0.351961 0.345343 0.884314
0.430637 0.331863 0.885295
0.530882 0.314216 0.891667
0.649387 0.295588 0.898407
0.762990 0.271324 0.899020
0.853309 0.248039 0.901961
0.921569 0.264706 0.902941
0.279412 0.459314 0.882353
0.323529 0.467157 0.888726
0.372427 0.468015 0.890196
0.450490 0.460784 0.890196
0.538971 0.450736 0.893873
0.651471 0.435233 0.901961
0.762622 0.421079 0.908333
0.858824 0.406679 0.912255
0.924020 0.419118 0.908333
0.272549 0.562745 0.882353
0.322794 0.566666 0.889951
0.379412 0.570588 0.890196
0.460294 0.568627 0.894118
0.548039 0.564706 0.898039
0.646324 0.556863 0.904657
0.751471 0.550490 0.912255
0.856128 0.543382 0.911764
0.925490 0.552941 0.913725
0.278431 0.660784 0.880882
0.319608 0.666973 0.886275
0.382476 0.665686 0.892647
0.467709 0.664767 0.898039
0.559314 0.663235 0.903186
0.648468 0.663235 0.906434
0.745098 0.659314 0.913725
0.844914 0.659314 0.919118
0.926961 0.660784 0.919118
0.286275 0.755882 0.887255
0.332843 0.755882 0.894118
0.400981 0.759804 0.899020
0.483334 0.757353 0.902941
0.572549 0.755882 0.906372
0.661765 0.755882 0.913112
0.748775 0.755882 0.914705
0.839706 0.759804 0.921692
0.929412 0.759804 0.925490
0.294118 0.840196 0.898039
0.331924 0.843627 0.905882
0.411642 0.844117 0.909804
0.505392 0.844117 0.912255
0.590441 0.842402 0.914215
0.677635 0.840687 0.919424
0.759927 0.840564 0.921692
0.844608 0.841544 0.928554
0.929412 0.844608 0.933333
0.290196 0.894118 0.905882
0.325000 0.898039 0.909804
0.406863 0.898039 0.912745
0.497549 0.901961 0.917647
0.588235 0.905882 0.919608
0.678922 0.913725 0.921569
0.763725 0.914705 0.926470
0.848530 0.921079 0.929412
0.925490 0.921569 0.933333
