src/assets/LUTs/proLUTs/Hibiscus.cube
TITLE "Hibiscus" LUT by @rossandhisjpegs
#LUMIXPHOTOSTYLE PORT
LUT_3D_SIZE 5
DOMAIN_MIN 0.0 0.0 0.0
DOMAIN_MAX 1.0 1.0 1.0
0.047059 0.062745 0.043137
0.202941 0.074510 0.043137
0.531373 0.082353 0.039216
0.763725 0.086275 0.036275
0.909804 0.090196 0.043137
0.047059 0.238235 0.064706
0.182843 0.276471 0.048529
0.589706 0.282843 0.039216
0.810784 0.277451 0.046078
0.949020 0.294118 0.050980
0.049019 0.525490 0.186275
0.212745 0.530882 0.201961
0.529412 0.566667 0.134314
0.818627 0.561765 0.066666
0.960784 0.535294 0.047059
0.199019 0.729411 0.320588
0.358088 0.733333 0.328186
0.546569 0.747549 0.333823
0.741912 0.767647 0.302696
0.943137 0.788235 0.278431
0.380392 0.886275 0.466667
0.514706 0.886275 0.465687
0.654902 0.892157 0.482353
0.779412 0.906862 0.487255
0.898039 0.917647 0.482353
0.050980 0.074510 0.209804
0.210049 0.066667 0.234314
0.545098 0.069608 0.206373
0.763971 0.081863 0.190196
0.921569 0.136274 0.179412
0.047059 0.287255 0.253677
0.245404 0.296814 0.271384
0.603431 0.284559 0.233701
0.827941 0.259804 0.181066
0.955147 0.315441 0.222549
0.061765 0.544118 0.300000
0.212622 0.549019 0.297917
0.537745 0.571569 0.261520
0.827083 0.553554 0.181372
0.964706 0.546079 0.256373
0.217647 0.737255 0.405637
0.315625 0.744914 0.388970
0.544976 0.748407 0.401838
0.747855 0.770649 0.377758
0.937255 0.791176 0.411029
0.377451 0.886275 0.539215
0.510049 0.887255 0.550980
0.656372 0.891667 0.570588
0.782353 0.905882 0.577451
0.898039 0.917647 0.570588
0.054902 0.078431 0.482353
0.129902 0.069608 0.505392
0.535294 0.066667 0.529412
0.766177 0.070098 0.479412
0.923530 0.109803 0.450981
0.045588 0.278922 0.523529
0.204534 0.280270 0.552573
0.585049 0.224755 0.571569
0.817157 0.236765 0.518872
0.951961 0.310294 0.502941
0.076470 0.570588 0.540196
0.203676 0.581372 0.561520
0.575490 0.571569 0.574020
0.796078 0.564461 0.555392
0.951961 0.571569 0.550000
0.292157 0.755882 0.581373
0.370956 0.763235 0.585417
0.573529 0.750981 0.594608
0.755882 0.769485 0.592647
0.936274 0.776471 0.593137
0.372549 0.890196 0.656863
0.499510 0.890686 0.662745
0.648039 0.893137 0.676470
0.780882 0.904412 0.689706
0.903922 0.919608 0.688236
0.051960 0.118627 0.690196
0.148039 0.116176 0.703922
0.482353 0.100000 0.731373
0.751961 0.090196 0.736519
0.917647 0.137255 0.730392
0.114461 0.280392 0.718873
0.256311 0.281679 0.751532
0.530515 0.246201 0.786029
0.797671 0.195098 0.784068
0.928432 0.274755 0.764216
0.191176 0.541176 0.730392
0.288726 0.550980 0.751961
0.543137 0.554902 0.772549
0.785294 0.541054 0.785662
0.933333 0.560294 0.764706
0.220588 0.762745 0.744117
0.276838 0.770037 0.756434
0.556373 0.768137 0.771201
0.775490 0.770037 0.783578
0.925245 0.760784 0.771568
0.327451 0.898039 0.782353
0.464951 0.901226 0.790196
0.634804 0.906372 0.799019
0.785539 0.905882 0.808088
0.912745 0.920589 0.810784
0.196078 0.180392 0.843137
0.302941 0.188235 0.858824
0.503922 0.188235 0.886275
0.733333 0.171569 0.900980
0.925490 0.156863 0.901961
0.254902 0.340196 0.873530
0.351961 0.345343 0.884314
0.530882 0.314216 0.891667
0.762990 0.271324 0.899020
0.921569 0.264706 0.902941
0.272549 0.562745 0.882353
0.379412 0.570588 0.890196
0.548039 0.564706 0.898039
0.751471 0.550490 0.912255
0.925490 0.552941 0.913725
0.286275 0.755882 0.887255
0.400981 0.759804 0.899020
0.572549 0.755882 0.906372
0.748775 0.755882 0.914705
0.929412 0.759804 0.925490
0.290196 0.894118 0.905882
0.406863 0.898039 0.912745
0.588235 0.905882 0.919608
0.763725 0.914705 0.926470
0.925490 0.921569 0.933333
