src/assets/LUTs/freeLUTs/Cinema.cube
TITLE "Generated by Resolve"
LUT_3D_SIZE 33
0 0 0.0337072
0 0 0.0363012
0 0 0.0391394
0.000274662 0 0.0424506
0.0154269 0 0.0434882
0.0289616 0 0.0422217
0.0427863 0 0.0399786
0.0563211 0 0.037232
0.0701457 0 0.0346227
0.0843519 0 0.032166
0.098558 0 0.0303044
0.113878 0 0.0283665
0.130037 0 0.0257115
0.147036 0 0.0241703
0.165286 0 0.0215457
0.184787 0 0.0183566
0.205127 0 0.0148775
0.226734 0 0.0105135
0.248463 0 0.00561532
0.268742 0 0.000335698
0.2869 0 0
0.303624 0 0
0.320333 0 0
0.338048 0 0
0.358267 0 0
0.383581 0 0
0.40293 0 0
0.423835 0 0
0.444892 0 0
0.465232 0 0
0.484321 0 0
0.502831 0 0
0.520043 0 0
0 0 0.0364385
0 6.10361e-05 0.0387884
0 0.00495918 0.0416571
0 0.0100557 0.0450904
0.0167544 0.0130617 0.0466621
0.0314488 0.0120546 0.0449531
0.0455329 0.0100557 0.0424048
0.0598306 0.00799573 0.039704
0.0740368 0.00663767 0.0371557
0.089128 0.00573739 0.03505
0.104692 0.00505074 0.0332189
0.120699 0.0037232 0.0310521
0.137713 0.00299077 0.0286412
0.155215 0.00276188 0.0267643
0.174411 0.0015259 0.0239719
0.195071 0.000350958 0.0209812
0.216556 0 0.0175021
0.238758 0 0.0129549
0.261784 0 0.0078584
0.282353 0 0.00247196
0.302022 0 0
0.31812 0 0
0.333013 0 0
0.349218 0 0
0.366705 0 0
0.397604 0 0
0.414694 0 0
0.43476 0 0
0.453803 0 0
0.473716 0 0
0.493141 0 0
0.511818 0 0
0.528344 0 0
0 0.00872816 0.0363317
0 0.0126497 0.0383154
0 0.0174716 0.041474
0 0.0221561 0.0443732
0.0159915 0.026978 0.0475624
0.0325933 0.0271153 0.0471504
0.0479896 0.0253758 0.0446174
0.0634928 0.024033 0.0421759
0.0787366 0.0230869 0.040116
0.0950027 0.0227665 0.0382239
0.111543 0.0221408 0.0362402
0.128557 0.0212253 0.0340887
0.145953 0.0200961 0.0318761
0.164675 0.0191958 0.0294347
0.18471 0.0175937 0.0263828
0.206104 0.0160067 0.02327
0.228626 0.0144503 0.0196841
0.25185 0.0124208 0.0153353
0.275288 0.00976577 0.00999466
0.297063 0.00573739 0.00462348
0.317678 0.000839246 0
0.333913 0 0
0.349157 0 0
0.363821 0 0
0.380133 0 0
0.398642 0 0
0.432227 0 0
0.448951 0 0
0.46688 0 0
0.485603 0 0
0.503227 0 0
0.520134 0 0
0.536263 0 0
0 0.0222324 0.0352483
0 0.0259098 0.0371252
0 0.0301976 0.040238
0 0.035462 0.0429084
0.0129091 0.0405127 0.0460059
0.0344701 0.0429999 0.0485695
0.0510262 0.0430152 0.0477607
0.0676432 0.0423285 0.0458076
0.0845808 0.0417029 0.0437629
0.101122 0.0403601 0.0416114
0.118608 0.0398108 0.0396735
0.136385 0.0390021 0.0371405
0.155154 0.038529 0.0349737
0.175387 0.038056 0.0324102
0.19678 0.0366064 0.0290837
0.219394 0.0354162 0.0259251
0.243137 0.0336309 0.0220951
0.266773 0.0307469 0.0174258
0.29044 0.0276646 0.0119326
0.31252 0.0238499 0.00590524
0.333867 0.0194247 0.00047303
0.351293 0.0135042 0
0.36759 0.00633249 0
0.381826 0 0
0.395926 0 0
0.411704 0 0
0.434379 0 0
0.470176 0 0
0.486458 0 0
0.50277 0 0
0.519005 0 0
0.534646 0 0
0.548226 0 0
0 0.036286 0.033814
0 0.039826 0.0356909
0 0.0441138 0.0383917
0 0.0491798 0.0411688
0.00695811 0.0542763 0.0432593
0.0330968 0.0587015 0.0472877
0.0541848 0.0595712 0.049424
0.0721752 0.0599985 0.0482338
0.0898146 0.0605325 0.046952
0.108202 0.0605631 0.045243
0.127138 0.0601968 0.0431525
0.145846 0.0597543 0.0408484
0.166262 0.0590219 0.0382391
0.187137 0.057908 0.0354009
0.210132 0.0562905 0.0320134
0.233707 0.0549783 0.0285801
0.258762 0.0532998 0.0243381
0.283635 0.0514534 0.0194553
0.308049 0.049134 0.0139773
0.331197 0.0459144 0.00738537
0.35346 0.0421912 0.00144961
0.372091 0.0367895 0
0.388983 0.0304417 0
0.401755 0.0207218 0
0.415778 0.0104677 0
0.430503 0.000579843 0
0.447105 0 0
0.468772 0 0
0.510246 0 0
0.524987 0 0
0.541588 0 0
0.556039 0 0
0.56669 0 0
0 0.050782 0.0324865
0 0.0540627 0.0343481
0 0.0578317 0.036759
0 0.062974 0.0391089
0.00355535 0.0684367 0.0416266
0.0305333 0.0732433 0.0454108
0.0571298 0.0765087 0.0505226
0.0770123 0.0770123 0.0505531
0.0959335 0.0776684 0.0492256
0.115877 0.0787671 0.0482795
0.135607 0.0796216 0.0470283
0.156237 0.0800183 0.0448157
0.178149 0.0798505 0.0420996
0.201358 0.0796521 0.0394446
0.226246 0.0793164 0.0364996
0.251347 0.0780804 0.0327916
0.277424 0.0763714 0.0279088
0.302846 0.0741741 0.0226444
0.32723 0.0716106 0.0166018
0.351583 0.0685435 0.00917067
0.373541 0.0644541 0.00180056
0.392905 0.0604105 0
0.411002 0.0549325 0
0.425284 0.0467536 0
0.440894 0.0391546 0
0.45481 0.0299229 0
0.47013 0.0209201 0
0.485863 0.0127413 0
0.502571 0.00393683 0
0.523262 0.000167849 0
0.565118 0.01178 0
0.578256 0.00656138 0
0.59028 0.000823987 0
0 0.0655985 0.0317235
0 0.0681926 0.0329137
0 0.0715343 0.0344549
0 0.0770733 0.0374609
0.000946059 0.0832074 0.0402686
0.0277409 0.0878309 0.043595
0.0586099 0.0928664 0.0500496
0.0824292 0.0947433 0.0533761
0.102647 0.0959335 0.0522011
0.123552 0.0972457 0.0511635
0.14406 0.0981308 0.0500801
0.166644 0.0992142 0.0484169
0.190021 0.100206 0.046479
0.215335 0.100603 0.0439155
0.242405 0.100877 0.0410315
0.269703 0.100298 0.0371862
0.29691 0.099321 0.0325628
0.323781 0.0976272 0.0271
0.349355 0.0954604 0.0202487
0.374197 0.0921035 0.0120394
0.396689 0.0893873 0.00387579
0.416785 0.0851911 0
0.435523 0.0800793 0
0.451408 0.0740063 0
0.466316 0.0666361 0
0.479866 0.0582132 0
0.49546 0.051194 0
0.510369 0.0443427 0
0.525078 0.036286 0
0.540413 0.0301518 0
0.555261 0.022797 0
0.571939 0.0174258 0
0.593668 0.0155642 0
0 0.0805371 0.030808
0 0.0833295 0.0320134
0 0.0865644 0.0333104
0 0.0920119 0.0360113
0 0.0982223 0.0392157
0.0261692 0.103456 0.0424201
0.0573739 0.109071 0.0488899
0.0863813 0.113237 0.0547951
0.110002 0.114321 0.0552987
0.132158 0.116091 0.0547494
0.154482 0.117754 0.0541085
0.178317 0.119356 0.0526284
0.20296 0.120302 0.0505531
0.230426 0.121111 0.0481727
0.258747 0.121386 0.0450752
0.287633 0.121752 0.0417029
0.316747 0.121401 0.0369726
0.344091 0.119783 0.0309911
0.370596 0.117723 0.0239414
0.395529 0.115068 0.0155337
0.418784 0.112581 0.00590524
0.440299 0.108965 0
0.460227 0.105013 0
0.478035 0.100801 0
0.493874 0.0947738 0
0.509285 0.0886702 0
0.524529 0.0827649 0
0.538094 0.0753338 0
0.551781 0.0686961 0
0.564843 0.062211 0
0.577676 0.0555428 0
0.591226 0.0494392 0
0.604212 0.043122 0
0 0.0965286 0.0307927
0 0.0992752 0.0317235
0 0.102647 0.0329137
0 0.107607 0.0354772
0 0.114321 0.0387732
0.0259861 0.119722 0.0421454
0.0563058 0.125338 0.0479133
0.0889143 0.130709 0.0552987
0.117082 0.134096 0.059205
0.141772 0.135912 0.0593576
0.166903 0.138033 0.059266
0.19234 0.139559 0.0577707
0.218784 0.141146 0.0561227
0.247883 0.142199 0.0537881
0.277028 0.142687 0.0504158
0.306554 0.142504 0.0464179
0.336461 0.142031 0.0416114
0.363958 0.140795 0.0356146
0.391623 0.139208 0.0278935
0.416754 0.136721 0.018677
0.439414 0.133593 0.00801099
0.461082 0.130114 0
0.481605 0.127092 0
0.501213 0.124025 0
0.51928 0.119829 0
0.535729 0.115312 0
0.55169 0.111147 0
0.565591 0.10515 0
0.579995 0.100435 0
0.59324 0.09514 0
0.604944 0.0885328 0
0.616571 0.0819562 0
0.627131 0.074464 0
0 0.113085 0.0311437
0 0.115633 0.0319524
0 0.119142 0.0330358
0 0.124514 0.0357519
0 0.13077 0.0391852
0.0271 0.135851 0.0428779
0.0584268 0.142336 0.0489357
0.0891585 0.148486 0.0551919
0.123552 0.154726 0.0621805
0.152026 0.156893 0.0645457
0.17937 0.159411 0.0646982
0.206256 0.161212 0.0631418
0.23592 0.163134 0.0610513
0.266361 0.16408 0.0584878
0.296803 0.164889 0.0554665
0.327367 0.164904 0.0515297
0.357809 0.164248 0.0460059
0.386023 0.162692 0.0395209
0.413855 0.160662 0.0314946
0.438041 0.157519 0.0218814
0.460945 0.154635 0.0112001
0.482368 0.151186 0
0.502754 0.147951 0
0.521843 0.144244 0
0.541238 0.141543 0
0.559518 0.139025 0
0.575708 0.135607 0
0.591058 0.131426 0
0.605798 0.128115 0
0.619028 0.123156 0
0.631098 0.118349 0
0.642023 0.1122 0
0.652888 0.106065 0
0 0.130129 0.0324407
0 0.133333 0.0335851
0 0.136919 0.0346685
0 0.141772 0.0363165
0 0.14815 0.0390784
0.0273136 0.154803 0.0433967
0.0623789 0.162463 0.0500954
0.0919203 0.168841 0.0556344
0.126253 0.175799 0.0623789
0.160113 0.180926 0.0679179
0.192126 0.183246 0.0696727
0.221805 0.185077 0.0679942
0.253483 0.186923 0.06598
0.286091 0.188281 0.0635691
0.317571 0.188556 0.0600137
0.350271 0.188663 0.0556497
0.380941 0.187839 0.0500496
0.409171 0.186114 0.0429847
0.437049 0.183688 0.0341955
0.460304 0.180819 0.0248569
0.483299 0.177676 0.013901
0.503838 0.173465 0.000335698
0.523949 0.170031 0
0.542672 0.166461 0
0.561166 0.163394 0
0.579705 0.160784 0
0.596979 0.158053 0
0.613184 0.154772 0
0.627832 0.151537 0
0.642069 0.147768 0
0.655009 0.143786 0
0.666423 0.139361 0
0.67776 0.134691 0
0 0.149722 0.0344091
0 0.153124 0.0352026
0 0.156603 0.0356756
0 0.160586 0.0363165
0 0.168292 0.0396124
0.0312963 0.175631 0.0449836
0.0667277 0.183444 0.0515145
0.0952773 0.190326 0.0563821
0.127962 0.197925 0.0622416
0.167422 0.206088 0.0706951
0.203281 0.209079 0.0738384
0.237324 0.211185 0.0725414
0.272129 0.213123 0.0701915
0.305669 0.214267 0.0673075
0.339757 0.214908 0.0634775
0.373159 0.214801 0.0584268
0.403204 0.213169 0.0524453
0.432029 0.211353 0.0451209
0.459373 0.208927 0.036286
0.483009 0.205722 0.0262303
0.505211 0.201877 0.0146181
0.525124 0.196963 0.00120546
0.545495 0.193362 0
0.563836 0.189715 0
0.581521 0.186175 0
0.598627 0.18265 0
0.615961 0.180148 0
0.632013 0.177203 0
0.647547 0.175082 0
0.661814 0.171679 0
0.675242 0.168338 0
0.687388 0.164553 0
0.698833 0.160235 0
0 0.170825 0.0360113
0 0.174182 0.0363317
0 0.177874 0.0366674
0 0.18262 0.0373846
0 0.191516 0.0408331
0.0377203 0.199557 0.0470588
0.0693675 0.207141 0.0522011
0.09897 0.21529 0.0568093
0.131762 0.223789 0.0623331
0.169238 0.232578 0.0696574
0.213107 0.23917 0.0761273
0.25211 0.240467 0.0768749
0.290288 0.242267 0.074052
0.326375 0.242878 0.0706188
0.362188 0.243107 0.0660716
0.395422 0.241917 0.0604105
0.426429 0.24036 0.0539254
0.456443 0.238437 0.0459144
0.48191 0.235416 0.036759
0.505119 0.2318 0.0272374
0.527352 0.228107 0.0150149
0.547173 0.223102 0
0.566857 0.219287 0
0.584283 0.215183 0
0.602258 0.211154 0
0.618631 0.207675 0
0.635828 0.205264 0
0.651972 0.202945 0
0.66656 0.199786 0
0.680659 0.196521 0
0.693889 0.193225 0
0.705547 0.188876 0
0.717601 0.185046 0
0 0.194369 0.0375372
0 0.198474 0.037644
0 0.202441 0.0379644
0 0.20795 0.0386053
0.00746166 0.216876 0.04271
0.0444038 0.22504 0.0485389
0.0732586 0.233326 0.052842
0.104311 0.242206 0.0573892
0.137819 0.25153 0.0628214
0.174563 0.2607 0.0691539
0.221515 0.269902 0.0773938
0.267582 0.273594 0.0794537
0.308659 0.273411 0.077348
0.348211 0.274556 0.0733043
0.385336 0.274067 0.0677501
0.419821 0.27303 0.0611887
0.450889 0.270924 0.0535897
0.480308 0.268635 0.0454108
0.504524 0.264347 0.0356146
0.528038 0.260563 0.0241703
0.549523 0.256214 0.0108644
0.568795 0.251209 0
0.587854 0.24686 0
0.605264 0.242908 0
0.623087 0.239292 0
0.639796 0.23621 0
0.656382 0.233631 0
0.671565 0.23064 0
0.686595 0.227909 0
0.699825 0.22443 0
0.713085 0.220783 0
0.7243 0.215915 0
0.736004 0.211475 0
0 0.220096 0.0383459
0 0.224292 0.0382696
0 0.228733 0.038529
0 0.234791 0.0390784
0.0131228 0.243824 0.0437324
0.0448615 0.252079 0.0479896
0.0753185 0.261509 0.0526284
0.111543 0.271809 0.0578775
0.144152 0.281331 0.0627909
0.180682 0.291722 0.0687114
0.224552 0.301366 0.0754864
0.2795 0.308675 0.0808118
0.326238 0.309239 0.0793164
0.368872 0.309133 0.074876
0.407919 0.308354 0.0682841
0.443412 0.306065 0.0611582
0.474571 0.302968 0.0521706
0.503349 0.299825 0.0422675
0.527321 0.295583 0.0313573
0.550484 0.2916 0.0194858
0.570581 0.286824 0.00634775
0.590478 0.28307 0
0.609506 0.279179 0
0.627405 0.275593 0
0.645411 0.272221 0
0.66128 0.268956 0
0.677501 0.265492 0
0.691981 0.261875 0
0.7066 0.2589 0
0.719188 0.254566 0
0.731716 0.249882 0
0.742962 0.244633 0
0.754635 0.240528 0
0 0.247715 0.0385748
0 0.251957 0.0383307
0 0.256916 0.0383307
0 0.264454 0.0394903
0.0153658 0.27245 0.0437018
0.044419 0.281147 0.0473335
0.0806744 0.291554 0.0525368
0.120531 0.302983 0.0581064
0.15201 0.312947 0.0628519
0.187747 0.323644 0.0677348
0.230396 0.333791 0.0734112
0.284581 0.342367 0.0796521
0.344076 0.346883 0.0801251
0.389883 0.344839 0.0755932
0.42974 0.342733 0.0671702
0.465415 0.340047 0.0579538
0.496773 0.33727 0.0487831
0.524651 0.333455 0.0378119
0.54876 0.329702 0.0276036
0.571786 0.325689 0.0171817
0.591882 0.320974 0.00575265
0.612329 0.317433 0
0.631479 0.313832 0
0.648753 0.309545 0
0.666728 0.306523 0
0.682185 0.302342 0
0.69868 0.299443 0
0.712352 0.295781 0
0.727047 0.292729 0
0.739284 0.287984 0
0.751186 0.282918 0
0.762509 0.277623 0
0.77348 0.272679 0
0 0.275914 0.0379492
0 0.280903 0.0377813
0 0.286213 0.0376135
0 0.293187 0.0408637
0.0154574 0.301076 0.04271
0.0484627 0.310597 0.0469215
0.0902419 0.322347 0.0529946
0.129427 0.333867 0.0587015
0.159609 0.344137 0.0624247
0.195789 0.354589 0.0662394
0.237507 0.363836 0.0700084
0.29099 0.373983 0.0753796
0.35198 0.380209 0.0769665
0.405478 0.380743 0.0724193
0.448417 0.377462 0.0636912
0.485481 0.375113 0.0531014
0.517845 0.372625 0.0440375
0.545327 0.368673 0.0351873
0.569894 0.365362 0.0266575
0.593423 0.361959 0.0170443
0.613733 0.357382 0.00669871
0.63357 0.353796 0
0.652064 0.349599 0
0.670207 0.345602 0
0.687297 0.341985 0
0.703014 0.338033 0
0.718837 0.335073 0
0.732586 0.33138 0
0.746136 0.326818 0
0.758236 0.322316 0
0.770336 0.317525 0
0.781369 0.312047 0
0.792233 0.306722 0
0 0.304173 0.037232
0 0.309239 0.0368353
0 0.314504 0.0370184
0 0.32163 0.0393988
0.0191196 0.329747 0.0415656
0.0544594 0.339696 0.0458076
0.099321 0.352331 0.0523232
0.133165 0.363272 0.0565499
0.165087 0.373465 0.0598764
0.201801 0.38381 0.0625162
0.242741 0.393637 0.0644846
0.294286 0.403845 0.0685588
0.353506 0.410269 0.0691844
0.415457 0.415351 0.0660258
0.465461 0.413275 0.0604105
0.503334 0.410529 0.0518959
0.535607 0.407538 0.0428626
0.563836 0.404425 0.0344244
0.589395 0.40174 0.0266117
0.612284 0.397971 0.0176089
0.633341 0.393942 0.00860609
0.653803 0.390112 0
0.671885 0.385595 0
0.690089 0.38201 0
0.707103 0.378851 0
0.722789 0.374731 0
0.738094 0.371405 0
0.751598 0.367193 0
0.765301 0.363867 0
0.777081 0.358236 0
0.789181 0.353796 0
0.800076 0.347997 0
0.81062 0.34229 0
0 0.331975 0.0349737
0 0.337041 0.0347143
0 0.341283 0.0358892
0 0.34757 0.035935
0.0195468 0.356985 0.0386664
0.0600595 0.367559 0.0433661
0.106844 0.380453 0.0501259
0.137011 0.390906 0.0532387
0.170779 0.400839 0.0557107
0.208103 0.411322 0.0577096
0.249363 0.421012 0.0590219
0.299107 0.430503 0.0607004
0.357488 0.438087 0.0609598
0.418463 0.4439 0.0608072
0.478767 0.447715 0.056199
0.51838 0.444785 0.0503395
0.551507 0.442267 0.0426947
0.581598 0.440558 0.0350347
0.607477 0.437552 0.0267948
0.631006 0.434302 0.0184176
0.652277 0.430915 0.0103151
0.672938 0.427771 0.00189212
0.690867 0.423499 0
0.708782 0.419547 0
0.72546 0.415503 0
0.741131 0.411368 0
0.755673 0.407599 0
0.769314 0.403494 0
0.782559 0.399222 0
0.794675 0.394308 0
0.806195 0.389136 0
0.816983 0.383658 0
0.828153 0.379065 0
0 0.356985 0.0342107
0 0.36173 0.0331884
0 0.36672 0.0325628
0 0.374716 0.0335393
0.0286717 0.384161 0.0366217
0.0716869 0.395895 0.0423896
0.112261 0.407645 0.047364
0.141878 0.417014 0.0492103
0.179019 0.428351 0.052018
0.215396 0.437995 0.05243
0.256916 0.447547 0.0518502
0.304875 0.45626 0.0513161
0.363928 0.465782 0.0544137
0.42153 0.473045 0.056672
0.478904 0.47837 0.0536812
0.530327 0.479271 0.0485695
0.566934 0.476265 0.0430457
0.596429 0.473777 0.0350805
0.622751 0.471321 0.0271611
0.646769 0.468193 0.019852
0.668696 0.465156 0.0127565
0.688899 0.461875 0.00590524
0.707378 0.458167 0
0.72575 0.454627 0
0.741619 0.450446 0
0.757794 0.447303 0
0.772305 0.443427 0
0.785977 0.439216 0
0.798993 0.43534 0
0.810849 0.429587 0
0.822309 0.424918 0
0.832822 0.418936 0
0.843549 0.414145 0
0 0.382422 0.0305028
0 0.387747 0.0297246
0 0.392432 0.0287938
0.0021973 0.401755 0.0309453
0.0390478 0.411597 0.0345312
0.0801556 0.42266 0.0391241
0.115801 0.433326 0.0426184
0.149218 0.443748 0.045182
0.186328 0.454597 0.0470893
0.223621 0.463981 0.045655
0.263386 0.471824 0.0431983
0.312963 0.481865 0.0442664
0.368383 0.492134 0.049134
0.42504 0.500557 0.052491
0.480629 0.50724 0.0536202
0.53434 0.510353 0.0463874
0.578164 0.509163 0.0407874
0.609812 0.506554 0.0359197
0.637003 0.504875 0.0302739
0.661723 0.502068 0.0242313
0.683803 0.49897 0.0177768
0.704021 0.495415 0.0109865
0.723003 0.492134 0.00448615
0.741222 0.488869 0
0.757137 0.484733 0
0.773175 0.481376 0
0.787152 0.477745 0
0.800656 0.472709 0
0.813214 0.468406 0
0.82533 0.463615 0
0.83624 0.458137 0
0.846891 0.452934 0
0.857618 0.448798 0
0 0.407111 0.0265354
0 0.412314 0.0251469
0 0.41883 0.0249027
0.0120394 0.427771 0.0271305
0.0478828 0.436912 0.0302281
0.0897078 0.448692 0.035111
0.121859 0.458335 0.0370489
0.159869 0.470375 0.0402838
0.195331 0.480125 0.0405585
0.231174 0.488716 0.0383459
0.273671 0.497902 0.0367742
0.321874 0.50808 0.0389563
0.373816 0.518563 0.0445411
0.429633 0.527901 0.0483864
0.4822 0.534188 0.0501106
0.536339 0.539483 0.0461433
0.584695 0.541039 0.0413977
0.622232 0.539498 0.0385901
0.650889 0.537301 0.0347601
0.675151 0.534783 0.0293431
0.697383 0.53167 0.0234989
0.718135 0.528634 0.017319
0.737072 0.52549 0.0109712
0.754925 0.521874 0.00389105
0.770809 0.517861 0
0.786664 0.514107 0
0.800717 0.510399 0
0.81442 0.506157 0
0.826551 0.501549 0
0.838285 0.496208 0
0.849271 0.491325 0
0.859617 0.485679 0
0.870222 0.481834 0
0 0.43183 0.0211032
0 0.438178 0.0199588
0 0.445563 0.0211185
0.0242313 0.45391 0.0231327
0.0601663 0.463355 0.0261234
0.0981308 0.474357 0.0294041
0.130236 0.483818 0.0306859
0.167529 0.494362 0.0320439
0.202564 0.503212 0.0305943
0.240299 0.512581 0.0292515
0.282933 0.523125 0.0308537
0.329061 0.533165 0.0350195
0.379721 0.543587 0.0404212
0.43476 0.552941 0.0446479
0.487877 0.559503 0.0458839
0.539422 0.566064 0.0474708
0.58703 0.570153 0.0439155
0.62916 0.570169 0.0412299
0.661402 0.568566 0.0387121
0.68661 0.566003 0.0345769
0.709316 0.563317 0.0291905
0.730297 0.560647 0.0236667
0.749355 0.557046 0.0174411
0.767376 0.553536 0.0107729
0.783917 0.550057 0.00411994
0.799481 0.546914 0
0.813199 0.542916 0
0.82681 0.538643 0
0.838926 0.533898 0
0.850263 0.528634 0
0.861234 0.5234 0
0.871473 0.518639 0
0.880751 0.513664 0
0 0.454719 0.0138705
0 0.462852 0.0128328
0 0.470069 0.0141756
0.0344091 0.478706 0.0166629
0.0705577 0.488411 0.0208286
0.103777 0.497826 0.0213474
0.138247 0.507317 0.0216678
0.176471 0.517311 0.0210269
0.212741 0.527245 0.02121
0.25211 0.53782 0.0231327
0.293141 0.548089 0.0265202
0.338613 0.5579 0.0310521
0.388785 0.568307 0.0367895
0.441627 0.578103 0.0404974
0.493278 0.585245 0.0426184
0.542596 0.591409 0.0459144
0.588037 0.596399 0.0468605
0.632349 0.599893 0.0437934
0.669734 0.598581 0.0413977
0.697017 0.595651 0.0389105
0.720516 0.593332 0.0344854
0.740764 0.590402 0.0290532
0.760204 0.587091 0.0232395
0.778241 0.584131 0.0173037
0.794888 0.580957 0.0110781
0.810407 0.5776 0.00469978
0.824537 0.57348 0
0.838056 0.570001 0
0.850324 0.565667 0
0.861524 0.561044 0
0.872374 0.556512 0
0.882734 0.55201 0
0.889677 0.545098 0
0 0.478386 0.00436408
0 0.487999 0.00518807
0.0140078 0.495644 0.00701915
0.0475013 0.503685 0.0099794
0.0792401 0.51194 0.0117494
0.114565 0.521447 0.0122835
0.151598 0.531548 0.0143435
0.189731 0.541848 0.014313
0.222812 0.550774 0.0149081
0.261585 0.560769 0.0184482
0.302724 0.570611 0.0220645
0.348119 0.580484 0.0272831
0.397284 0.59089 0.0328527
0.448081 0.599924 0.0369573
0.499321 0.607797 0.0408637
0.546273 0.613779 0.045243
0.591424 0.619562 0.0485237
0.634775 0.623758 0.0464179
0.670848 0.624598 0.0439002
0.70341 0.623209 0.0413062
0.728496 0.620676 0.0387732
0.74992 0.618311 0.0340124
0.769635 0.615671 0.0285801
0.788266 0.613108 0.0230411
0.805051 0.610269 0.0171511
0.8206 0.607645 0.011429
0.835599 0.605035 0.00547799
0.848356 0.600778 0
0.860441 0.596658 0
0.871458 0.591959 0
0.881331 0.58706 0
0.889525 0.581552 0
0.896483 0.576059 0
0 0.501823 0
0 0.510933 0
0.0254063 0.517052 0
0.0576333 0.525322 0
0.0904707 0.534005 0.000762951
0.128023 0.544076 0.00292973
0.163668 0.554086 0.00581369
0.198444 0.563775 0.0078584
0.232578 0.57319 0.0107576
0.271794 0.5832 0.0144503
0.314214 0.593347 0.0184634
0.360433 0.603647 0.0238041
0.406546 0.613062 0.0294194
0.455039 0.621866 0.0347601
0.504479 0.629496 0.0393835
0.552193 0.636088 0.0445258
0.593896 0.64123 0.0477913
0.635325 0.645685 0.0489662
0.671748 0.6486 0.0461738
0.705409 0.648722 0.0435492
0.734295 0.647288 0.0409247
0.757229 0.644724 0.0380865
0.777798 0.642741 0.033341
0.796353 0.640528 0.0282292
0.813535 0.637583 0.0224765
0.829572 0.635019 0.0170138
0.843626 0.631586 0.0114443
0.856718 0.628656 0.00608835
0.869108 0.625269 0.000808728
0.879301 0.621164 0
0.888106 0.616678 0
0.895262 0.611688 0
0.901961 0.606622 0
0 0.52253 0
0.00827039 0.532555 0
0.0386053 0.539483 0
0.0721599 0.547738 0
0.105486 0.556497 0
0.14255 0.566522 0
0.17673 0.575799 0
0.208576 0.584497 0.00257877
0.243 0.594095 0.00633249
0.282322 0.6038 0.0104372
0.324086 0.613367 0.0146487
0.368139 0.62266 0.0206912
0.414664 0.632212 0.0270848
0.463355 0.641276 0.033753
0.512596 0.64921 0.0388342
0.557321 0.655238 0.0437781
0.596735 0.659998 0.0472419
0.636637 0.664805 0.0501106
0.671641 0.668269 0.0484016
0.706661 0.671412 0.0455177
0.735439 0.669841 0.0428016
0.761913 0.668223 0.0396887
0.783673 0.66569 0.0366979
0.80264 0.664195 0.032166
0.820706 0.662486 0.0270085
0.836591 0.660151 0.0225071
0.851011 0.657893 0.018143
0.863996 0.655665 0.0146334
0.876097 0.653178 0.01149
0.885115 0.649073 0.00881971
0.892699 0.644327 0.00712596
0.899916 0.640131 0.00567636
0.906798 0.635981 0.00491341
0 0.541741 0
0.0223087 0.552178 0
0.0536355 0.560052 0
0.0847486 0.567346 0
0.118334 0.576379 0
0.155901 0.58677 0
0.187228 0.595987 0
0.220203 0.605356 0
0.255726 0.614755 0.00218204
