src/assets/LUTs/freeLUTs/Cinema.cube
TITLE "Generated by Resolve"
LUT_3D_SIZE 9
0 0 0.0337072
0.0154269 0 0.0434882
0.0701457 0 0.0346227
0.130037 0 0.0257115
0.205127 0 0.0148775
0.2869 0 0
0.358267 0 0
0.444892 0 0
0.520043 0 0
0 0.036286 0.033814
0.00695811 0.0542763 0.0432593
0.0898146 0.0605325 0.046952
0.166262 0.0590219 0.0382391
0.258762 0.0532998 0.0243381
0.35346 0.0421912 0.00144961
0.415778 0.0104677 0
0.510246 0 0
0.56669 0 0
0 0.0965286 0.0307927
0 0.114321 0.0387732
0.117082 0.134096 0.059205
0.218784 0.141146 0.0561227
0.336461 0.142031 0.0416114
0.439414 0.133593 0.00801099
0.51928 0.119829 0
0.579995 0.100435 0
0.627131 0.074464 0
0 0.170825 0.0360113
0 0.191516 0.0408331
0.131762 0.223789 0.0623331
0.290288 0.242267 0.074052
0.426429 0.24036 0.0539254
0.527352 0.228107 0.0150149
0.602258 0.211154 0
0.66656 0.199786 0
0.717601 0.185046 0
0 0.275914 0.0379492
0.0154574 0.301076 0.04271
0.159609 0.344137 0.0624247
0.35198 0.380209 0.0769665
0.517845 0.372625 0.0440375
0.613733 0.357382 0.00669871
0.687297 0.341985 0
0.746136 0.326818 0
0.792233 0.306722 0
0 0.382422 0.0305028
0.0390478 0.411597 0.0345312
0.186328 0.454597 0.0470893
0.368383 0.492134 0.049134
0.578164 0.509163 0.0407874
0.683803 0.49897 0.0177768
0.757137 0.484733 0
0.813214 0.468406 0
0.857618 0.448798 0
0 0.478386 0.00436408
0.0792401 0.51194 0.0117494
0.222812 0.550774 0.0149081
0.397284 0.59089 0.0328527
0.591424 0.619562 0.0485237
0.728496 0.620676 0.0387732
0.805051 0.610269 0.0171511
0.860441 0.596658 0
0.896483 0.576059 0
0 0.558221 0
0.133593 0.595987 0
0.264332 0.63183 0
0.430915 0.668223 0.0243534
0.602197 0.694972 0.0455482
0.7346 0.709453 0.0473945
0.830182 0.705379 0.0409247
0.883711 0.699031 0.0372015
0.913375 0.688167 0.04477
0 0.616907 0
0.180514 0.666346 0
0.311452 0.69868 0
0.47921 0.729152 0.0334173
0.637827 0.75111 0.0627146
0.750301 0.761776 0.0819562
0.836179 0.773007 0.12929
0.896727 0.809583 0.281712
0.936675 0.840787 0.420233
0 0 0.0530861
0.00657664 0 0.0658274
0.0720378 0 0.0739757
0.136629 0 0.0619974
0.213382 0 0.0468299
0.293706 0 0.0255741
0.363149 0 0.00209049
0.447425 0 0
0.523598 0 0
0 0.0419623 0.0675517
0.00755322 0.0598306 0.0805829
0.0919966 0.0706188 0.0867781
0.167025 0.0671092 0.0748455
0.258366 0.0584268 0.0585794
0.348516 0.0444038 0.0379492
0.420874 0.0159304 0.00901808
0.472282 0 0
0.553704 0 0
0 0.106432 0.0730907
0 0.123598 0.0842298
0.120668 0.150561 0.107439
0.226429 0.158236 0.104875
0.347662 0.156756 0.0892958
0.447532 0.145174 0.0637369
0.52459 0.12723 0.0258335
0.577493 0.100664 0
0.616342 0.0635691 0
0 0.185153 0.0821393
0.0135195 0.20856 0.0931258
0.136843 0.246677 0.112993
0.299992 0.267384 0.128481
0.440711 0.26479 0.1122
0.541192 0.251698 0.0869917
0.613993 0.230015 0.0483253
0.669825 0.206027 0
0.715175 0.185 0
0 0.295293 0.0893263
0.0237736 0.324605 0.0968795
0.163821 0.372793 0.117159
0.350271 0.412161 0.137179
0.528466 0.406394 0.121767
0.622324 0.387259 0.0913558
0.690455 0.358724 0.0382391
0.743542 0.331136 0
0.789548 0.30782 0
0 0.40441 0.0856489
0.0465248 0.438315 0.0936141
0.189548 0.486595 0.111849
0.366217 0.523476 0.119921
0.577493 0.535119 0.111971
0.680079 0.510277 0.063798
0.75256 0.490288 0.0261997
0.808728 0.471229 0
0.855009 0.451057 0
0 0.500862 0.0725261
0.0750591 0.540444 0.0828565
0.222522 0.583413 0.0998703
0.392935 0.611246 0.0953841
0.578973 0.624094 0.075761
0.719707 0.623621 0.0646067
0.7991 0.61297 0.0463417
0.856565 0.599588 0.0260319
0.897383 0.582467 0.0074464
0 0.585153 0.0578927
0.130755 0.626917 0.0765698
0.260197 0.659846 0.0877089
0.421363 0.677363 0.0665293
0.591134 0.69575 0.067628
0.724086 0.709545 0.074342
0.822736 0.705959 0.0721447
0.878233 0.699962 0.0700847
0.913497 0.692531 0.0765698
0.000671397 0.645106 0.0461433
0.173404 0.696849 0.076112
0.306615 0.727291 0.0990463
0.481346 0.754803 0.126558
0.633799 0.774624 0.151949
0.750301 0.793667 0.206317
0.843275 0.819211 0.293492
0.902144 0.841581 0.408255
0.939895 0.86424 0.524712
0 0 0.0786755
0 0 0.0907912
0.0667887 0 0.109026
0.142626 0.0077821 0.115358
0.225315 0.00299077 0.103639
0.309316 0 0.0797436
0.375555 0 0.0514076
0.445457 0 0.0191501
0.510719 0 0.00172427
0 0.0403296 0.098024
0 0.0532235 0.109163
0.0882887 0.0748455 0.132021
0.175433 0.0813153 0.135561
0.272572 0.0686656 0.115785
0.359625 0.0500496 0.0923934
0.429343 0.0176394 0.0645762
0.484154 0 0.0238651
0.532967 0 0
0 0.116991 0.123323
0 0.131777 0.134508
0.120043 0.16701 0.16701
0.229938 0.174777 0.164645
0.348089 0.166491 0.145083
0.443183 0.151492 0.120043
0.514763 0.131121 0.0897383
0.570871 0.105989 0.0548257
0.610849 0.0676738 0.00598154
0 0.201541 0.141543
0 0.223331 0.149859
0.148425 0.274739 0.183673
0.311055 0.301732 0.204074
0.457664 0.297704 0.186389
0.556725 0.279026 0.160082
0.628504 0.255924 0.13048
0.683574 0.231266 0.0948653
0.724254 0.199115 0.0362402
0 0.316426 0.150393
0.0273289 0.348028 0.162814
0.177447 0.410101 0.19292
0.349432 0.451804 0.214832
0.541192 0.448814 0.20911
0.637446 0.429343 0.183139
0.708095 0.40412 0.153262
0.759945 0.370809 0.115312
0.794171 0.323781 0.0486305
0 0.427588 0.152026
0.0366827 0.461402 0.16202
0.195758 0.524758 0.189227
0.369726 0.562539 0.205234
0.581659 0.579736 0.215274
0.692378 0.558923 0.190738
0.763272 0.535317 0.160708
0.815152 0.504723 0.118685
0.850828 0.45658 0.0259709
0 0.525872 0.143084
0.0933089 0.572152 0.161364
0.227298 0.621149 0.183551
0.398016 0.652323 0.196078
0.580591 0.66743 0.199405
0.722698 0.6663 0.191379
0.798611 0.639963 0.14902
0.853346 0.615152 0.103578
0.894133 0.587701 0.0501564
0 0.602701 0.129061
0.131273 0.658488 0.157473
0.259571 0.695094 0.176425
0.425391 0.720836 0.188647
0.588464 0.734066 0.187808
0.716731 0.738277 0.186862
0.821759 0.738705 0.193622
0.87921 0.732876 0.199435
0.923323 0.738949 0.238834
0 0.658213 0.118364
0.171466 0.728771 0.163195
0.313298 0.763531 0.19791
0.491417 0.792508 0.238834
0.638483 0.814603 0.28304
0.757336 0.831281 0.341512
0.84744 0.848173 0.419059
0.905974 0.864881 0.514443
0.942168 0.88275 0.612818
0 0 0.110063
0 0 0.120974
0.0607156 0 0.142962
0.138781 0.00814832 0.161898
0.241077 0.0172274 0.168048
0.329046 0 0.151827
0.396277 0 0.126101
0.46186 0 0.0980392
0.521675 0 0.0703746
0 0.0374304 0.133471
0 0.0487831 0.142123
0.079118 0.0701915 0.167605
0.174212 0.0861372 0.193469
0.288487 0.090547 0.190799
0.379538 0.0710307 0.167575
0.450217 0.0348821 0.141619
0.502892 0 0.111864
0.544472 0 0.0750896
0 0.122438 0.165011
0 0.135073 0.176318
0.110338 0.165957 0.214023
0.241001 0.19173 0.250797
0.365637 0.184405 0.226871
0.460609 0.164782 0.194507
0.529229 0.141192 0.162539
0.580728 0.115373 0.132128
0.618067 0.0784772 0.0930343
0 0.220813 0.210925
0 0.240101 0.222599
0.143954 0.293721 0.269108
0.32285 0.342611 0.308476
0.464225 0.32398 0.273884
0.558343 0.300023 0.239796
0.626871 0.273152 0.206332
0.679698 0.246525 0.173327
0.716594 0.212131 0.134966
0 0.336583 0.230411
0 0.360678 0.235721
0.178058 0.436133 0.28307
0.354101 0.491066 0.317815
0.551568 0.494423 0.320546
0.650675 0.47425 0.290379
0.724178 0.447227 0.256229
0.77731 0.412634 0.217365
0.813703 0.367453 0.170352
0 0.447196 0.231479
0.00895705 0.475044 0.238132
0.207034 0.555322 0.28484
0.380499 0.600977 0.313359
0.57612 0.62005 0.331685
0.701778 0.604044 0.312535
0.774701 0.580606 0.28127
0.829908 0.553231 0.245441
0.869169 0.513268 0.195575
0 0.544274 0.224933
0.0691081 0.587198 0.24361
0.241398 0.653269 0.282658
0.406958 0.689158 0.306416
0.579477 0.706569 0.318074
0.723629 0.7093 0.321492
0.807462 0.688182 0.293812
0.864378 0.666377 0.261189
0.907286 0.643107 0.229984
0 0.621317 0.214801
0.119707 0.675517 0.242298
0.266361 0.727337 0.277577
0.429175 0.756863 0.301076
0.589014 0.773495 0.315801
0.716213 0.77937 0.325277
0.825513 0.782635 0.343008
0.885771 0.776822 0.353292
0.930388 0.780056 0.381353
0 0.679057 0.209216
0.173312 0.749828 0.258885
0.324788 0.794644 0.305058
0.498863 0.82501 0.352636
0.645991 0.844938 0.401572
0.764294 0.858289 0.457374
0.851484 0.869688 0.524758
0.909453 0.883207 0.604944
0.943404 0.897887 0.688441
0 0 0.145418
0 0 0.156756
0.0565499 0 0.181353
0.139086 0.0109712 0.208042
0.238727 0.0175479 0.230228
0.346639 0.013077 0.225834
0.418555 0 0.203326
0.480247 0 0.175708
0.537667 0 0.151476
0 0.0368353 0.173312
0 0.0485847 0.182727
0.0717632 0.0691081 0.211139
0.170916 0.0856031 0.244831
0.29218 0.0965133 0.268498
0.399344 0.0915541 0.254139
0.473213 0.0663005 0.226993
0.526223 0.0122835 0.196231
0.564462 0 0.160403
0 0.124956 0.214389
0 0.136156 0.226902
0.0974441 0.162814 0.263783
0.229374 0.189761 0.308568
0.380179 0.202228 0.328023
0.481254 0.189929 0.298863
0.550057 0.16408 0.260395
0.600824 0.135515 0.222599
0.634546 0.0974594 0.182574
0 0.232486 0.271717
0.000518807 0.250385 0.283894
0.147845 0.300481 0.336385
0.308019 0.347906 0.385992
0.472831 0.354589 0.386114
0.568948 0.32607 0.344198
0.637247 0.294652 0.301472
0.688289 0.264424 0.262104
0.724453 0.23151 0.220966
0 0.36231 0.323857
0.00517281 0.38436 0.333898
0.153826 0.448646 0.37882
0.361364 0.517891 0.427588
0.557153 0.538369 0.443839
0.662013 0.51548 0.406577
0.73434 0.483604 0.364736
0.785397 0.446983 0.323262
0.819242 0.39968 0.274342
0 0.464134 0.329168
0.00630198 0.488228 0.332937
0.15465 0.555901 0.370596
0.394461 0.629191 0.425498
0.572305 0.654108 0.448356
0.706096 0.643549 0.43772
0.781506 0.621332 0.40499
0.840085 0.593042 0.365652
0.881834 0.555322 0.317556
0 0.556069 0.318151
0.00476081 0.579721 0.322057
0.214923 0.662348 0.376349
0.420722 0.717617 0.420249
0.58053 0.738201 0.43856
0.71429 0.74229 0.445426
0.811215 0.726055 0.425101
0.871015 0.706325 0.395514
0.917189 0.686946 0.366308
0 0.631357 0.305577
0.0509651 0.667338 0.32343
0.260365 0.742855 0.377432
0.438209 0.785687 0.414206
0.58732 0.803845 0.435462
0.713924 0.811307 0.451301
0.824369 0.813138 0.470344
0.887968 0.807965 0.479652
0.932921 0.810239 0.501213
0 0.694728 0.302846
0.137133 0.752392 0.348562
0.331884 0.81265 0.406241
0.510323 0.850019 0.459724
0.653742 0.867872 0.507591
0.770733 0.877897 0.557565
0.855634 0.886152 0.613169
0.912093 0.897292 0.68069
0.944533 0.910185 0.750027
0 0 0.186633
0 0 0.201022
0.0543984 0 0.227955
0.136645 0.0116884 0.258015
0.234806 0.0146944 0.285695
0.346059 0.0130312 0.299718
0.432578 0 0.285252
0.495964 0 0.259693
0.548974 0 0.231189
0 0.0358129 0.219821
0 0.0501717 0.231479
0.0684367 0.069398 0.26099
0.164813 0.0843824 0.296361
0.281102 0.0899977 0.326513
0.403388 0.0969711 0.33724
0.49015 0.0844892 0.318151
0.550668 0.0594797 0.291356
0.587594 0 0.253834
0 0.12517 0.267643
0 0.136828 0.280797
0.0871901 0.160555 0.314519
0.215702 0.186908 0.360693
0.363165 0.19559 0.395712
0.491234 0.205631 0.396826
0.570489 0.192554 0.367712
0.625589 0.169802 0.333257
0.657465 0.128603 0.285939
0 0.235889 0.329137
0.0043183 0.252369 0.341726
0.114199 0.289067 0.3823
0.279667 0.337407 0.439124
0.460792 0.357137 0.47393
0.581415 0.360189 0.458579
0.652537 0.334264 0.420264
0.70312 0.294911 0.376242
0.736507 0.250477 0.326558
0 0.378225 0.3888
0.0102998 0.39913 0.400549
0.163012 0.460578 0.455451
0.349371 0.522026 0.508141
0.544793 0.557733 0.54258
0.655467 0.545556 0.517235
0.730632 0.510323 0.473838
0.783627 0.473503 0.43003
0.819699 0.427207 0.380453
0 0.489281 0.424765
0.0115206 0.508659 0.429923
0.141909 0.566354 0.468544
0.367742 0.639017 0.521706
0.568917 0.677882 0.552712
0.704814 0.678416 0.557565
0.785611 0.654719 0.521599
0.846845 0.625589 0.481605
0.889586 0.590799 0.436271
0 0.567452 0.418173
0.00831617 0.588739 0.421302
0.107393 0.637324 0.445396
0.386175 0.725567 0.511269
0.580331 0.760998 0.546288
0.705867 0.769589 0.558694
0.811215 0.757961 0.549935
0.87396 0.739971 0.521111
0.923171 0.722133 0.491478
0 0.635584 0.402289
0.00355535 0.65716 0.405447
0.173342 0.726192 0.452277
0.418021 0.796033 0.508278
0.58703 0.826398 0.542931
0.711696 0.834623 0.563561
0.819852 0.836027 0.580987
0.888411 0.832547 0.590845
0.933318 0.833829 0.604425
0 0.697124 0.394903
0.0161288 0.720623 0.408911
0.304601 0.814054 0.494728
0.519631 0.863035 0.551598
0.664683 0.884733 0.599039
0.778119 0.892927 0.64268
0.859831 0.899443 0.68896
0.914946 0.908553 0.743908
0.946105 0.920287 0.797299
0 0 0.232105
0 0 0.248905
0.0548257 0 0.276112
0.134279 0.00898756 0.305318
0.230259 0.00947585 0.334142
0.329747 0 0.351934
0.433783 0 0.358419
0.509621 0 0.342977
0.560159 0 0.315984
0 0.0323796 0.267124
0 0.0505684 0.280751
0.0663462 0.069749 0.309239
0.159228 0.0846265 0.344305
0.273396 0.0864729 0.37583
0.384115 0.0869612 0.396002
0.493935 0.0963302 0.398886
0.566751 0.0844892 0.37969
0.609461 0.0455787 0.347784
0 0.123323 0.316518
0 0.13666 0.331167
0.0752422 0.159411 0.361166
0.202762 0.186313 0.408835
0.344137 0.19559 0.446296
0.470069 0.198169 0.463432
0.575982 0.206699 0.458259
0.640742 0.192844 0.431235
0.68101 0.163714 0.392493
0 0.233783 0.380407
0.0102541 0.251286 0.395453
0.0888838 0.280537 0.425559
0.254124 0.327596 0.484703
0.429877 0.348013 0.524117
0.562203 0.353582 0.536019
0.660822 0.360632 0.521737
0.717006 0.331258 0.485405
0.753445 0.28751 0.440208
0 0.37702 0.441962
0.0156863 0.39704 0.454231
0.106081 0.437461 0.488457
0.300496 0.500633 0.551934
0.504234 0.542901 0.593606
0.643626 0.545968 0.603067
0.732387 0.538323 0.577508
0.787427 0.503914 0.539193
0.824872 0.451148 0.490196
0 0.50312 0.485374
0.0168612 0.523751 0.496818
0.173938 0.584436 0.548516
0.377432 0.645441 0.600397
0.55935 0.682506 0.633555
0.696605 0.698116 0.653254
0.781384 0.680491 0.628046
0.841016 0.64622 0.586999
0.884794 0.614069 0.54609
0 0.588464 0.50341
0.00936904 0.606348 0.508705
0.144152 0.661768 0.548058
0.376455 0.731929 0.603616
0.560967 0.770153 0.635035
0.698604 0.787243 0.656382
0.808164 0.784298 0.661387
0.874311 0.766384 0.632593
0.925521 0.750027 0.60557
0 0.640467 0.494301
0.0027924 0.661341 0.498787
0.047776 0.691005 0.509346
0.35378 0.78912 0.587716
0.56939 0.834501 0.628367
0.711955 0.851133 0.659632
0.815442 0.854185 0.677226
0.887846 0.852155 0.687282
0.932509 0.852842 0.69366
0 0.695521 0.48603
0.00289921 0.715908 0.493874
0.207797 0.791638 0.555871
0.501671 0.865904 0.628534
0.674235 0.892943 0.675242
0.787472 0.904234 0.716487
0.86569 0.909758 0.753048
0.918441 0.917494 0.793317
0.948089 0.928344 0.832395
0 0 0.279911
0 0 0.292424
0.0538491 0 0.317128
0.127764 0 0.344533
0.21619 0 0.372442
0.317937 0 0.394995
0.409689 0 0.41033
0.507179 0 0.413184
0.568276 0 0.394919
0 0.0209506 0.309499
0 0.0457923 0.325872
0.0612955 0.0665751 0.353124
0.151583 0.0817884 0.388067
0.256611 0.0854353 0.419867
0.367758 0.0762493 0.440574
0.466377 0.0775158 0.4542
0.563912 0.0892805 0.455726
0.619745 0.0671855 0.433143
0 0.116152 0.359365
0.00105287 0.132052 0.376425
0.0618296 0.154864 0.403159
0.187533 0.180133 0.450813
0.315724 0.191196 0.487892
0.444205 0.186877 0.509041
0.546899 0.189853 0.51902
0.638529 0.199115 0.514885
0.689784 0.180148 0.487236
0 0.224186 0.425376
0.0155184 0.242084 0.441947
0.051957 0.264958 0.460685
0.221958 0.309483 0.521157
0.385641 0.334722 0.562295
0.530373 0.333791 0.58323
0.631312 0.336141 0.588037
0.716838 0.345754 0.577874
0.761944 0.314 0.544701
0 0.361852 0.488136
0.0210422 0.381628 0.501732
0.0467231 0.403677 0.514351
0.245136 0.46836 0.58265
0.449775 0.512901 0.629877
0.607431 0.524559 0.651926
0.709743 0.518715 0.652415
0.787533 0.521096 0.637217
0.83061 0.481636 0.600961
0 0.493736 0.533959
0.0176852 0.511864 0.544106
0.0662394 0.539361 0.5626
0.29633 0.612207 0.634043
0.49929 0.657328 0.676432
0.658045 0.679362 0.702113
0.764599 0.672358 0.70631
0.835874 0.661524 0.687068
0.883345 0.633707 0.656931
0 0.597986 0.561471
0.00689708 0.614893 0.570687
0.172656 0.675547 0.622889
0.384192 0.736095 0.676982
0.556863 0.771786 0.711009
0.684215 0.789334 0.734417
0.798932 0.796323 0.750134
0.869734 0.786282 0.736934
0.921248 0.770871 0.712383
0 0.661906 0.573312
0 0.679088 0.58143
0.122805 0.726116 0.616724
0.377157 0.801205 0.681987
0.565362 0.839139 0.716991
0.704768 0.857343 0.740703
0.814023 0.866026 0.760281
0.886595 0.867826 0.769619
0.931472 0.867994 0.767483
0 0.694896 0.569543
0 0.715007 0.576959
0.112551 0.764187 0.607614
0.48249 0.865217 0.700389
0.675166 0.896803 0.742458
0.796429 0.909361 0.773297
0.872908 0.917052 0.803037
0.922377 0.924575 0.830549
0.950805 0.935317 0.858259
0 0 0.327169
0 0 0.334859
0.0432288 0 0.353155
0.115251 0 0.379705
0.194446 0 0.406851
0.295094 0 0.432334
0.38677 0 0.448707
0.468376 0 0.455375
0.546441 0 0.45211
0 0.00254826 0.346166
0 0.0103914 0.355077
0.047776 0.037583 0.380789
0.131426 0.0516976 0.412909
0.219287 0.0547036 0.442252
0.321035 0.0282444 0.460487
0.415549 0.0173342 0.475547
0.505943 0.00984207 0.486519
0.592721 0.0218662 0.491615
0 0.0709544 0.378576
0.00137331 0.0997177 0.400732
0.0331579 0.12607 0.424186
0.153567 0.149584 0.470649
0.266087 0.161303 0.506844
0.387793 0.153582 0.529305
0.490349 0.143023 0.540154
0.58201 0.144854 0.54873
0.665217 0.157076 0.550423
0 0.188281 0.45069
0.017731 0.207446 0.469078
0.0455787 0.231601 0.489143
0.167208 0.266087 0.535103
0.32221 0.292683 0.58056
0.468193 0.292805 0.606928
0.577859 0.281971 0.615351
0.665873 0.280842 0.61828
0.742916 0.293263 0.615824
0 0.316579 0.514763
0.0246586 0.337057 0.531502
0.0506294 0.36144 0.547494
0.162036 0.404593 0.589136
0.368063 0.453025 0.646464
0.541161 0.469856 0.677012
0.660456 0.462745 0.685969
0.747478 0.459937 0.68687
0.819577 0.474159 0.683162
0 0.451728 0.567361
0.0261692 0.470863 0.580484
0.0508431 0.493919 0.593637
0.129152 0.533379 0.623362
0.40145 0.606012 0.697307
0.595117 0.638331 0.730892
0.725353 0.638376 0.745586
0.811154 0.628565 0.747906
0.877241 0.635096 0.744152
0 0.570382 0.602396
0.0114137 0.587381 0.611948
0.033463 0.607446 0.621332
0.199649 0.669886 0.675898
0.444602 0.733425 0.735454
0.62623 0.764874 0.771786
0.766583 0.778515 0.794141
0.854383 0.774472 0.798535
0.911513 0.775845 0.790204
0 0.664042 0.621973
0 0.679286 0.630228
0.0706188 0.712886 0.655863
0.37525 0.800305 0.738903
0.562463 0.838041 0.777279
0.70312 0.85658 0.800626
0.808957 0.866773 0.815915
0.883864 0.874647 0.826581
0.929274 0.877989 0.824735
0 0.720745 0.63061
0.0108186 0.741115 0.643626
0.332021 0.835966 0.731624
0.548806 0.880873 0.775418
0.699825 0.901167 0.801892
0.80734 0.912032 0.820615
0.880934 0.920531 0.839612
0.926848 0.930266 0.858213
0.95407 0.941283 0.876295
