src/assets/LUTs/freeLUTs/Cinema.cube
TITLE "Generated by Resolve"
LUT_3D_SIZE 5
0 0 0.0337072
0.0701457 0 0.0346227
0.205127 0 0.0148775
0.358267 0 0
0.520043 0 0
0 0.0965286 0.0307927
0.117082 0.134096 0.059205
0.336461 0.142031 0.0416114
0.51928 0.119829 0
0.627131 0.074464 0
0 0.275914 0.0379492
0.159609 0.344137 0.0624247
0.517845 0.372625 0.0440375
0.687297 0.341985 0
0.792233 0.306722 0
0 0.478386 0.00436408
0.222812 0.550774 0.0149081
0.591424 0.619562 0.0485237
0.805051 0.610269 0.0171511
0.896483 0.576059 0
0 0.616907 0
0.311452 0.69868 0
0.637827 0.75111 0.0627146
0.836179 0.773007 0.12929
0.936675 0.840787 0.420233
0 0 0.0786755
0.0667887 0 0.109026
0.225315 0.00299077 0.103639
0.375555 0 0.0514076
0.510719 0 0.00172427
0 0.116991 0.123323
0.120043 0.16701 0.16701
0.348089 0.166491 0.145083
0.514763 0.131121 0.0897383
0.610849 0.0676738 0.00598154
0 0.316426 0.150393
0.177447 0.410101 0.19292
0.541192 0.448814 0.20911
0.708095 0.40412 0.153262
0.794171 0.323781 0.0486305
0 0.525872 0.143084
0.227298 0.621149 0.183551
0.580591 0.66743 0.199405
0.798611 0.639963 0.14902
0.894133 0.587701 0.0501564
0 0.658213 0.118364
0.313298 0.763531 0.19791
0.638483 0.814603 0.28304
0.84744 0.848173 0.419059
0.942168 0.88275 0.612818
0 0 0.145418
0.0565499 0 0.181353
0.238727 0.0175479 0.230228
0.418555 0 0.203326
0.537667 0 0.151476
0 0.124956 0.214389
0.0974441 0.162814 0.263783
0.380179 0.202228 0.328023
0.550057 0.16408 0.260395
0.634546 0.0974594 0.182574
0 0.36231 0.323857
0.153826 0.448646 0.37882
0.557153 0.538369 0.443839
0.73434 0.483604 0.364736
0.819242 0.39968 0.274342
0 0.556069 0.318151
0.214923 0.662348 0.376349
0.58053 0.738201 0.43856
0.811215 0.726055 0.425101
0.917189 0.686946 0.366308
0 0.694728 0.302846
0.331884 0.81265 0.406241
0.653742 0.867872 0.507591
0.855634 0.886152 0.613169
0.944533 0.910185 0.750027
0 0 0.232105
0.0548257 0 0.276112
0.230259 0.00947585 0.334142
0.433783 0 0.358419
0.560159 0 0.315984
0 0.123323 0.316518
0.0752422 0.159411 0.361166
0.344137 0.19559 0.446296
0.575982 0.206699 0.458259
0.68101 0.163714 0.392493
0 0.37702 0.441962
0.106081 0.437461 0.488457
0.504234 0.542901 0.593606
0.732387 0.538323 0.577508
0.824872 0.451148 0.490196
0 0.588464 0.50341
0.144152 0.661768 0.548058
0.560967 0.770153 0.635035
0.808164 0.784298 0.661387
0.925521 0.750027 0.60557
0 0.695521 0.48603
0.207797 0.791638 0.555871
0.674235 0.892943 0.675242
0.86569 0.909758 0.753048
0.948089 0.928344 0.832395
0 0 0.327169
0.0432288 0 0.353155
0.194446 0 0.406851
0.38677 0 0.448707
0.546441 0 0.45211
0 0.0709544 0.378576
0.0331579 0.12607 0.424186
0.266087 0.161303 0.506844
0.490349 0.143023 0.540154
0.665217 0.157076 0.550423
0 0.316579 0.514763
0.0506294 0.36144 0.547494
0.368063 0.453025 0.646464
0.660456 0.462745 0.685969
0.819577 0.474159 0.683162
0 0.570382 0.602396
0.033463 0.607446 0.621332
0.444602 0.733425 0.735454
0.766583 0.778515 0.794141
0.911513 0.775845 0.790204
0 0.720745 0.63061
0.332021 0.835966 0.731624
0.699825 0.901167 0.801892
0.880934 0.920531 0.839612
0.95407 0.941283 0.876295
