src/assets/LUTs/freeLUTs/Maku.cube
TITLE "Maku" LUT by rossandhisjpegs
#LUMIXPHOTOSTYLE NAT
LUT_3D_SIZE 33
DOMAIN_MIN 0.0 0.0 0.0
DOMAIN_MAX 1.0 1.0 1.0
0.011765 0.011765 0.011765
0.023284 0.015686 0.011765
0.038726 0.015686 0.015441
0.054167 0.019240 0.015686
0.069608 0.019608 0.019608
0.085049 0.022916 0.019608
0.104411 0.023529 0.023529
0.122916 0.026593 0.026593
0.146079 0.030392 0.030392
0.172059 0.031373 0.031373
0.202941 0.035294 0.037990
0.233824 0.041789 0.041789
0.268628 0.045588 0.045588
0.301838 0.049387 0.049387
0.336520 0.054902 0.054902
0.369118 0.058824 0.058824
0.401961 0.064706 0.062745
0.436642 0.068505 0.068505
0.465687 0.072304 0.072304
0.496568 0.076103 0.076103
0.527451 0.079902 0.079902
0.556985 0.083701 0.083701
0.581373 0.086275 0.086275
0.607231 0.090196 0.090196
0.631373 0.094118 0.094118
0.657476 0.098039 0.094976
0.680637 0.098774 0.098774
0.699877 0.101961 0.101961
0.723040 0.105882 0.105882
0.742279 0.106250 0.106250
0.765441 0.109804 0.109804
0.788603 0.113725 0.113725
0.811765 0.113725 0.113725
0.015563 0.027206 0.015563
0.027087 0.031009 0.015686
0.038726 0.031128 0.015686
0.057610 0.031128 0.019129
0.073530 0.031235 0.019608
0.088971 0.034455 0.023510
0.108310 0.035049 0.026616
0.127574 0.035145 0.027451
0.149969 0.035171 0.030392
0.177049 0.035260 0.034191
0.206825 0.039178 0.037990
0.240238 0.043095 0.041789
0.276348 0.047013 0.047013
0.309559 0.050980 0.050980
0.342103 0.057039 0.054902
0.376838 0.060842 0.060842
0.409681 0.064706 0.064706
0.446381 0.068505 0.068505
0.477329 0.072304 0.072304
0.508211 0.078358 0.076103
0.538971 0.082276 0.079902
0.566012 0.083701 0.083701
0.591789 0.087500 0.087500
0.618784 0.091265 0.091265
0.642984 0.094118 0.094118
0.669091 0.098039 0.098039
0.692157 0.101861 0.101861
0.714725 0.102555 0.102555
0.734666 0.105882 0.105882
0.757721 0.109804 0.109693
0.780882 0.113610 0.110049
0.804045 0.113844 0.113844
0.827206 0.117647 0.117647
0.019363 0.046324 0.019363
0.030883 0.046324 0.019363
0.042417 0.046569 0.019363
0.058066 0.046569 0.019608
0.073530 0.046569 0.023284
0.092893 0.049670 0.023529
0.112208 0.046569 0.027405
0.131564 0.046569 0.030324
0.156617 0.046569 0.031373
0.184681 0.046569 0.035294
0.214461 0.046737 0.039216
0.247917 0.046975 0.043053
0.284069 0.050888 0.047059
0.317279 0.054802 0.053163
0.351960 0.058717 0.057108
0.384559 0.062630 0.060907
0.421201 0.066544 0.064706
0.454167 0.072312 0.070458
0.488725 0.076118 0.074510
0.519608 0.079925 0.078431
0.549112 0.083732 0.082353
0.577612 0.086275 0.086275
0.603263 0.090196 0.090028
0.630339 0.093942 0.093942
0.654595 0.097855 0.095098
0.680706 0.098843 0.098843
0.703922 0.102650 0.101961
0.727045 0.105882 0.105882
0.750000 0.109590 0.106372
0.773162 0.110149 0.110149
0.796323 0.113955 0.113725
0.819600 0.117647 0.117410
0.846324 0.121324 0.121324
0.023161 0.062010 0.023161
0.031239 0.062010 0.023161
0.046224 0.062010 0.023161
0.061642 0.062010 0.023529
0.073974 0.065441 0.023529
0.092893 0.065932 0.027394
0.115441 0.065564 0.030339
0.138315 0.062010 0.031373
0.164338 0.062010 0.035202
0.191563 0.059191 0.038113
0.222296 0.058089 0.041659
0.256859 0.056867 0.045711
0.291789 0.058456 0.049510
0.326593 0.058675 0.053309
0.361397 0.062584 0.058663
0.394363 0.066495 0.062573
0.430821 0.070404 0.068444
0.465809 0.074315 0.072254
0.500245 0.078224 0.076225
0.531127 0.082135 0.080024
0.562010 0.086045 0.083824
0.589212 0.089955 0.087496
0.618627 0.093865 0.091307
0.643157 0.095117 0.094118
0.669853 0.098928 0.098039
0.695956 0.102738 0.101674
0.719853 0.105882 0.105583
0.746144 0.109494 0.106437
0.768995 0.113357 0.109804
0.792525 0.114058 0.113725
0.815686 0.117869 0.117302
0.842402 0.121680 0.117770
0.865564 0.125122 0.121569
0.027451 0.080882 0.026961
0.035171 0.080882 0.026961
0.050000 0.080882 0.026961
0.065441 0.081373 0.027451
0.077451 0.081373 0.027451
0.092893 0.081373 0.030883
0.115441 0.081373 0.031281
0.141774 0.081373 0.035187
0.171201 0.078309 0.037868
0.199020 0.077098 0.039216
0.229902 0.073193 0.043137
0.267279 0.069608 0.046890
0.301961 0.067463 0.050980
0.338036 0.066177 0.054902
0.372549 0.069883 0.060754
0.406005 0.070358 0.064829
0.442402 0.075980 0.068628
0.479059 0.078171 0.074250
0.511765 0.082077 0.078155
0.544531 0.085984 0.082062
0.573836 0.089890 0.086275
0.604412 0.093796 0.089874
0.631373 0.097549 0.093781
0.660800 0.099004 0.097687
0.685294 0.102819 0.099020
0.714935 0.106633 0.102712
0.738481 0.110049 0.106525
0.765074 0.113311 0.109804
0.788296 0.117218 0.113296
0.812209 0.121125 0.117203
0.838481 0.125000 0.117861
0.861642 0.128922 0.121676
0.884804 0.132843 0.125490
0.031373 0.100123 0.030760
0.039074 0.100123 0.031354
0.050490 0.100123 0.031373
0.065932 0.100123 0.031373
0.081373 0.100736 0.034268
0.096718 0.100736 0.034681
0.115441 0.104044 0.035179
0.139081 0.100736 0.037879
0.174050 0.100123 0.041697
0.209559 0.097304 0.042965
0.243819 0.092471 0.046867
0.278309 0.088568 0.050769
0.313220 0.084666 0.054672
0.349628 0.081128 0.058575
0.386274 0.081128 0.062477
0.420956 0.081128 0.066380
0.457598 0.081740 0.072243
0.492402 0.085662 0.076061
0.527206 0.087722 0.079879
0.559432 0.091540 0.083946
0.588971 0.094976 0.087745
0.619853 0.098774 0.091334
0.650123 0.102574 0.095152
0.677524 0.105442 0.098970
0.704657 0.110171 0.102788
0.734068 0.113836 0.106606
0.758464 0.117655 0.109306
0.784927 0.121569 0.113208
0.811397 0.125368 0.117111
0.834559 0.132165 0.120956
0.861029 0.136068 0.121776
0.884804 0.139970 0.125593
0.907966 0.143873 0.129412
0.038481 0.119363 0.038481
0.043014 0.119363 0.038481
0.053722 0.120098 0.038481
0.065932 0.120098 0.038481
0.081373 0.120098 0.038481
0.100621 0.122786 0.038481
0.116176 0.123882 0.039078
0.138442 0.123284 0.041705
0.171569 0.123284 0.042953
0.212462 0.120466 0.046852
0.251961 0.115441 0.050750
0.290081 0.111519 0.054649
0.328431 0.107598 0.058548
0.363411 0.103676 0.061152
0.401716 0.099755 0.064951
0.436397 0.097672 0.070243
0.473039 0.096201 0.074142
0.509682 0.096568 0.078040
0.544041 0.098284 0.083747
0.577451 0.100789 0.087569
0.610325 0.104687 0.091391
0.639216 0.108586 0.095213
0.669363 0.112484 0.099035
0.696852 0.116383 0.101961
0.727206 0.121079 0.106679
0.757230 0.125452 0.109804
0.784314 0.129274 0.113128
0.807590 0.133096 0.117027
0.831373 0.139797 0.120926
0.857721 0.143696 0.124824
0.880928 0.147794 0.125689
0.904779 0.151593 0.129512
0.927206 0.158578 0.133333
0.042279 0.142524 0.042279
0.046105 0.142524 0.042279
0.054657 0.142524 0.042279
0.066299 0.142524 0.042279
0.081373 0.142524 0.042279
0.100736 0.142524 0.043003
0.120098 0.146446 0.045627
0.141854 0.146446 0.046201
0.171569 0.146446 0.046845
0.206867 0.145830 0.050739
0.254435 0.143482 0.053676
0.300590 0.139093 0.058529
0.340809 0.135294 0.062423
0.378554 0.130250 0.066318
0.417157 0.129902 0.070213
0.453274 0.125980 0.074108
0.490012 0.125980 0.078002
0.527206 0.122059 0.081897
0.562868 0.122059 0.087133
0.596304 0.123303 0.090932
0.630760 0.125980 0.095267
0.661642 0.126838 0.099092
0.691299 0.130760 0.102918
0.718624 0.132479 0.106127
0.747426 0.139369 0.109926
0.777329 0.145776 0.114395
0.803554 0.150245 0.117524
0.827574 0.157353 0.120845
0.853799 0.161382 0.124739
0.873897 0.165563 0.128634
0.897250 0.173231 0.132475
0.920221 0.177083 0.136397
0.939460 0.183946 0.137255
0.047059 0.168627 0.050000
0.050949 0.168627 0.050000
0.058518 0.168627 0.050000
0.068964 0.172457 0.050000
0.081373 0.172549 0.050000
0.100736 0.172549 0.050000
0.119914 0.176287 0.050000
0.145680 0.176470 0.053921
0.174510 0.176471 0.053921
0.207077 0.179412 0.057568
0.246201 0.176716 0.060539
0.300705 0.174847 0.064338
0.350367 0.170956 0.068137
0.392800 0.167065 0.071936
0.432598 0.165012 0.075735
0.470221 0.163725 0.079534
0.510784 0.162745 0.083334
0.547426 0.162745 0.089216
0.584313 0.165686 0.093137
0.616789 0.166085 0.097059
0.651103 0.167770 0.100981
0.682813 0.169608 0.104902
0.711765 0.173529 0.108823
0.740839 0.178554 0.112745
0.769608 0.184559 0.116667
0.798867 0.189215 0.120589
0.822794 0.193873 0.124510
0.846936 0.200980 0.128432
0.870098 0.205392 0.132353
0.892984 0.210171 0.133609
0.916422 0.216728 0.136520
0.935662 0.221691 0.140318
0.954902 0.229412 0.144118
0.053799 0.195588 0.054902
0.057633 0.195588 0.057721
0.065319 0.199510 0.057721
0.073039 0.200510 0.057721
0.085295 0.203431 0.057721
0.100736 0.205810 0.057721
0.122388 0.209643 0.060011
0.148648 0.211033 0.061642
0.179289 0.211274 0.061642
0.210171 0.213300 0.064461
0.247672 0.214093 0.067501
0.293627 0.213124 0.069485
0.347672 0.211228 0.073407
0.399958 0.209516 0.077328
0.445221 0.207483 0.081870
0.486642 0.206250 0.087255
0.528615 0.205147 0.091054
0.567252 0.206250 0.094853
0.604036 0.209068 0.098652
0.637132 0.209516 0.103106
0.670343 0.211228 0.108701
0.701225 0.214338 0.112622
0.730882 0.218895 0.116544
0.757966 0.222729 0.118440
0.786030 0.226838 0.122274
0.813235 0.232839 0.126107
0.836397 0.237255 0.129940
0.859559 0.242157 0.132843
0.882721 0.249740 0.136642
0.904779 0.256495 0.140177
0.927941 0.261328 0.144064
0.948162 0.267927 0.147917
0.963603 0.272917 0.151838
0.061520 0.226471 0.065441
0.065319 0.230392 0.065441
0.069118 0.234069 0.065441
0.076838 0.236757 0.065441
0.088143 0.240594 0.067800
0.103431 0.241966 0.069171
0.123284 0.244853 0.069363
0.150099 0.248775 0.069363
0.183333 0.251471 0.071385
0.217134 0.251471 0.072940
0.251471 0.252696 0.075980
0.290878 0.251892 0.077206
0.337041 0.252696 0.082813
0.392900 0.252696 0.085049
0.447350 0.252007 0.088971
0.496285 0.251471 0.092892
0.541299 0.251471 0.098775
0.583211 0.251471 0.102573
0.617892 0.252007 0.106372
0.653301 0.252696 0.110171
0.685784 0.255392 0.113970
0.716666 0.257544 0.117770
0.744470 0.261382 0.121569
0.771469 0.265219 0.124609
0.798774 0.269363 0.128493
0.824877 0.275268 0.132376
0.848039 0.279657 0.136029
0.871201 0.286956 0.139951
0.894210 0.292249 0.143872
0.913603 0.296201 0.145351
0.936765 0.302528 0.149188
0.955882 0.307720 0.153025
0.968627 0.311520 0.155637
0.069240 0.263848 0.073162
0.073039 0.265154 0.073162
0.076838 0.271446 0.075735
0.081985 0.272913 0.077083
0.092280 0.275613 0.077083
0.107230 0.279535 0.079657
0.125858 0.285547 0.079657
0.152378 0.289388 0.081005
0.185907 0.291299 0.081005
0.224510 0.292023 0.082855
0.265686 0.291299 0.084927
0.298679 0.292988 0.088385
0.337240 0.293873 0.092264
0.383398 0.294673 0.095098
0.436029 0.296668 0.098897
0.490441 0.297794 0.101980
0.544424 0.297794 0.106495
0.590790 0.295956 0.110294
0.630170 0.295221 0.114093
0.663848 0.296266 0.117892
0.698147 0.298299 0.120221
0.729071 0.301716 0.124142
0.756074 0.303868 0.128064
0.783077 0.307709 0.131985
0.809068 0.311887 0.133976
0.835172 0.317697 0.137818
0.859429 0.323154 0.141659
0.882230 0.327206 0.144363
0.902083 0.331005 0.148162
0.924877 0.337136 0.151961
0.944324 0.342441 0.155599
0.960987 0.346323 0.159436
0.972549 0.352696 0.163358
0.079412 0.298529 0.084804
0.080882 0.306250 0.084804
0.084559 0.310049 0.087255
0.088358 0.313848 0.088588
0.099510 0.317647 0.090870
0.111029 0.321829 0.091177
0.133578 0.327696 0.092647
0.157889 0.331817 0.092647
0.192647 0.333823 0.092647
0.231817 0.335585 0.092647
0.273284 0.333823 0.096109
0.310279 0.333823 0.098177
0.347120 0.333823 0.100490
0.383594 0.333823 0.103814
0.426900 0.337102 0.107690
0.477497 0.337745 0.111565
0.534314 0.341667 0.115441
0.590120 0.340978 0.118015
0.634651 0.340196 0.121814
0.672166 0.340794 0.125613
0.706373 0.342586 0.127941
0.737255 0.344118 0.131863
0.766912 0.346354 0.135784
0.792938 0.350199 0.139706
0.818137 0.354044 0.140686
0.844240 0.358211 0.144485
0.867402 0.362010 0.148285
0.889951 0.369118 0.152083
0.909804 0.373039 0.155576
0.929044 0.377191 0.159314
0.949510 0.381127 0.163235
0.964829 0.387377 0.167157
0.972549 0.391177 0.167157
0.088603 0.341054 0.096446
0.088603 0.344925 0.098775
0.092525 0.350980 0.098775
0.096297 0.354929 0.102696
0.103799 0.360462 0.102696
0.118750 0.366299 0.106254
0.141299 0.370397 0.106618
0.164461 0.374755 0.106618
0.197427 0.378676 0.106618
0.241624 0.378676 0.104289
0.284077 0.376348 0.105890
0.323407 0.376348 0.108211
0.358685 0.376348 0.111535
0.393417 0.376348 0.113515
0.429940 0.376348 0.116054
0.472415 0.376348 0.119976
0.525122 0.379105 0.125061
0.580013 0.384191 0.127819
0.628470 0.385210 0.131740
0.673250 0.386519 0.134716
0.710769 0.386519 0.135662
0.744975 0.387067 0.139583
0.773031 0.390441 0.143505
0.801716 0.392689 0.147427
0.825858 0.396538 0.148407
0.851961 0.400387 0.152206
0.875123 0.404236 0.156005
0.897920 0.408333 0.159804
0.917524 0.414170 0.163603
0.936546 0.418042 0.167034
0.953431 0.423407 0.170956
0.964829 0.427378 0.174878
0.972549 0.431250 0.174878
0.098530 0.383578 0.110294
0.100192 0.387446 0.111956
0.103921 0.393490 0.114216
0.107720 0.399104 0.115770
0.111519 0.402972 0.117861
0.126471 0.408701 0.118137
0.149020 0.414216 0.119531
0.172182 0.418015 0.118137
0.206801 0.420527 0.116483
0.247671 0.419493 0.115931
0.292892 0.417157 0.115931
0.334926 0.414951 0.118505
0.370251 0.414951 0.121232
0.404986 0.414951 0.123775
0.440686 0.414951 0.126946
0.478485 0.414951 0.130813
0.522672 0.416912 0.133578
0.572618 0.419677 0.138549
0.619853 0.423545 0.142417
0.666177 0.426715 0.144278
0.710386 0.429565 0.146232
0.745121 0.430637 0.148062
0.776915 0.431327 0.151915
0.805997 0.434558 0.155147
0.833579 0.437194 0.159069
0.859682 0.442402 0.161650
0.882429 0.446323 0.165517
0.902083 0.450245 0.167524
0.922549 0.454167 0.171323
0.940196 0.458089 0.174755
0.955499 0.462010 0.178677
0.966490 0.465985 0.182598
0.972549 0.469853 0.182598
0.107966 0.426103 0.123652
0.109983 0.429967 0.125736
0.111887 0.435899 0.127574
0.115809 0.441422 0.129461
0.123162 0.445481 0.129657
0.134191 0.449633 0.131495
0.156740 0.455247 0.131886
0.179902 0.457476 0.131495
0.215809 0.460937 0.129657
0.255392 0.461397 0.127574
0.300613 0.458127 0.126999
0.344363 0.456269 0.128941
0.382966 0.453554 0.130806
0.419731 0.453554 0.134670
0.453240 0.453554 0.137622
0.489955 0.453554 0.140445
0.527573 0.453554 0.144301
0.571814 0.454416 0.148158
0.613304 0.458280 0.152015
0.658456 0.462144 0.155025
0.703309 0.466008 0.157797
0.741912 0.469240 0.159662
0.776018 0.473162 0.162868
0.808334 0.474265 0.165468
0.835295 0.477084 0.167310
0.863883 0.481005 0.170711
0.886252 0.484927 0.174633
0.907433 0.488848 0.175245
0.926731 0.492770 0.179044
0.943800 0.494803 0.182843
0.957108 0.496936 0.186397
0.966609 0.500735 0.190319
0.972549 0.504534 0.190319
0.117647 0.468627 0.137255
0.119608 0.474387 0.141115
0.123407 0.480147 0.141176
0.127267 0.484130 0.142954
0.131127 0.487990 0.143138
0.143872 0.493811 0.145098
0.164461 0.497672 0.145098
0.189583 0.501103 0.145098
0.224510 0.501961 0.142157
0.264522 0.501961 0.138358
0.310294 0.500613 0.137255
0.356617 0.498040 0.140502
0.396568 0.494117 0.142402
0.434007 0.494117 0.145098
0.467647 0.494118 0.148162
0.502451 0.494118 0.152022
0.539215 0.492157 0.155882
0.576900 0.491115 0.158701
0.614461 0.494118 0.162500
0.655821 0.497672 0.165502
0.697059 0.503431 0.169363
0.734191 0.508517 0.172549
0.771569 0.511029 0.176471
0.802451 0.514828 0.177574
0.833824 0.518137 0.180393
0.863358 0.522426 0.182782
0.888481 0.525858 0.184314
0.909375 0.529411 0.188236
0.928677 0.533333 0.190441
0.945833 0.537255 0.194301
0.961029 0.539339 0.198039
0.968688 0.543198 0.200061
0.972549 0.545098 0.201961
0.127328 0.511152 0.152696
0.131185 0.518873 0.156617
0.132974 0.522786 0.156617
0.136837 0.526643 0.158283
0.142524 0.530760 0.160539
0.153554 0.534681 0.160539
0.172181 0.538603 0.160539
0.200701 0.542122 0.159103
0.235631 0.545466 0.155239
0.276076 0.542524 0.151375
0.323246 0.541261 0.150858
0.368137 0.536029 0.150858
0.408088 0.534681 0.153998
0.447538 0.532843 0.155871
0.482284 0.530760 0.158701
0.515077 0.530760 0.161646
0.550858 0.530760 0.165502
0.586524 0.530760 0.168382
0.620466 0.531671 0.172181
0.656116 0.532843 0.175134
0.693628 0.538235 0.179780
0.729676 0.542034 0.183578
0.764423 0.548529 0.186726
0.797155 0.552968 0.190073
0.827972 0.557353 0.192432
0.859559 0.562588 0.195833
0.883065 0.564561 0.197916
0.907433 0.568424 0.200080
0.926731 0.572059 0.202068
0.945661 0.574093 0.203872
0.957108 0.577818 0.205875
0.964829 0.579959 0.209681
0.970711 0.583824 0.211519
0.136764 0.551470 0.168137
0.138970 0.557476 0.171936
0.142892 0.561519 0.172059
0.146607 0.565441 0.174058
0.152237 0.569362 0.174479
0.161887 0.573284 0.174265
0.183824 0.577206 0.174265
0.211765 0.581128 0.170718
0.245159 0.581128 0.166850
0.285777 0.581128 0.162982
0.331617 0.577895 0.160984
0.377941 0.573284 0.161742
0.422886 0.570190 0.163572
0.460417 0.568344 0.166421
0.495849 0.567647 0.169378
0.529412 0.565441 0.171254
0.562255 0.567647 0.175123
0.597304 0.566475 0.178186
0.628186 0.567647 0.180867
0.662990 0.568344 0.184720
0.694700 0.570190 0.188572
0.726961 0.575490 0.193872
0.758532 0.579948 0.195098
0.790931 0.584436 0.198897
0.822794 0.589890 0.202696
0.852213 0.595098 0.206013
0.878921 0.599020 0.209559
0.902083 0.602941 0.209827
0.922825 0.604932 0.213480
0.940196 0.608785 0.213641
0.951471 0.610892 0.217402
0.959191 0.614706 0.219186
0.966912 0.614706 0.221323
0.146691 0.592280 0.183578
0.150490 0.596151 0.183578
0.152107 0.600023 0.187401
0.155978 0.603676 0.187500
0.162086 0.607767 0.187500
0.173166 0.611638 0.187500
0.193137 0.615510 0.187500
0.223284 0.615809 0.182843
0.260049 0.616391 0.178462
0.299184 0.616464 0.174590
0.343758 0.614215 0.171814
0.391176 0.610842 0.173342
0.436504 0.606970 0.174142
0.473652 0.603098 0.177118
0.509352 0.602451 0.178960
0.542169 0.602451 0.181985
0.576103 0.602451 0.184743
0.606618 0.602451 0.186654
0.639829 0.602451 0.189828
0.669117 0.603098 0.193750
0.697672 0.604044 0.197671
0.728006 0.606372 0.201593
0.757843 0.611022 0.203914
0.788278 0.614870 0.208291
0.818413 0.619118 0.210417
0.848388 0.622917 0.214216
0.873231 0.629902 0.217578
0.898284 0.633823 0.221201
0.918627 0.637745 0.222794
0.936179 0.638113 0.225272
0.947672 0.641912 0.226861
0.955319 0.645588 0.230637
0.960784 0.649510 0.232966
0.154412 0.629412 0.197549
0.158333 0.633257 0.199020
0.162010 0.637102 0.201318
0.165947 0.638726 0.202941
0.173530 0.644792 0.201471
0.184559 0.648637 0.201471
0.207843 0.650214 0.199020
0.238726 0.650490 0.195634
0.272549 0.652941 0.190073
0.311152 0.652941 0.186198
0.356372 0.649479 0.183333
0.406112 0.645098 0.183333
0.449939 0.639645 0.185784
0.488220 0.637853 0.186658
0.521568 0.637255 0.189706
0.554902 0.637255 0.192478
0.587745 0.636030 0.193627
0.618137 0.637255 0.197549
0.647549 0.637255 0.200092
0.678431 0.637255 0.203064
0.705392 0.637807 0.205392
0.732353 0.638726 0.209314
0.762010 0.641176 0.213235
0.787623 0.645098 0.214338
0.815686 0.647917 0.218137
0.845711 0.653477 0.221936
0.871323 0.657322 0.225735
0.894103 0.661167 0.228922
0.913235 0.665013 0.232843
0.930009 0.668857 0.233211
0.939951 0.672549 0.236765
0.947672 0.675000 0.239262
0.955392 0.676471 0.240686
0.163480 0.665564 0.210539
0.166054 0.669363 0.214419
0.169975 0.671898 0.214461
0.177451 0.675739 0.214461
0.184850 0.679580 0.214461
0.197338 0.681040 0.213323
0.223284 0.683823 0.209444
0.251103 0.685171 0.205565
0.287010 0.687102 0.201685
0.326593 0.684202 0.195577
0.371814 0.682054 0.193926
0.418137 0.677328 0.193505
0.462010 0.673530 0.195956
0.501658 0.669730 0.197426
0.536420 0.668137 0.200222
0.567892 0.668137 0.201348
0.599387 0.668137 0.203983
0.631024 0.668137 0.207108
0.657475 0.668137 0.209191
0.686152 0.668137 0.210784
0.712607 0.672059 0.213618
0.740073 0.672059 0.217034
0.766613 0.672059 0.220029
0.791923 0.675011 0.222059
0.816697 0.676624 0.225858
0.841789 0.680465 0.229362
0.867042 0.686397 0.232721
0.888113 0.688147 0.236642
0.907184 0.691989 0.239384
0.925858 0.695829 0.240564
0.936152 0.698162 0.244485
0.943872 0.702083 0.244566
0.951593 0.702083 0.248407
0.173775 0.699020 0.225980
0.177574 0.702857 0.225980
0.181373 0.706694 0.228677
0.185287 0.710531 0.228677
0.193965 0.711856 0.226317
0.212378 0.714706 0.224946
0.238726 0.718122 0.221063
0.265686 0.718627 0.217180
0.303431 0.718627 0.210968
0.342034 0.716690 0.205492
0.383716 0.714706 0.205147
0.432774 0.708211 0.204220
0.475981 0.704412 0.205147
0.515326 0.702213 0.207974
0.548529 0.699020 0.209069
0.578761 0.699020 0.209720
0.609681 0.699020 0.212990
0.639951 0.699020 0.215480
0.667601 0.699020 0.216912
0.693873 0.699020 0.219232
0.720374 0.700031 0.222304
0.746446 0.700789 0.224755
0.772304 0.702098 0.227834
0.796691 0.702941 0.229780
0.820527 0.705637 0.232598
0.845121 0.707453 0.236520
0.864951 0.711290 0.240441
0.887500 0.713672 0.243329
0.903278 0.717402 0.244363
0.920826 0.721324 0.248284
0.929826 0.721569 0.248529
0.940073 0.725245 0.252206
0.947794 0.725245 0.254902
0.181495 0.733824 0.237500
0.185294 0.737622 0.240319
0.189162 0.737745 0.240319
0.196813 0.741667 0.240319
0.206465 0.745450 0.237500
0.227819 0.745588 0.234019
0.254902 0.748981 0.232683
0.285049 0.749510 0.226352
0.318873 0.749510 0.221691
0.357475 0.746691 0.217099
0.400000 0.744830 0.213212
0.445098 0.739093 0.212868
0.488557 0.734881 0.215732
0.526918 0.731047 0.216789
0.560049 0.729902 0.217409
0.590931 0.729902 0.220711
0.621262 0.728799 0.222671
0.650272 0.727478 0.224632
0.677321 0.727696 0.225735
0.702248 0.729454 0.228554
0.729243 0.729212 0.228968
0.754167 0.729902 0.232476
0.777329 0.729902 0.234460
0.800490 0.730695 0.236707
0.824632 0.732721 0.240319
0.849016 0.734440 0.244240
0.869769 0.736849 0.248162
0.888603 0.740564 0.248774
0.902941 0.742019 0.252083
0.918015 0.744588 0.256005
0.925911 0.748407 0.256250
0.936274 0.748495 0.259927
0.943995 0.752329 0.263848
0.190196 0.765686 0.252941
0.194087 0.769608 0.252941
0.200735 0.773529 0.252941
0.209436 0.773529 0.252941
0.225490 0.777451 0.249387
0.248162 0.779933 0.248192
0.273713 0.781373 0.241728
0.301471 0.781373 0.237132
0.337500 0.780393 0.230392
0.373897 0.778278 0.226317
0.418137 0.774448 0.224816
0.460876 0.768965 0.224510
0.504412 0.765073 0.225490
0.540686 0.761183 0.227237
0.575490 0.760784 0.228983
0.606373 0.757322 0.229412
0.635294 0.756862 0.232353
0.662378 0.756862 0.232813
0.689461 0.757843 0.236274
0.713817 0.756862 0.236673
0.738725 0.756862 0.240196
0.761887 0.756862 0.240533
0.785049 0.757843 0.242096
0.808211 0.758670 0.245220
0.831373 0.760784 0.248039
0.854320 0.760784 0.251960
0.872242 0.763909 0.252696
0.891421 0.764706 0.256495
0.906372 0.767647 0.259804
0.918015 0.768903 0.263726
0.925735 0.771630 0.263726
0.933456 0.772549 0.267647
0.941176 0.775490 0.267647
0.200858 0.799510 0.264461
0.204657 0.802574 0.264461
0.213182 0.806304 0.264461
0.224510 0.807273 0.263683
0.244623 0.810034 0.260172
0.266544 0.810417 0.256373
0.293053 0.811113 0.252573
0.319853 0.811274 0.247917
0.353677 0.810417 0.241054
0.392279 0.806737 0.237255
0.433579 0.803799 0.236152
0.477034 0.798947 0.236152
0.515932 0.794731 0.236152
0.554025 0.791157 0.236152
0.586635 0.787263 0.238358
0.617436 0.786887 0.240074
0.647917 0.785355 0.240074
0.673897 0.786887 0.243995
0.700123 0.786887 0.243995
0.723284 0.784785 0.245588
0.746446 0.784436 0.247917
0.769608 0.786887 0.249265
0.792770 0.786887 0.251838
0.815690 0.786887 0.253558
0.835938 0.786887 0.255760
0.858146 0.786887 0.259682
0.876141 0.787462 0.261114
0.892279 0.790809 0.263603
0.906372 0.790809 0.267525
0.918015 0.793953 0.267892
0.925735 0.794731 0.271446
0.933456 0.797794 0.271568
0.941176 0.798652 0.275368
0.208578 0.829657 0.275981
0.213213 0.830369 0.275981
0.228431 0.833380 0.275291
0.243574 0.834245 0.272357
0.262837 0.834314 0.271323
0.285907 0.837002 0.267402
0.309069 0.837500 0.260294
0.336152 0.837500 0.256495
0.369118 0.835111 0.248774
0.407721 0.833579 0.245504
0.448514 0.826961 0.243872
0.488848 0.823644 0.243872
0.527451 0.819363 0.243872
0.565617 0.815564 0.243872
0.597794 0.811765 0.246400
0.628676 0.810049 0.247794
0.657598 0.810049 0.247794
0.684681 0.810049 0.251715
0.708165 0.809727 0.251715
0.731740 0.806564 0.255637
0.754167 0.807322 0.255637
0.777329 0.810049 0.259559
0.800490 0.810049 0.259559
0.819730 0.810049 0.263480
0.842341 0.810049 0.264461
0.861972 0.810049 0.267402
