src/assets/LUTs/freeLUTs/Maku.cube
TITLE "Maku" LUT by rossandhisjpegs
#LUMIXPHOTOSTYLE NAT
LUT_3D_SIZE 5
DOMAIN_MIN 0.0 0.0 0.0
DOMAIN_MAX 1.0 1.0 1.0
0.011765 0.011765 0.011765
0.146079 0.030392 0.030392
0.401961 0.064706 0.062745
0.631373 0.094118 0.094118
0.811765 0.113725 0.113725
0.047059 0.168627 0.050000
0.174510 0.176471 0.053921
0.510784 0.162745 0.083334
0.769608 0.184559 0.116667
0.954902 0.229412 0.144118
0.117647 0.468627 0.137255
0.224510 0.501961 0.142157
0.539215 0.492157 0.155882
0.833824 0.518137 0.180393
0.972549 0.545098 0.201961
0.190196 0.765686 0.252941
0.337500 0.780393 0.230392
0.635294 0.756862 0.232353
0.831373 0.760784 0.248039
0.941176 0.775490 0.267647
0.294118 0.952941 0.333333
0.457843 0.949020 0.295098
0.709804 0.933333 0.301961
0.869608 0.929412 0.318628
0.941176 0.933333 0.329412
0.030392 0.027451 0.179412
0.170343 0.035294 0.167647
0.409804 0.064706 0.127451
0.639216 0.094118 0.139215
0.819608 0.117647 0.161765
0.053921 0.183333 0.187990
0.163909 0.200674 0.204963
0.517157 0.177451 0.178922
0.778248 0.197059 0.211336
0.959804 0.245098 0.252941
0.123529 0.495098 0.202451
0.209314 0.527696 0.233333
0.542157 0.509804 0.251471
0.831495 0.535417 0.278922
0.972549 0.562255 0.313235
0.193137 0.785294 0.310784
0.320343 0.796814 0.300245
0.629412 0.768628 0.318137
0.823162 0.768628 0.339277
0.941176 0.780147 0.362745
0.282353 0.952941 0.386274
0.428432 0.952941 0.371324
0.691176 0.940686 0.391176
0.861030 0.933333 0.413725
0.941176 0.937255 0.428432
0.072549 0.054902 0.498040
0.144118 0.058334 0.523039
0.444118 0.076470 0.439215
0.643138 0.098039 0.332353
0.835294 0.121569 0.380392
0.069608 0.206863 0.495588
0.099387 0.228799 0.524877
0.536765 0.210784 0.514216
0.786397 0.232721 0.463726
0.960784 0.266177 0.516177
0.136274 0.531372 0.545098
0.167892 0.563480 0.572549
0.525980 0.541667 0.538725
0.800000 0.541422 0.539706
0.962745 0.564706 0.562745
0.211275 0.804902 0.563726
0.298652 0.818505 0.573529
0.573284 0.790196 0.545588
0.794485 0.776471 0.563235
0.949020 0.787745 0.578921
0.274510 0.952941 0.605882
0.391176 0.952941 0.598529
0.627451 0.945098 0.582353
0.834314 0.934804 0.603921
0.945098 0.941176 0.611765
0.118627 0.074510 0.716666
0.166911 0.078431 0.737010
0.402941 0.088726 0.754412
0.695098 0.113725 0.667402
0.855883 0.129412 0.616667
0.100000 0.229657 0.720588
0.147488 0.256618 0.754351
0.484681 0.233701 0.812377
0.830392 0.265931 0.776287
0.957598 0.269853 0.760784
0.150981 0.563236 0.777941
0.172304 0.595221 0.797059
0.474510 0.578186 0.784313
0.825980 0.559314 0.788603
0.953431 0.572549 0.769118
0.221569 0.820588 0.815686
0.297059 0.835662 0.830392
0.540196 0.815196 0.813358
0.787684 0.794731 0.788235
0.945098 0.795098 0.788235
0.258824 0.956863 0.831373
0.353677 0.956863 0.834314
0.580882 0.950000 0.813726
0.810784 0.941911 0.795098
0.941176 0.945098 0.806863
0.149020 0.090196 0.858824
0.191176 0.090196 0.877451
0.376470 0.096078 0.892157
0.710784 0.126470 0.878431
0.890196 0.156863 0.862745
0.141176 0.264706 0.869608
0.184069 0.295098 0.904167
0.470098 0.273529 0.929412
0.841177 0.305147 0.916666
0.960784 0.323529 0.894118
0.164706 0.584313 0.917647
0.213726 0.613235 0.930392
0.475490 0.598039 0.930392
0.826470 0.582353 0.936765
0.964706 0.594118 0.913725
0.244118 0.839215 0.949020
0.324510 0.850000 0.950735
0.546569 0.830882 0.950000
0.770343 0.814706 0.937255
0.956863 0.803922 0.929412
0.270588 0.960784 0.949020
0.365686 0.960784 0.951961
0.578431 0.958824 0.952941
0.803922 0.952941 0.949020
0.949020 0.952941 0.949020
