src/assets/LUTs/freeLUTs/Maku.cube
TITLE "Maku" LUT by rossandhisjpegs
#LUMIXPHOTOSTYLE NAT
LUT_3D_SIZE 9
DOMAIN_MIN 0.0 0.0 0.0
DOMAIN_MAX 1.0 1.0 1.0
0.011765 0.011765 0.011765
0.069608 0.019608 0.019608
0.146079 0.030392 0.030392
0.268628 0.045588 0.045588
0.401961 0.064706 0.062745
0.527451 0.079902 0.079902
0.631373 0.094118 0.094118
0.723040 0.105882 0.105882
0.811765 0.113725 0.113725
0.027451 0.080882 0.026961
0.077451 0.081373 0.027451
0.171201 0.078309 0.037868
0.301961 0.067463 0.050980
0.442402 0.075980 0.068628
0.573836 0.089890 0.086275
0.685294 0.102819 0.099020
0.788296 0.117218 0.113296
0.884804 0.132843 0.125490
0.047059 0.168627 0.050000
0.081373 0.172549 0.050000
0.174510 0.176471 0.053921
0.350367 0.170956 0.068137
0.510784 0.162745 0.083334
0.651103 0.167770 0.100981
0.769608 0.184559 0.116667
0.870098 0.205392 0.132353
0.954902 0.229412 0.144118
0.079412 0.298529 0.084804
0.099510 0.317647 0.090870
0.192647 0.333823 0.092647
0.347120 0.333823 0.100490
0.534314 0.341667 0.115441
0.706373 0.342586 0.127941
0.818137 0.354044 0.140686
0.909804 0.373039 0.155576
0.972549 0.391177 0.167157
0.117647 0.468627 0.137255
0.131127 0.487990 0.143138
0.224510 0.501961 0.142157
0.396568 0.494117 0.142402
0.539215 0.492157 0.155882
0.697059 0.503431 0.169363
0.833824 0.518137 0.180393
0.928677 0.533333 0.190441
0.972549 0.545098 0.201961
0.154412 0.629412 0.197549
0.173530 0.644792 0.201471
0.272549 0.652941 0.190073
0.449939 0.639645 0.185784
0.587745 0.636030 0.193627
0.705392 0.637807 0.205392
0.815686 0.647917 0.218137
0.913235 0.665013 0.232843
0.955392 0.676471 0.240686
0.190196 0.765686 0.252941
0.225490 0.777451 0.249387
0.337500 0.780393 0.230392
0.504412 0.765073 0.225490
0.635294 0.756862 0.232353
0.738725 0.756862 0.240196
0.831373 0.760784 0.248039
0.906372 0.767647 0.259804
0.941176 0.775490 0.267647
0.240196 0.883824 0.302451
0.301532 0.884253 0.290686
0.403921 0.883456 0.268137
0.554105 0.865686 0.263235
0.675490 0.856128 0.267157
0.773345 0.852451 0.275000
0.853921 0.852451 0.282843
0.910294 0.856373 0.290686
0.941176 0.859804 0.298529
0.294118 0.952941 0.333333
0.359314 0.952941 0.314215
0.457843 0.949020 0.295098
0.596569 0.941176 0.294118
0.709804 0.933333 0.301961
0.799019 0.929412 0.313725
0.869608 0.929412 0.318628
0.913725 0.933333 0.325490
0.941176 0.933333 0.329412
0.019608 0.019608 0.077451
0.081373 0.023468 0.080944
0.149019 0.030392 0.066054
0.271078 0.045588 0.072243
0.405882 0.064706 0.077941
0.531372 0.079902 0.089706
0.635294 0.094118 0.098897
0.726961 0.105882 0.109804
0.815686 0.117647 0.121569
0.027451 0.085295 0.084866
0.073905 0.088672 0.088297
0.168520 0.082231 0.082231
0.305308 0.067463 0.077880
0.446324 0.076195 0.085540
0.580921 0.091016 0.097243
0.692432 0.105499 0.108992
0.796078 0.121079 0.124517
0.892647 0.136703 0.140196
0.050000 0.176471 0.081373
0.077451 0.182965 0.088618
0.176133 0.186765 0.099908
0.357613 0.178202 0.100000
0.514706 0.172304 0.108946
0.657184 0.177221 0.122809
0.773774 0.192861 0.140563
0.874020 0.214093 0.159206
0.958823 0.237255 0.175000
0.080882 0.310294 0.102635
0.096078 0.329519 0.110294
0.186351 0.347151 0.123039
0.348958 0.345098 0.135915
0.544945 0.349173 0.146722
0.706373 0.351769 0.156189
0.818137 0.363863 0.171078
0.909804 0.381349 0.186742
0.972549 0.400306 0.204105
0.119608 0.480147 0.162255
0.132843 0.499724 0.168352
0.216238 0.512990 0.164767
0.396568 0.502604 0.167157
0.540319 0.498040 0.182598
0.699510 0.510294 0.198039
0.835295 0.526470 0.211519
0.926716 0.540748 0.226532
0.972549 0.552941 0.240441
0.158333 0.638726 0.222059
0.173530 0.654029 0.226555
0.267723 0.662071 0.213726
0.446745 0.649311 0.203500
0.589216 0.641176 0.221324
0.705392 0.645098 0.232353
0.815686 0.653876 0.248897
0.911091 0.671262 0.263994
0.955392 0.682843 0.278921
0.190196 0.777451 0.279902
0.225490 0.785294 0.276026
0.330392 0.789093 0.254167
0.495680 0.772916 0.244286
0.635294 0.761704 0.261520
0.736152 0.761749 0.270711
0.830637 0.764614 0.282476
0.903799 0.771247 0.294179
0.941176 0.779044 0.302451
0.243627 0.890748 0.329412
0.298093 0.891667 0.317762
0.393505 0.888496 0.291177
0.546101 0.871752 0.286275
0.675000 0.860019 0.300245
0.769608 0.856373 0.310233
0.850490 0.856373 0.318520
0.910294 0.860241 0.326294
0.941176 0.863725 0.333333
0.290196 0.952941 0.356373
0.351532 0.952941 0.337255
0.443505 0.949020 0.317279
0.582659 0.945098 0.321079
0.705882 0.937010 0.338480
0.795282 0.933333 0.348530
0.868628 0.932965 0.356005
0.914215 0.933333 0.363726
0.941176 0.937255 0.371569
0.030392 0.027451 0.179412
0.073530 0.027451 0.191176
0.170343 0.035294 0.167647
0.271078 0.046691 0.123162
0.409804 0.064706 0.127451
0.535294 0.081740 0.131372
0.639216 0.094118 0.139215
0.730882 0.105882 0.147549
0.819608 0.117647 0.161765
0.033946 0.096569 0.180270
0.050597 0.093030 0.183440
0.176961 0.085295 0.179075
0.305438 0.072993 0.140701
0.450245 0.078125 0.140809
0.585294 0.093766 0.146079
0.699847 0.106740 0.160539
0.800812 0.123820 0.180775
0.897059 0.139338 0.200368
0.053921 0.183333 0.187990
0.070006 0.194087 0.198162
0.163909 0.200674 0.204963
0.358486 0.181893 0.174602
0.517157 0.177451 0.178922
0.661765 0.181372 0.193658
0.778248 0.197059 0.211336
0.877941 0.221078 0.230790
0.959804 0.245098 0.252941
0.084804 0.325980 0.182353
0.100965 0.347074 0.198576
0.178309 0.364216 0.213511
0.351961 0.356602 0.220389
0.556985 0.357353 0.222059
0.702451 0.361734 0.231143
0.815196 0.373223 0.245588
0.906418 0.390824 0.261765
0.972549 0.410171 0.282721
0.123529 0.495098 0.202451
0.133088 0.514890 0.221078
0.209314 0.527696 0.233333
0.393076 0.515931 0.232169
0.542157 0.509804 0.251471
0.699510 0.519853 0.262868
0.831495 0.535417 0.278922
0.922611 0.548591 0.296569
0.972549 0.562255 0.313235
0.158333 0.650122 0.252941
0.171385 0.665595 0.262071
0.258977 0.672549 0.261642
0.433762 0.661504 0.256020
0.587745 0.649571 0.281434
0.702083 0.652558 0.292647
0.811764 0.660141 0.305392
0.911091 0.676455 0.326072
0.956495 0.686765 0.342157
0.193137 0.785294 0.310784
0.225153 0.795067 0.309804
0.320343 0.796814 0.300245
0.477849 0.784130 0.295129
0.629412 0.768628 0.318137
0.731127 0.768536 0.330913
0.823162 0.768628 0.339277
0.902941 0.772916 0.351011
0.941176 0.780147 0.362745
0.243627 0.895589 0.359436
0.294118 0.899387 0.354642
0.385202 0.895589 0.343995
0.526486 0.880928 0.337760
0.665625 0.863909 0.356434
0.762301 0.859804 0.371477
0.842280 0.859804 0.377972
0.910294 0.860616 0.385800
0.941176 0.863725 0.393627
0.282353 0.952941 0.386274
0.341054 0.952941 0.381373
0.428432 0.952941 0.371324
0.562255 0.948407 0.370221
0.691176 0.940686 0.391176
0.787623 0.933333 0.406373
0.861030 0.933333 0.413725
0.914215 0.937255 0.421936
0.941176 0.937255 0.428432
0.049510 0.039216 0.337745
0.076470 0.041667 0.353431
0.150490 0.045588 0.364093
0.301532 0.054902 0.302451
0.401961 0.064706 0.211765
0.532843 0.082353 0.219118
0.643138 0.095098 0.227574
0.734804 0.106372 0.239890
0.823529 0.117647 0.256863
0.042953 0.096569 0.337745
0.053163 0.092647 0.347771
0.138710 0.081863 0.363113
0.323767 0.079465 0.314507
0.446079 0.081863 0.236765
0.585294 0.095098 0.251172
0.704534 0.110294 0.268857
0.808417 0.125429 0.293543
0.904411 0.140686 0.318627
0.061765 0.201838 0.347426
0.065687 0.210738 0.356372
0.096814 0.219485 0.366943
0.357046 0.197810 0.349402
0.512132 0.193137 0.296324
0.661995 0.187117 0.318137
0.781158 0.192034 0.338143
0.878875 0.215809 0.357751
0.959804 0.245098 0.379902
0.092647 0.344118 0.355882
0.098905 0.367157 0.380568
0.136657 0.386274 0.401271
0.320014 0.380331 0.387462
0.542096 0.359804 0.351961
0.686703 0.361274 0.360148
0.803922 0.372963 0.373652
0.896508 0.391667 0.389147
0.968627 0.410784 0.407782
0.130637 0.509069 0.370833
0.143964 0.529074 0.388879
0.204473 0.543872 0.396507
0.362500 0.536060 0.375950
0.536275 0.524019 0.384927
0.695129 0.531373 0.392923
0.816422 0.543076 0.406740
0.907690 0.556863 0.422886
0.968627 0.567892 0.435294
0.162255 0.663787 0.368199
0.182062 0.677275 0.383816
0.253922 0.684314 0.391728
0.401386 0.676815 0.382008
0.574755 0.662010 0.397549
0.689936 0.660784 0.407353
0.801302 0.666697 0.417570
0.901961 0.682843 0.437561
0.960233 0.691606 0.452941
0.196569 0.794975 0.398530
0.232430 0.804856 0.414139
0.312500 0.807016 0.417249
0.444057 0.796308 0.408165
0.606372 0.777696 0.420588
0.719117 0.772549 0.435708
0.808119 0.772549 0.440778
0.891360 0.776149 0.449464
0.945098 0.783333 0.461152
0.246262 0.903432 0.449816
0.290196 0.907169 0.459720
0.371615 0.903294 0.454044
0.490388 0.890556 0.444477
0.637102 0.872886 0.449020
0.748889 0.861635 0.466552
0.828247 0.860294 0.473407
0.901065 0.863725 0.478431
0.941176 0.866360 0.482353
0.278431 0.952941 0.477941
0.328432 0.952941 0.481863
0.411764 0.952941 0.473529
0.525000 0.949020 0.466177
0.661029 0.945098 0.473284
0.770588 0.936703 0.493627
0.847549 0.933333 0.501471
0.914215 0.937255 0.509313
0.945098 0.937255 0.513235
0.072549 0.054902 0.498040
0.095588 0.054902 0.511520
0.144118 0.058334 0.523039
0.261030 0.063971 0.526961
0.444118 0.076470 0.439215
0.535784 0.085049 0.335784
0.643138 0.098039 0.332353
0.740686 0.109804 0.355147
0.835294 0.121569 0.380392
0.060784 0.090441 0.496079
0.082108 0.092402 0.507384
0.137806 0.087684 0.521078
0.266667 0.081863 0.533242
0.479534 0.091544 0.464093
0.591085 0.098376 0.372794
0.709497 0.114215 0.383211
0.819608 0.132598 0.416912
0.916176 0.146324 0.447549
0.069608 0.206863 0.495588
0.073958 0.219363 0.507169
0.099387 0.228799 0.524877
0.272733 0.211458 0.553860
0.536765 0.210784 0.514216
0.668628 0.209314 0.445650
0.786397 0.232721 0.463726
0.886275 0.248284 0.490503
0.960784 0.266177 0.516177
0.102451 0.369608 0.521323
0.108241 0.390349 0.539890
0.126961 0.409926 0.556127
0.244026 0.408640 0.549969
0.548774 0.375245 0.531373
0.682353 0.375000 0.493107
0.800000 0.383823 0.508272
0.896661 0.394914 0.528615
0.968627 0.411520 0.545588
0.136274 0.531372 0.545098
0.143014 0.549632 0.561642
0.167892 0.563480 0.572549
0.328431 0.557230 0.559559
0.525980 0.541667 0.538725
0.683088 0.535907 0.533946
0.800000 0.541422 0.539706
0.891667 0.553064 0.549265
0.962745 0.564706 0.562745
0.170833 0.674020 0.547794
0.184957 0.687929 0.560539
0.244118 0.698591 0.566666
0.381158 0.691207 0.548253
0.548162 0.677451 0.537255
0.680852 0.670588 0.546017
0.794608 0.677757 0.553186
0.889614 0.690778 0.570588
0.958824 0.698530 0.578431
0.211275 0.804902 0.563726
0.236642 0.815932 0.575184
0.298652 0.818505 0.573529
0.427451 0.806618 0.556127
0.573284 0.790196 0.545588
0.707537 0.777390 0.559497
0.794485 0.776471 0.563235
0.877941 0.779412 0.566728
0.949020 0.787745 0.578921
0.247549 0.910784 0.592647
0.285815 0.914705 0.599786
0.356311 0.911275 0.592280
0.471232 0.896875 0.575643
0.604412 0.881495 0.566790
0.732047 0.867157 0.576654
0.814706 0.863725 0.584559
0.885754 0.864216 0.585019
0.943137 0.867647 0.590441
0.274510 0.952941 0.605882
0.316912 0.952941 0.607843
0.391176 0.952941 0.598529
0.501961 0.949020 0.587745
0.627451 0.945098 0.582353
0.748284 0.940441 0.592157
0.834314 0.934804 0.603921
0.900980 0.937255 0.608088
0.945098 0.941176 0.611765
0.099510 0.066667 0.625490
0.121263 0.066667 0.635478
0.152451 0.068137 0.644731
0.238174 0.071507 0.655392
0.431127 0.084314 0.642647
0.578431 0.096507 0.561826
0.660784 0.103431 0.496814
0.746569 0.113725 0.472733
0.839216 0.125490 0.488235
0.091667 0.097059 0.621569
0.111703 0.097059 0.633149
0.146661 0.095450 0.644654
0.237255 0.093628 0.661941
0.457843 0.098284 0.664706
0.625980 0.114330 0.600980
0.729412 0.121400 0.547089
0.828922 0.134459 0.539974
0.926654 0.164399 0.567647
0.078431 0.215809 0.621201
0.088465 0.229412 0.633195
0.122212 0.240012 0.654687
0.246508 0.232062 0.683992
0.506985 0.218627 0.705944
0.698821 0.234804 0.656572
0.803891 0.223499 0.621569
0.894531 0.248162 0.619608
0.952941 0.277451 0.632353
0.108333 0.383333 0.645159
0.116176 0.405032 0.662454
0.130882 0.424342 0.674632
0.224104 0.422526 0.678577
0.509835 0.389767 0.697273
0.714767 0.389300 0.672549
0.814338 0.385555 0.647028
0.901601 0.407353 0.643628
0.956863 0.427941 0.655392
0.145098 0.551716 0.683579
0.150827 0.568321 0.696262
0.167157 0.581679 0.704105
0.299510 0.580668 0.693199
0.487377 0.565441 0.680025
0.702972 0.545558 0.677972
0.799326 0.546078 0.655453
0.887745 0.559161 0.661428
0.955392 0.570588 0.675490
0.174020 0.689706 0.696078
0.185846 0.703615 0.707537
0.236213 0.714384 0.715824
0.359030 0.708969 0.708739
0.520802 0.696814 0.694393
0.675896 0.685233 0.679818
0.788619 0.684314 0.679289
0.878929 0.688235 0.682843
0.952941 0.693689 0.688235
0.209804 0.809927 0.712745
0.228922 0.819608 0.720588
0.281373 0.825153 0.727972
0.395297 0.816743 0.713465
0.546691 0.802696 0.689828
0.692080 0.788006 0.680392
0.788235 0.783333 0.682567
0.873667 0.786857 0.687914
0.951961 0.795098 0.700000
0.247549 0.911275 0.731679
0.278270 0.914705 0.735601
0.337439 0.916712 0.739216
0.444416 0.907046 0.720274
0.579412 0.890196 0.696324
0.709674 0.874686 0.689346
0.807169 0.867647 0.696921
0.875820 0.867647 0.696224
0.941176 0.867647 0.696385
0.269118 0.952941 0.735294
0.305208 0.956863 0.739032
0.368137 0.955025 0.735294
0.475000 0.952941 0.717157
0.604412 0.945098 0.700000
0.726900 0.945098 0.698530
0.821446 0.937255 0.706372
0.891176 0.937255 0.714216
0.941176 0.941176 0.714216
0.118627 0.074510 0.716666
0.141666 0.075490 0.728431
0.166911 0.078431 0.737010
0.234804 0.078431 0.748039
0.402941 0.088726 0.754412
0.587377 0.103431 0.721078
0.695098 0.113725 0.667402
0.774632 0.121569 0.639706
0.855883 0.129412 0.616667
0.113848 0.102328 0.717524
0.133869 0.104902 0.728385
0.160570 0.102420 0.739430
0.238588 0.102328 0.758349
0.431863 0.105392 0.775980
0.635034 0.127267 0.759237
0.760662 0.145864 0.721323
0.852068 0.144393 0.699771
0.937132 0.156373 0.693750
0.100000 0.229657 0.720588
0.119118 0.244087 0.735907
0.147488 0.256618 0.754351
0.246171 0.254320 0.782139
0.484681 0.233701 0.812377
0.704902 0.255852 0.803186
0.830392 0.265931 0.776287
0.911152 0.264001 0.767280
0.957598 0.269853 0.760784
0.116176 0.396079 0.741544
0.123652 0.418505 0.755270
0.134804 0.435968 0.769638
0.243735 0.433303 0.777160
0.489522 0.406985 0.799326
0.723238 0.405163 0.803922
0.839491 0.412776 0.790043
0.918750 0.414583 0.777451
0.961765 0.425000 0.773529
0.150981 0.563236 0.777941
0.154902 0.580024 0.789216
0.172304 0.595221 0.797059
0.288174 0.596569 0.789216
0.474510 0.578186 0.784313
0.695649 0.557169 0.798591
0.825980 0.559314 0.788603
0.902390 0.561458 0.775245
0.953431 0.572549 0.769118
0.186152 0.707843 0.803309
0.201425 0.719240 0.813113
0.254626 0.729810 0.822825
0.365273 0.725199 0.815717
0.514399 0.715625 0.801164
0.658655 0.703232 0.788235
0.805913 0.688848 0.787255
0.879289 0.690824 0.772426
0.945098 0.698530 0.772671
0.221569 0.820588 0.815686
0.243260 0.831281 0.826103
0.297059 0.835662 0.830392
0.403922 0.827267 0.828554
0.540196 0.815196 0.813358
0.676471 0.802267 0.797457
0.787684 0.794731 0.788235
0.871936 0.794087 0.786520
0.945098 0.795098 0.788235
0.243627 0.914705 0.826593
0.270588 0.918627 0.831694
0.328217 0.918627 0.834437
0.429902 0.910968 0.832476
0.555392 0.895772 0.815870
0.688281 0.883640 0.796691
0.800061 0.871660 0.791176
0.871936 0.871568 0.792417
0.944608 0.872917 0.795098
0.258824 0.956863 0.831373
0.289706 0.956863 0.835295
0.353677 0.956863 0.834314
0.452329 0.955025 0.828921
0.580882 0.950000 0.813726
0.709681 0.945711 0.796078
0.810784 0.941911 0.795098
0.887255 0.941176 0.802941
0.941176 0.945098 0.806863
0.133823 0.082353 0.793137
0.156434 0.082782 0.800980
0.179412 0.086275 0.811887
0.240196 0.086275 0.824510
0.386029 0.092402 0.836274
0.575674 0.107353 0.823529
0.713358 0.122549 0.795710
0.801471 0.129902 0.766667
0.882353 0.137255 0.754902
0.129902 0.113235 0.793137
0.152512 0.120474 0.805278
0.175873 0.120527 0.819240
0.242647 0.116399 0.836359
0.420619 0.113235 0.859314
0.624816 0.134842 0.859743
0.779963 0.176471 0.844332
0.875000 0.187255 0.831924
0.944118 0.179840 0.827022
0.121692 0.245588 0.800980
0.140962 0.261045 0.816222
0.167095 0.275214 0.835294
0.255760 0.275904 0.862255
0.473529 0.256189 0.889155
0.700981 0.267524 0.890916
0.841391 0.293260 0.878278
0.913725 0.301470 0.863557
0.960784 0.301470 0.854412
0.124020 0.408823 0.819118
0.131778 0.430285 0.831043
0.155392 0.447779 0.846094
0.265993 0.446860 0.855997
0.484069 0.424694 0.878278
0.715510 0.417356 0.895029
0.850981 0.431986 0.889783
0.924694 0.440357 0.877183
0.964706 0.447549 0.867464
0.154902 0.572794 0.853921
0.160570 0.591667 0.861765
0.191360 0.606924 0.869608
0.299418 0.607843 0.864614
0.474510 0.590196 0.863848
0.679412 0.568781 0.882996
0.833762 0.573223 0.887623
0.920833 0.579136 0.880913
0.964706 0.582843 0.875000
0.199020 0.716176 0.880882
0.216850 0.730905 0.888994
0.266789 0.739216 0.895098
0.369723 0.735294 0.890388
0.504810 0.728033 0.876226
0.650230 0.712875 0.867831
0.803293 0.698713 0.878125
0.901631 0.700000 0.872036
0.955576 0.698713 0.860601
0.236274 0.831373 0.891176
0.259421 0.839537 0.898698
0.316176 0.843137 0.902941
0.418673 0.835662 0.902941
0.548039 0.825184 0.893199
0.675904 0.815549 0.879412
0.778064 0.807261 0.871568
0.883379 0.798805 0.868888
0.945466 0.799019 0.856373
0.255821 0.918689 0.899510
0.286597 0.922549 0.902941
0.346462 0.922549 0.906862
0.445121 0.915050 0.906862
0.566667 0.902941 0.900980
0.688235 0.891176 0.887255
0.792203 0.883333 0.879412
0.875115 0.879412 0.872059
0.945098 0.879412 0.872059
0.267157 0.956863 0.906862
0.297978 0.956863 0.906862
0.358333 0.956863 0.906862
0.454412 0.956863 0.902941
0.571078 0.952941 0.899019
0.694792 0.949020 0.889890
0.799877 0.948162 0.878554
0.886826 0.945098 0.879412
0.945098 0.945588 0.883333
0.149020 0.090196 0.858824
0.168627 0.090196 0.866667
0.191176 0.090196 0.877451
0.244118 0.090196 0.886275
0.376470 0.096078 0.892157
0.564216 0.109804 0.884804
0.710784 0.126470 0.878431
0.816666 0.149020 0.874020
0.890196 0.156863 0.862745
0.145098 0.135294 0.862255
0.168137 0.143137 0.870527
0.191176 0.146569 0.885785
0.250000 0.136274 0.897549
0.414706 0.124264 0.909314
0.619118 0.142463 0.909314
0.783823 0.187745 0.901838
0.874510 0.206434 0.890196
0.940686 0.206863 0.878431
0.141176 0.264706 0.869608
0.160294 0.282843 0.886152
0.184069 0.295098 0.904167
0.263235 0.294485 0.916176
0.470098 0.273529 0.929412
0.695956 0.278922 0.927328
0.841177 0.305147 0.916666
0.909804 0.316667 0.901961
0.960784 0.323529 0.894118
0.141176 0.426471 0.886275
0.156863 0.443627 0.900184
0.184804 0.459314 0.911642
0.282843 0.457782 0.920098
0.480392 0.437745 0.931372
0.704412 0.427941 0.935784
0.847059 0.443627 0.927328
0.921079 0.455392 0.915870
0.964706 0.460784 0.905882
0.164706 0.584313 0.917647
0.178186 0.597794 0.923530
0.213726 0.613235 0.930392
0.312990 0.612500 0.927451
0.475490 0.598039 0.930392
0.666422 0.579657 0.937255
0.826470 0.582353 0.936765
0.918627 0.590196 0.925000
0.964706 0.594118 0.913725
0.206863 0.723529 0.941176
0.224510 0.735294 0.946385
0.274510 0.743137 0.949020
0.372978 0.741667 0.949020
0.500245 0.734559 0.939951
0.645098 0.718137 0.937255
0.788726 0.706372 0.937255
0.903248 0.707659 0.933333
0.964706 0.707843 0.921569
0.244118 0.839215 0.949020
0.268015 0.847059 0.951593
0.324510 0.850000 0.950735
0.422917 0.842157 0.950858
0.546569 0.830882 0.950000
0.666299 0.823162 0.940686
0.770343 0.814706 0.937255
0.879412 0.806495 0.937255
0.956863 0.803922 0.929412
0.262745 0.926470 0.949020
0.293628 0.930331 0.949020
0.353922 0.930392 0.951961
0.449204 0.922549 0.952941
0.567157 0.909068 0.952941
0.690870 0.899019 0.951471
0.792524 0.891544 0.945098
0.871568 0.891176 0.941176
0.949020 0.883824 0.937745
0.270588 0.960784 0.949020
0.305392 0.960784 0.949020
0.365686 0.960784 0.951961
0.460784 0.960784 0.952941
0.578431 0.958824 0.952941
0.700000 0.956863 0.952941
0.803922 0.952941 0.949020
0.887255 0.952941 0.949020
0.949020 0.952941 0.949020
