src/assets/LUTs/freeLUTs/Neagh.cube
TITLE "Neagh by rossandhisjpegs"
#LUMIXPHOTOSTYLE VIVD
LUT_3D_SIZE 5
DOMAIN_MIN 0.0 0.0 0.0
DOMAIN_MAX 1.0 1.0 1.0
0.023529 0.027451 0.019608
0.125490 0.027451 0.023529
0.425490 0.041177 0.035294
0.594118 0.086275 0.048039
0.686275 0.105882 0.058824
0.038235 0.135294 0.026471
0.150981 0.150981 0.038971
0.491176 0.242157 0.067647
0.683088 0.300000 0.089216
0.789216 0.323529 0.104902
0.098040 0.449020 0.100000
0.323039 0.496569 0.177941
0.559804 0.556863 0.248039
0.759804 0.588235 0.292647
0.874510 0.600000 0.315686
0.230392 0.720588 0.321569
0.416422 0.741177 0.363971
0.650490 0.763725 0.420588
0.787255 0.791176 0.452941
0.874510 0.813726 0.476471
0.349020 0.866667 0.474510
0.486274 0.869608 0.466667
0.696079 0.874510 0.494117
0.833334 0.899020 0.541176
0.898039 0.913725 0.564706
0.019608 0.031373 0.088235
0.099020 0.019608 0.088971
0.399020 0.035294 0.061765
0.598039 0.062990 0.065932
0.694118 0.083334 0.077451
0.027451 0.118628 0.110784
0.118934 0.130147 0.114461
0.492524 0.190196 0.106863
0.698407 0.235539 0.135539
0.813480 0.270588 0.190196
0.073039 0.450000 0.240196
0.253676 0.486887 0.272794
0.540931 0.535294 0.344853
0.763725 0.563603 0.373407
0.895588 0.581372 0.386274
0.263971 0.723039 0.451961
0.388787 0.750000 0.476838
0.624632 0.766299 0.504044
0.783946 0.796814 0.541421
0.886275 0.817647 0.556863
0.363725 0.866667 0.581373
0.448039 0.877451 0.566666
0.661764 0.881863 0.563235
0.840196 0.906617 0.616912
0.901961 0.921569 0.645098
0.019608 0.039216 0.249020
0.038235 0.031373 0.239216
0.323529 0.027451 0.193137
0.553922 0.041667 0.150490
0.668627 0.047059 0.152941
0.032843 0.120098 0.296078
0.067647 0.127696 0.307843
0.414706 0.102206 0.299265
0.663235 0.133578 0.272427
0.802941 0.222549 0.306863
0.068628 0.407843 0.438235
0.197549 0.480882 0.474755
0.514216 0.521078 0.510784
0.750735 0.541176 0.500000
0.906862 0.555882 0.493137
0.257353 0.725491 0.600981
0.369485 0.752942 0.627206
0.578431 0.776471 0.639461
0.777206 0.805883 0.668260
0.900000 0.824510 0.671569
0.349020 0.870588 0.713726
0.430882 0.883824 0.715687
0.609804 0.901961 0.700981
0.832353 0.917647 0.728922
0.917647 0.935294 0.768628
0.022549 0.035294 0.413726
0.035294 0.031373 0.402941
0.229902 0.023529 0.337255
0.496079 0.038481 0.308578
0.619608 0.046078 0.285294
0.035294 0.129412 0.464461
0.056863 0.146752 0.476226
0.278186 0.124142 0.482966
0.600919 0.124510 0.447733
0.783333 0.190931 0.419363
0.073039 0.426471 0.564216
0.195221 0.481495 0.593627
0.428431 0.514706 0.632843
0.726961 0.512500 0.633333
0.909803 0.515686 0.593137
0.263971 0.718627 0.705882
0.352941 0.744117 0.735723
0.534804 0.778432 0.766544
0.772242 0.822978 0.797978
0.925490 0.835295 0.793137
0.341176 0.862745 0.816666
0.413725 0.882353 0.833089
0.576470 0.917647 0.850490
0.811029 0.934314 0.850735
0.938235 0.952941 0.884314
0.023529 0.043137 0.509804
0.034314 0.036275 0.499020
0.166667 0.025490 0.437255
0.439215 0.035294 0.407843
0.584314 0.043137 0.380392
0.038235 0.152941 0.555883
0.058579 0.171569 0.567647
0.223529 0.158824 0.586765
0.540196 0.148775 0.586520
0.760784 0.201961 0.537254
0.117647 0.450981 0.639215
0.209314 0.494117 0.670098
0.389216 0.513726 0.716667
0.616177 0.494608 0.788726
0.884314 0.515686 0.752941
0.275490 0.712745 0.767647
0.348284 0.736274 0.801961
0.496569 0.767647 0.843627
0.703921 0.804657 0.883333
0.930392 0.820588 0.891177
0.345098 0.854902 0.839216
0.417647 0.877451 0.862745
0.576470 0.915686 0.901961
0.788235 0.945098 0.926470
0.952941 0.960784 0.949020
