src/assets/LUTs/freeLUTs/Neagh.cube
TITLE "Neagh by rossandhisjpegs"
#LUMIXPHOTOSTYLE VIVD
LUT_3D_SIZE 9
DOMAIN_MIN 0.0 0.0 0.0
DOMAIN_MAX 1.0 1.0 1.0
0.023529 0.027451 0.019608
0.050490 0.027451 0.019608
0.125490 0.027451 0.023529
0.268628 0.031373 0.027451
0.425490 0.041177 0.035294
0.529902 0.070588 0.043137
0.594118 0.086275 0.048039
0.643627 0.094118 0.054902
0.686275 0.105882 0.058824
0.023529 0.066177 0.019608
0.054412 0.062255 0.023529
0.129412 0.068750 0.027451
0.274510 0.077451 0.035294
0.438970 0.106372 0.046814
0.556373 0.125306 0.054596
0.628922 0.147182 0.062255
0.681924 0.171078 0.070098
0.728432 0.190196 0.077941
0.038235 0.135294 0.026471
0.079902 0.134314 0.030392
0.150981 0.150981 0.038971
0.322549 0.199387 0.052451
0.491176 0.242157 0.067647
0.607476 0.276961 0.081373
0.683088 0.300000 0.089216
0.742647 0.312255 0.100000
0.789216 0.323529 0.104902
0.061275 0.278922 0.047059
0.125490 0.289216 0.056863
0.243627 0.322549 0.081373
0.358333 0.366177 0.118137
0.530637 0.416177 0.147549
0.663235 0.435784 0.157353
0.742279 0.441177 0.170588
0.799326 0.447733 0.190380
0.845588 0.455392 0.209804
0.098040 0.449020 0.100000
0.201716 0.470343 0.134559
0.323039 0.496569 0.177941
0.443137 0.527941 0.220588
0.559804 0.556863 0.248039
0.675735 0.577206 0.275245
0.759804 0.588235 0.292647
0.822304 0.590441 0.306127
0.874510 0.600000 0.315686
0.138725 0.601961 0.200490
0.255882 0.613725 0.232659
0.369485 0.632720 0.265564
0.497549 0.655392 0.305882
0.606863 0.669853 0.340931
0.691238 0.689154 0.362745
0.763725 0.702451 0.384314
0.832047 0.718137 0.404718
0.876961 0.729902 0.414706
0.230392 0.720588 0.321569
0.322059 0.729411 0.344730
0.416422 0.741177 0.363971
0.536152 0.751471 0.386152
0.650490 0.763725 0.420588
0.729779 0.776961 0.442647
0.787255 0.791176 0.452941
0.840686 0.799509 0.464706
0.874510 0.813726 0.476471
0.315196 0.816666 0.428431
0.387316 0.824938 0.436274
0.475000 0.832721 0.443995
0.574694 0.832353 0.450000
0.682598 0.840196 0.473039
0.760294 0.848039 0.492463
0.814093 0.856863 0.506372
0.856311 0.864154 0.518137
0.882843 0.867647 0.522549
0.349020 0.866667 0.474510
0.406863 0.866667 0.470588
0.486274 0.869608 0.466667
0.583823 0.862745 0.469118
0.696079 0.874510 0.494117
0.783333 0.890196 0.523039
0.833334 0.899020 0.541176
0.875000 0.909804 0.556863
0.898039 0.913725 0.564706
0.016176 0.027451 0.050490
0.038726 0.024019 0.054412
0.120588 0.027451 0.043627
0.258027 0.027757 0.039216
0.415932 0.039216 0.046569
0.529902 0.060601 0.050980
0.594118 0.075490 0.055760
0.647549 0.086275 0.062255
0.690196 0.094608 0.066177
0.019608 0.058334 0.054412
0.035233 0.058763 0.053493
0.129733 0.061826 0.046569
0.274816 0.071952 0.046837
0.439215 0.095098 0.056158
0.563787 0.114032 0.062745
0.637515 0.136274 0.070220
0.690571 0.159367 0.077941
0.740196 0.182353 0.085785
0.031741 0.130760 0.057843
0.053431 0.138128 0.050490
0.144945 0.144118 0.065196
0.325046 0.185049 0.071569
0.492157 0.222549 0.081066
0.615947 0.253202 0.092249
0.693076 0.270098 0.103462
0.750613 0.284927 0.115196
0.801838 0.296201 0.131495
0.057353 0.286765 0.066177
0.088235 0.296752 0.072549
0.228171 0.308104 0.110171
0.349938 0.343941 0.150191
0.531863 0.390686 0.166667
0.666238 0.408823 0.180874
0.745588 0.417524 0.203921
0.803409 0.431886 0.228814
0.853431 0.441483 0.244301
0.082598 0.460784 0.136765
0.146017 0.472304 0.170833
0.290503 0.485846 0.209314
0.431035 0.514461 0.256035
0.552206 0.543382 0.287623
0.673621 0.562837 0.308640
0.761091 0.573039 0.325919
0.831894 0.578676 0.338511
0.886030 0.588726 0.346569
0.115686 0.607169 0.255882
0.228048 0.622656 0.284313
0.347320 0.634360 0.313863
0.476655 0.650069 0.344968
0.600245 0.665932 0.384498
0.684505 0.684314 0.405208
0.763725 0.696691 0.424326
0.832805 0.714400 0.439484
0.882169 0.725981 0.447365
0.233946 0.721569 0.379289
0.308272 0.737255 0.398529
0.401011 0.746078 0.414798
0.517770 0.752942 0.428523
0.641544 0.766115 0.462255
0.722549 0.779780 0.481909
0.785049 0.795313 0.495129
0.841177 0.802941 0.503753
0.881373 0.813726 0.514215
0.321630 0.820588 0.479350
0.375552 0.828860 0.485900
0.455515 0.839338 0.489721
0.555775 0.837852 0.486727
0.671078 0.844117 0.504350
0.758111 0.851961 0.529412
0.814201 0.859804 0.542049
0.856258 0.867647 0.553431
0.886275 0.871140 0.557353
0.352451 0.866667 0.524510
0.391667 0.870098 0.516728
0.466789 0.870588 0.509314
0.568444 0.871875 0.508824
0.682598 0.878186 0.523039
0.779412 0.893812 0.553922
0.837255 0.902819 0.573039
0.875000 0.913296 0.588235
0.898039 0.913725 0.599020
0.019608 0.031373 0.088235
0.027083 0.027451 0.091790
0.099020 0.019608 0.088971
0.225981 0.024142 0.068627
0.399020 0.035294 0.061765
0.526593 0.049142 0.061765
0.598039 0.062990 0.065932
0.648039 0.074510 0.073529
0.694118 0.083334 0.077451
0.022549 0.062255 0.095588
0.030883 0.058334 0.095695
0.105882 0.050214 0.098223
0.255744 0.054580 0.073453
0.431863 0.072549 0.073039
0.558808 0.095941 0.076961
0.641054 0.118137 0.081127
0.697978 0.136933 0.092663
0.748039 0.156373 0.100490
0.027451 0.118628 0.110784
0.041759 0.123284 0.110784
0.118934 0.130147 0.114461
0.311765 0.157139 0.103615
0.492524 0.190196 0.106863
0.618137 0.215594 0.117463
0.698407 0.235539 0.135539
0.761673 0.253922 0.164951
0.813480 0.270588 0.190196
0.046569 0.270588 0.157843
0.067218 0.287561 0.164461
0.176716 0.300981 0.166146
0.335646 0.326884 0.207093
0.528370 0.366667 0.214767
0.664446 0.385784 0.232613
0.744761 0.397335 0.255882
0.809498 0.412378 0.274158
0.861275 0.425000 0.288113
0.073039 0.450000 0.240196
0.124816 0.468873 0.251716
0.253676 0.486887 0.272794
0.410723 0.505454 0.308517
0.540931 0.535294 0.344853
0.668627 0.554473 0.361029
0.763725 0.563603 0.373407
0.834559 0.569976 0.381924
0.895588 0.581372 0.386274
0.157721 0.602328 0.344975
0.228432 0.625138 0.364093
0.325980 0.638726 0.382353
0.456495 0.645098 0.404305
0.590748 0.662561 0.440257
0.678232 0.679473 0.459835
0.763725 0.694975 0.475766
0.836412 0.711765 0.483379
0.888113 0.722059 0.487623
0.263971 0.723039 0.451961
0.319363 0.738756 0.467433
0.388787 0.750000 0.476838
0.503309 0.757843 0.485448
0.624632 0.766299 0.504044
0.718627 0.781495 0.530055
0.783946 0.796814 0.541421
0.843750 0.806863 0.549387
0.886275 0.817647 0.556863
0.333823 0.820588 0.543137
0.376793 0.831924 0.544118
0.434467 0.844393 0.542984
0.538097 0.851103 0.538848
0.650245 0.849326 0.545711
0.753876 0.855882 0.573085
0.814216 0.864369 0.586765
0.859804 0.874203 0.599020
0.886765 0.875490 0.602941
0.363725 0.866667 0.581373
0.395465 0.874142 0.577451
0.448039 0.877451 0.566666
0.548039 0.882353 0.557843
0.661764 0.881863 0.563235
0.769731 0.894118 0.592034
0.840196 0.906617 0.616912
0.878921 0.916789 0.633701
0.901961 0.921569 0.645098
0.019608 0.035294 0.154902
0.024816 0.031373 0.153922
0.058333 0.023529 0.150000
0.198958 0.023529 0.127941
0.351225 0.030147 0.104902
0.497549 0.037684 0.095098
0.588113 0.043137 0.092647
0.647733 0.052451 0.096569
0.694118 0.064216 0.096569
0.023039 0.062255 0.171569
0.030454 0.062255 0.169424
0.067524 0.051470 0.166084
0.219608 0.042647 0.148958
0.402941 0.053094 0.119363
0.540625 0.061948 0.111818
0.627190 0.077267 0.112929
0.689890 0.102451 0.122020
0.740379 0.125490 0.136764
0.029289 0.126471 0.193505
0.039093 0.127574 0.198162
0.089767 0.129136 0.202635
0.270450 0.112132 0.208563
0.469057 0.139706 0.182230
0.602620 0.170665 0.186213
0.686642 0.192647 0.204902
0.754902 0.216008 0.227451
0.814828 0.238725 0.243505
0.043137 0.236703 0.252451
0.060784 0.258272 0.270765
0.132521 0.282782 0.285754
0.306779 0.307698 0.297672
0.517096 0.338235 0.292402
0.644202 0.354557 0.306028
0.735815 0.370098 0.323637
0.805882 0.388434 0.339392
0.870650 0.401409 0.344669
0.068628 0.428186 0.350490
0.098591 0.459804 0.369914
0.225000 0.487255 0.384559
0.378155 0.503922 0.393535
0.524878 0.521323 0.423039
0.663971 0.541146 0.426011
0.761887 0.550245 0.433395
0.836428 0.561765 0.440196
0.900000 0.569363 0.437745
0.156373 0.596140 0.442218
0.232162 0.625000 0.458525
0.327390 0.643428 0.477221
0.439070 0.652941 0.489989
0.568873 0.658364 0.503922
0.668627 0.679473 0.529757
0.762852 0.694286 0.537944
0.846684 0.710363 0.538350
0.894118 0.722059 0.538726
0.268995 0.723407 0.532230
0.320098 0.740686 0.546707
0.389706 0.752942 0.556863
0.483824 0.763603 0.558931
0.597488 0.767892 0.561274
0.711504 0.781633 0.588358
0.779933 0.799019 0.602114
0.847779 0.807353 0.607092
0.889828 0.821569 0.612868
0.329902 0.820588 0.605882
0.376325 0.831924 0.613702
0.436535 0.843719 0.617157
0.513725 0.852382 0.608510
0.621569 0.855882 0.601471
0.738235 0.859689 0.623238
0.812377 0.871568 0.642770
0.866360 0.879450 0.660784
0.894608 0.883333 0.660784
0.354412 0.869118 0.648039
0.392953 0.874510 0.648039
0.446201 0.880269 0.644118
0.525000 0.890196 0.630882
0.632843 0.891422 0.620588
0.753983 0.898039 0.638297
0.837255 0.912622 0.668627
0.884620 0.921569 0.691177
0.909804 0.927941 0.702941
0.019608 0.039216 0.249020
0.023529 0.039216 0.247059
0.038235 0.031373 0.239216
0.157843 0.019608 0.213726
0.323529 0.027451 0.193137
0.454902 0.035294 0.163971
0.553922 0.041667 0.150490
0.620343 0.043627 0.151226
0.668627 0.047059 0.152941
0.023529 0.062255 0.266667
0.028952 0.061765 0.266422
0.052206 0.054412 0.262990
0.167157 0.042647 0.241176
0.354044 0.046569 0.221814
0.502941 0.055055 0.194608
0.597855 0.064461 0.187807
0.664277 0.073591 0.202941
0.722549 0.094118 0.220098
0.032843 0.120098 0.296078
0.040441 0.125429 0.303492
0.067647 0.127696 0.307843
0.195833 0.114461 0.310784
0.414706 0.102206 0.299265
0.571017 0.111519 0.273958
0.663235 0.133578 0.272427
0.736826 0.188480 0.291115
0.802941 0.222549 0.306863
0.045588 0.237255 0.344608
0.060876 0.261274 0.363971
0.104779 0.287622 0.376961
0.264430 0.311275 0.397549
0.473897 0.301348 0.398529
0.622825 0.321078 0.376471
0.721385 0.343138 0.387806
0.799020 0.362255 0.395742
0.871569 0.373529 0.391667
0.068628 0.407843 0.438235
0.093750 0.447304 0.458701
0.197549 0.480882 0.474755
0.336397 0.502819 0.491421
0.514216 0.521078 0.510784
0.653799 0.530392 0.496691
0.750735 0.541176 0.500000
0.838235 0.550123 0.501961
0.906862 0.555882 0.493137
0.107598 0.598039 0.525245
0.204228 0.625184 0.541023
0.295894 0.641421 0.555208
0.413756 0.653401 0.569608
0.548162 0.664706 0.580392
0.661244 0.677941 0.599295
0.768076 0.695159 0.596568
0.853584 0.707843 0.592647
0.907108 0.718382 0.592647
0.257353 0.725491 0.600981
0.303615 0.740931 0.614461
0.369485 0.752942 0.627206
0.461765 0.765502 0.634069
0.578431 0.776471 0.639461
0.694792 0.784804 0.647182
0.777206 0.805883 0.668260
0.852451 0.814890 0.670833
0.900000 0.824510 0.671569
0.322304 0.818873 0.675245
0.360570 0.831924 0.681342
0.415686 0.843689 0.685478
0.496079 0.853431 0.684896
0.600000 0.862868 0.679657
0.713082 0.859804 0.675888
0.810845 0.872549 0.703493
0.864185 0.883364 0.722334
0.904167 0.887255 0.724510
0.349020 0.870588 0.713726
0.381863 0.877941 0.717402
0.430882 0.883824 0.715687
0.508578 0.894118 0.711765
0.609804 0.901961 0.700981
0.725490 0.905882 0.697549
0.832353 0.917647 0.728922
0.886765 0.929412 0.755147
0.917647 0.935294 0.768628
0.019608 0.035294 0.344117
0.023529 0.035294 0.341667
0.034314 0.027819 0.328799
0.096569 0.019608 0.295159
0.282108 0.027451 0.281372
0.427390 0.034375 0.260846
0.523039 0.039216 0.234804
0.588051 0.043137 0.222549
0.641667 0.047059 0.216176
0.023529 0.060111 0.360784
0.027451 0.058334 0.357192
0.046078 0.055392 0.352941
0.121569 0.044922 0.325850
0.297243 0.042647 0.315257
0.458823 0.051294 0.291468
0.562485 0.059268 0.277574
0.635562 0.069937 0.272242
0.702941 0.081373 0.275981
0.034314 0.123652 0.394608
0.039216 0.129412 0.398529
0.058701 0.135815 0.406005
0.163603 0.133701 0.404780
0.335110 0.103983 0.412255
0.518704 0.104412 0.380744
0.634804 0.125245 0.362010
0.721124 0.152818 0.360784
0.796079 0.185294 0.360784
0.047059 0.243627 0.435294
0.060784 0.265748 0.449870
0.093551 0.294225 0.463986
0.231373 0.315196 0.481434
0.385815 0.304167 0.506158
0.584635 0.300636 0.483065
0.705009 0.322579 0.456740
0.791491 0.340311 0.449992
0.867647 0.355882 0.442586
0.069363 0.415687 0.509559
0.093382 0.452451 0.529504
0.188725 0.479412 0.541666
0.312714 0.497304 0.555147
0.463480 0.517647 0.580637
0.634589 0.514951 0.576409
0.743137 0.523100 0.556924
0.837837 0.530790 0.553370
0.913725 0.530637 0.539461
0.157904 0.591667 0.588726
0.215081 0.621997 0.604105
0.286688 0.635815 0.618336
0.392195 0.649939 0.633104
0.518689 0.666667 0.650245
0.656173 0.687661 0.669753
0.771109 0.696216 0.652742
0.860180 0.704909 0.653746
0.917647 0.712684 0.654412
0.252941 0.725491 0.661887
0.292525 0.740916 0.676210
0.349296 0.751134 0.690441
0.439445 0.765318 0.700000
0.550490 0.782047 0.710968
0.675061 0.797319 0.717785
0.773897 0.812500 0.734314
0.864093 0.822595 0.733211
0.910907 0.831495 0.738235
0.310294 0.816666 0.731863
0.345527 0.830737 0.740954
0.396660 0.843796 0.752819
0.476961 0.854595 0.756372
0.577298 0.865778 0.757751
0.694983 0.872120 0.752451
0.802941 0.877757 0.765196
0.871997 0.894669 0.788235
0.911581 0.895098 0.791973
0.339706 0.870588 0.775490
0.372059 0.878431 0.779412
0.415564 0.887378 0.786275
0.492157 0.900490 0.787255
0.590686 0.910539 0.784804
0.711765 0.919118 0.779412
0.818137 0.922549 0.788235
0.892463 0.937255 0.819117
0.929412 0.945098 0.834314
0.022549 0.035294 0.413726
0.026471 0.035294 0.409804
0.035294 0.031373 0.402941
0.069118 0.023529 0.368137
0.229902 0.023529 0.337255
0.389216 0.031373 0.328799
0.496079 0.038481 0.308578
0.564706 0.043137 0.296936
0.619608 0.046078 0.285294
0.027451 0.062255 0.430270
0.031327 0.062255 0.429151
0.042157 0.058334 0.421324
0.101210 0.048575 0.402497
0.239583 0.046140 0.382230
0.415426 0.050490 0.370726
0.530392 0.058334 0.352880
0.614384 0.069608 0.342907
0.684314 0.077941 0.342157
0.035294 0.129412 0.464461
0.041789 0.137898 0.470588
0.056863 0.146752 0.476226
0.139093 0.148407 0.476777
0.278186 0.124142 0.482966
0.470742 0.106250 0.473805
0.600919 0.124510 0.447733
0.703309 0.156618 0.430025
0.783333 0.190931 0.419363
0.049510 0.256373 0.500981
0.061275 0.279412 0.516437
0.090687 0.307935 0.528278
0.210003 0.321569 0.545879
0.339338 0.321017 0.565686
0.527037 0.304488 0.581373
0.677696 0.313726 0.545466
0.779887 0.340196 0.518444
0.863726 0.349510 0.497671
0.073039 0.426471 0.564216
0.109436 0.456372 0.580086
0.195221 0.481495 0.593627
0.296079 0.498346 0.608885
0.428431 0.514706 0.632843
0.563235 0.508333 0.659252
0.726961 0.512500 0.633333
0.832843 0.519607 0.608150
0.909803 0.515686 0.593137
0.179780 0.595220 0.631985
0.226118 0.617571 0.647151
0.288358 0.631893 0.663573
0.378309 0.644041 0.678493
0.490196 0.660110 0.698162
0.615319 0.682782 0.727574
0.765441 0.690962 0.717647
0.863373 0.696936 0.705882
0.921569 0.704412 0.709804
0.263971 0.718627 0.705882
0.300368 0.735907 0.722335
0.352941 0.744117 0.735723
0.432200 0.760417 0.749632
0.534804 0.778432 0.766544
0.652665 0.803677 0.784313
0.772242 0.822978 0.797978
0.873284 0.830392 0.788511
0.925490 0.835295 0.793137
0.314215 0.809191 0.770588
0.349020 0.823162 0.786275
0.395251 0.836428 0.797947
0.466667 0.852190 0.810662
0.560784 0.869608 0.817892
0.672595 0.879733 0.822672
0.790656 0.890809 0.826225
0.872043 0.899448 0.845481
0.925490 0.903799 0.845220
0.341176 0.862745 0.816666
0.372059 0.873162 0.824510
0.413725 0.882353 0.833089
0.485171 0.900490 0.844118
0.576470 0.917647 0.850490
0.695711 0.929412 0.849020
0.811029 0.934314 0.850735
0.891176 0.941666 0.868137
0.938235 0.952941 0.884314
0.023529 0.039216 0.467157
0.023529 0.039216 0.463297
0.034436 0.035294 0.452941
0.055883 0.027451 0.425674
0.191667 0.023529 0.386765
0.351961 0.031373 0.383517
0.462623 0.036152 0.357353
0.541666 0.039216 0.345588
0.600000 0.043137 0.337745
0.027451 0.062745 0.482843
0.031373 0.062745 0.482414
0.041835 0.062255 0.475858
0.085455 0.055431 0.460723
0.205362 0.050000 0.442647
0.374693 0.050490 0.431151
0.496937 0.058334 0.407353
0.592103 0.069615 0.403861
0.673039 0.077941 0.396017
0.035294 0.137745 0.513725
0.042157 0.147825 0.519899
0.056894 0.158946 0.525368
0.123407 0.163327 0.530224
0.248101 0.142831 0.540257
0.421798 0.126838 0.543720
0.577359 0.126501 0.519945
0.683563 0.161274 0.495420
0.773530 0.198039 0.476470
0.050980 0.271385 0.550490
0.064890 0.294769 0.563274
0.094593 0.321385 0.575399
0.203133 0.335470 0.590931
0.322702 0.336213 0.613388
0.465196 0.311826 0.638657
0.648484 0.320665 0.633701
0.763235 0.338051 0.589852
0.855882 0.353431 0.554902
0.085049 0.439215 0.604657
0.136765 0.466207 0.621599
0.203615 0.489216 0.633579
0.288971 0.501317 0.651961
0.407353 0.514706 0.675123
0.516422 0.508333 0.702053
0.683394 0.510355 0.728186
0.820833 0.517647 0.687255
0.903431 0.519607 0.667893
0.195098 0.598039 0.669792
0.237278 0.617341 0.685294
0.289966 0.629412 0.701072
0.365510 0.639997 0.718267
0.469516 0.658823 0.742647
0.580591 0.674135 0.770029
0.699525 0.677711 0.800842
0.858969 0.689438 0.774556
0.925490 0.693628 0.771262
0.268750 0.717524 0.739706
0.304182 0.729396 0.755882
0.352818 0.740196 0.772089
0.421400 0.755714 0.790196
0.519118 0.774326 0.808824
0.629595 0.797411 0.829902
0.738725 0.816177 0.846599
0.875552 0.831373 0.840165
0.933333 0.832353 0.845588
0.322059 0.804902 0.804902
0.352941 0.817095 0.816988
0.398529 0.832721 0.835294
0.467976 0.848346 0.848039
0.556894 0.866146 0.859804
0.663419 0.880882 0.867647
0.773039 0.895849 0.875598
0.872059 0.906434 0.886880
0.933762 0.910355 0.886765
0.345098 0.858824 0.831373
0.375981 0.866667 0.842708
0.417647 0.877451 0.851348
0.485784 0.896569 0.873039
0.576470 0.915686 0.888726
0.686765 0.933333 0.894608
0.797059 0.941299 0.898529
0.894608 0.949020 0.906372
0.945098 0.956863 0.918137
0.023529 0.043137 0.509804
0.026961 0.039216 0.509804
0.034314 0.036275 0.499020
0.059804 0.027451 0.473529
0.166667 0.025490 0.437255
0.315686 0.027451 0.425980
0.439215 0.035294 0.407843
0.515196 0.039216 0.388235
0.584314 0.043137 0.380392
0.027451 0.066177 0.525000
0.031373 0.066177 0.521998
0.042157 0.066177 0.518137
0.073529 0.061948 0.510784
0.181863 0.053922 0.495098
0.332353 0.054105 0.487255
0.473529 0.059191 0.468137
0.568627 0.069669 0.453431
0.661274 0.081373 0.449510
0.038235 0.152941 0.555883
0.043014 0.160784 0.559804
0.058579 0.171569 0.567647
0.116667 0.178799 0.572427
0.223529 0.158824 0.586765
0.374387 0.149633 0.599633
0.540196 0.148775 0.586520
0.664216 0.166667 0.561642
0.760784 0.201961 0.537254
0.053431 0.285294 0.590686
0.065196 0.309804 0.602145
0.115319 0.331740 0.613235
0.203860 0.347120 0.630882
0.302206 0.342892 0.657843
0.420650 0.315196 0.684804
0.588603 0.321936 0.697549
0.741483 0.344118 0.681189
0.840196 0.353431 0.633333
0.117647 0.450981 0.639215
0.152451 0.476225 0.654412
0.209314 0.494117 0.670098
0.287745 0.505883 0.687500
0.389216 0.513726 0.716667
0.480147 0.501716 0.748529
0.616177 0.494608 0.788726
0.786274 0.519607 0.795343
0.884314 0.515686 0.752941
0.204412 0.599510 0.699510
0.243137 0.613725 0.714032
0.291176 0.627328 0.735294
0.360784 0.637255 0.754963
0.448039 0.654902 0.781373
0.548529 0.668627 0.816176
0.640319 0.659804 0.841299
0.801654 0.678247 0.873836
0.913725 0.685784 0.846078
0.275490 0.712745 0.767647
0.304412 0.722426 0.783211
0.348284 0.736274 0.801961
0.413235 0.751471 0.824020
0.496569 0.767647 0.843627
0.600000 0.792524 0.868015
0.703921 0.804657 0.883333
0.810784 0.815686 0.902941
0.930392 0.820588 0.891177
0.322059 0.801471 0.816666
0.353431 0.817095 0.831373
0.398529 0.832721 0.846691
0.462929 0.848346 0.865686
0.545833 0.863970 0.886520
0.644118 0.876961 0.898529
0.750000 0.887255 0.906372
0.849449 0.903432 0.918566
0.941176 0.911275 0.918627
0.345098 0.854902 0.839216
0.375981 0.866177 0.850980
0.417647 0.877451 0.862745
0.485784 0.896569 0.882353
0.576470 0.915686 0.901961
0.682843 0.933333 0.917647
0.788235 0.945098 0.926470
0.883824 0.953431 0.937255
0.952941 0.960784 0.949020
