src/assets/LUTs/freeLUTs/Neagh.cube
TITLE "Neagh by rossandhisjpegs"
#LUMIXPHOTOSTYLE VIVD
LUT_3D_SIZE 33
DOMAIN_MIN 0.0 0.0 0.0
DOMAIN_MAX 1.0 1.0 1.0
0.023529 0.027451 0.019608
0.027328 0.027451 0.019608
0.031128 0.027451 0.019608
0.038848 0.027451 0.019608
0.050490 0.027451 0.019608
0.062132 0.027451 0.019608
0.076960 0.027451 0.022794
0.095466 0.027451 0.023529
0.125490 0.027451 0.023529
0.156372 0.030270 0.026348
0.189951 0.027451 0.027451
0.228554 0.031373 0.027451
0.268628 0.031373 0.027451
0.309681 0.033701 0.031373
0.348284 0.035294 0.031373
0.386887 0.039216 0.035294
0.425490 0.041177 0.035294
0.458333 0.048897 0.039216
0.485294 0.056618 0.040931
0.509068 0.064338 0.043137
0.529902 0.070588 0.043137
0.547794 0.074510 0.047059
0.565931 0.078431 0.047059
0.578677 0.082353 0.047059
0.594118 0.086275 0.048039
0.605638 0.087133 0.050980
0.620343 0.090196 0.050980
0.631986 0.094118 0.050980
0.643627 0.094118 0.054902
0.651715 0.098407 0.054902
0.663235 0.101961 0.054902
0.674755 0.105882 0.058824
0.686275 0.105882 0.058824
0.019608 0.038971 0.019608
0.023529 0.038971 0.019608
0.027451 0.035171 0.019608
0.042291 0.035171 0.019608
0.050490 0.035171 0.019608
0.061539 0.035171 0.019608
0.076960 0.035171 0.023529
0.095466 0.038140 0.023529
0.125490 0.038021 0.023529
0.156372 0.039059 0.027417
0.189951 0.039093 0.027451
0.228554 0.039093 0.027451
0.268628 0.039093 0.031250
0.309754 0.039166 0.031373
0.352206 0.043014 0.035240
0.390744 0.045098 0.035294
0.429351 0.048897 0.039216
0.462197 0.056618 0.039216
0.491353 0.064338 0.043068
0.514461 0.070515 0.044681
0.536152 0.075858 0.047059
0.555515 0.078351 0.047059
0.570956 0.082269 0.047059
0.586397 0.086187 0.048127
0.598989 0.090073 0.050980
0.613358 0.091027 0.050980
0.624977 0.094018 0.050980
0.639706 0.094712 0.054799
0.648024 0.098514 0.054902
0.659437 0.105759 0.054902
0.670956 0.109681 0.058709
0.682476 0.109804 0.058824
0.693995 0.113602 0.058824
0.019608 0.046814 0.019608
0.023529 0.046814 0.019608
0.031128 0.043137 0.019608
0.042769 0.042892 0.019608
0.050490 0.046569 0.019608
0.061520 0.046569 0.023529
0.076960 0.046814 0.023529
0.098338 0.046814 0.023529
0.128431 0.046814 0.027390
0.156372 0.046814 0.027451
0.189951 0.046814 0.029979
0.228554 0.046814 0.031289
0.268628 0.046814 0.031373
0.308188 0.048996 0.033701
0.352206 0.050735 0.035294
0.394486 0.056495 0.039101
0.431372 0.064216 0.039216
0.466177 0.071936 0.043007
0.495205 0.075735 0.044746
0.518505 0.079779 0.047059
0.540043 0.085877 0.047059
0.560823 0.087378 0.048323
0.578677 0.091100 0.050980
0.594118 0.093873 0.050980
0.609559 0.097794 0.050980
0.621079 0.101524 0.054657
0.635784 0.105438 0.054902
0.647427 0.109352 0.055477
0.659529 0.113725 0.058824
0.671055 0.117524 0.059169
0.682583 0.124770 0.062515
0.697679 0.128677 0.062745
0.709314 0.132598 0.066422
0.023529 0.054534 0.019608
0.026972 0.054534 0.019608
0.031128 0.054534 0.019608
0.045991 0.050946 0.022828
0.050934 0.054534 0.023161
0.062075 0.054534 0.023529
0.076960 0.054534 0.023529
0.099387 0.054534 0.027083
0.129412 0.054534 0.027451
0.157372 0.058353 0.030270
0.189951 0.058456 0.031373
0.228554 0.058456 0.031373
0.271078 0.062010 0.035156
0.311792 0.062010 0.037404
0.354412 0.067931 0.039216
0.394731 0.075490 0.041104
0.435110 0.083395 0.042953
0.470098 0.090931 0.046864
0.499058 0.094937 0.047059
0.522427 0.098748 0.048503
0.545220 0.102558 0.050750
0.564702 0.105147 0.052202
0.582475 0.110179 0.054649
0.598916 0.113725 0.054902
0.617003 0.120466 0.058456
0.632353 0.125165 0.058537
0.647794 0.129044 0.062377
0.659624 0.136397 0.062377
0.671201 0.140196 0.063189
0.682721 0.147584 0.066299
0.694218 0.151716 0.066544
0.705637 0.155871 0.070220
0.717279 0.163235 0.070220
0.023529 0.066177 0.019608
0.027436 0.066177 0.019608
0.034589 0.065687 0.019608
0.046324 0.062255 0.023161
0.054412 0.062255 0.023529
0.065564 0.065150 0.023529
0.080791 0.066177 0.023529
0.103309 0.065687 0.027344
0.129412 0.068750 0.027451
0.159942 0.069608 0.030270
0.193873 0.069608 0.033732
0.232476 0.075781 0.035126
0.274510 0.077451 0.035294
0.313404 0.083211 0.039216
0.354412 0.090931 0.041146
0.396553 0.098652 0.044960
0.438970 0.106372 0.046814
0.476961 0.113863 0.048667
0.506127 0.117892 0.050704
0.533211 0.121492 0.054412
0.556373 0.125306 0.054596
0.575934 0.129289 0.056082
0.595343 0.135447 0.058487
0.613481 0.140671 0.059789
0.628922 0.147182 0.062255
0.643505 0.151838 0.063496
0.655882 0.159559 0.066177
0.670297 0.166743 0.066253
0.681924 0.171078 0.070098
0.693551 0.175322 0.070588
0.705177 0.182384 0.074020
0.716805 0.186397 0.074035
0.728432 0.190196 0.077941
0.027451 0.081128 0.019608
0.030657 0.081128 0.019608
0.035049 0.077244 0.019608
0.050245 0.077206 0.023529
0.061642 0.077206 0.023529
0.069363 0.077723 0.023529
0.083571 0.081128 0.026218
0.106752 0.081128 0.026593
0.135815 0.084069 0.027451
0.164533 0.087427 0.031373
0.197182 0.091054 0.035103
0.241877 0.098775 0.038603
0.285540 0.105882 0.039216
0.330028 0.113354 0.042524
0.370588 0.117747 0.044998
0.411274 0.125735 0.046772
0.450368 0.136765 0.050674
0.488480 0.144485 0.052531
0.515786 0.146569 0.054557
0.541422 0.150490 0.058211
0.564583 0.154412 0.060065
0.583824 0.159681 0.062132
0.602872 0.166789 0.063779
0.620588 0.171201 0.066054
0.636182 0.178922 0.067494
0.652083 0.186642 0.069975
0.667410 0.190441 0.071208
0.682353 0.197549 0.073897
0.693873 0.201961 0.073974
0.705392 0.205760 0.077818
0.717486 0.213480 0.078431
0.732230 0.217280 0.081740
0.740563 0.224387 0.081740
0.030638 0.100490 0.022794
0.031373 0.096668 0.022794
0.038281 0.096568 0.019608
0.054098 0.092647 0.023529
0.068872 0.092647 0.026317
0.077083 0.092647 0.027451
0.089185 0.096568 0.027451
0.107927 0.100490 0.027451
0.137255 0.104228 0.030392
0.171530 0.106702 0.031580
0.207828 0.114215 0.037485
0.253439 0.121936 0.041307
0.296323 0.133303 0.042861
0.340020 0.140862 0.045029
0.382108 0.148284 0.049265
0.421446 0.156005 0.052673
0.461274 0.163725 0.056128
0.496814 0.172940 0.058089
0.526961 0.179167 0.062010
0.552328 0.184857 0.062308
0.575950 0.190411 0.065932
0.595213 0.196576 0.067762
0.613971 0.201471 0.070083
0.632108 0.205798 0.071484
0.648530 0.212990 0.073775
0.666215 0.220711 0.075207
0.679167 0.225107 0.077696
0.694493 0.231732 0.081618
0.706035 0.236030 0.081618
0.720765 0.240564 0.084873
0.732353 0.247350 0.085540
0.746960 0.252083 0.085563
0.758578 0.259068 0.089461
0.031373 0.115931 0.023529
0.034436 0.115931 0.023529
0.039162 0.115127 0.023529
0.056944 0.111519 0.023529
0.072672 0.111152 0.027344
0.087389 0.111875 0.030036
0.099632 0.115073 0.030515
0.114403 0.118325 0.031373
0.140319 0.122151 0.033670
0.170956 0.129657 0.037496
0.214361 0.139484 0.038948
0.263653 0.150735 0.044853
0.311029 0.159804 0.046737
0.353431 0.171446 0.050122
0.394486 0.179167 0.052704
0.434524 0.189951 0.057966
0.472794 0.198101 0.061887
0.508456 0.206250 0.064181
0.537140 0.215311 0.066184
0.563848 0.223162 0.069730
0.587010 0.228554 0.073652
0.607108 0.235222 0.077010
0.628454 0.240073 0.077573
0.647549 0.247553 0.080879
0.666269 0.254657 0.081495
0.682353 0.258456 0.082353
0.697633 0.263113 0.085417
0.709314 0.270221 0.085417
0.723514 0.274142 0.089338
0.735987 0.278144 0.089626
0.747794 0.283035 0.093260
0.762282 0.286765 0.093383
0.774755 0.290686 0.097181
0.038235 0.135294 0.026471
0.038235 0.135294 0.026471
0.045833 0.134375 0.026471
0.061029 0.134314 0.027451
0.079902 0.134314 0.030392
0.098775 0.136795 0.034314
0.110845 0.140441 0.035110
0.128033 0.144240 0.038235
0.150981 0.150981 0.038971
0.181035 0.158701 0.042157
0.222059 0.173039 0.045159
0.271293 0.187837 0.048652
0.322549 0.199387 0.052451
0.368290 0.210539 0.056250
0.411274 0.221507 0.060049
0.450613 0.231036 0.065227
0.491176 0.242157 0.067647
0.527083 0.252819 0.071446
0.555882 0.264461 0.075245
0.583425 0.269240 0.077451
0.607476 0.276961 0.081373
0.629197 0.284344 0.082721
0.650490 0.290502 0.085294
0.666207 0.294394 0.088235
0.683088 0.300000 0.089216
0.700735 0.303799 0.092157
0.716176 0.307046 0.096078
0.728524 0.310937 0.096231
0.742647 0.312255 0.100000
0.754381 0.316667 0.100092
0.765992 0.320588 0.103921
0.778646 0.320588 0.103952
0.789216 0.323529 0.104902
0.042034 0.160294 0.030270
0.043103 0.160294 0.030270
0.050666 0.157652 0.030270
0.068750 0.157475 0.033927
0.090089 0.157828 0.035294
0.113603 0.163603 0.038113
0.132476 0.167609 0.042034
0.147916 0.175123 0.045098
0.167402 0.184957 0.046783
0.193382 0.193382 0.049877
0.231641 0.204902 0.052573
0.279657 0.226704 0.056373
0.330147 0.239660 0.060172
0.379902 0.250123 0.063971
0.425613 0.264461 0.069003
0.468137 0.275000 0.071569
0.510110 0.288051 0.077328
0.545806 0.297698 0.081250
0.574870 0.306005 0.084551
0.602574 0.313726 0.086765
0.625735 0.320389 0.090150
0.648518 0.325245 0.093015
0.666912 0.328163 0.095833
0.686275 0.332843 0.096936
0.701716 0.335937 0.100031
0.717157 0.337622 0.100858
0.732069 0.341422 0.104779
0.744118 0.344608 0.105220
0.759068 0.347564 0.108701
0.770711 0.348794 0.111623
0.782529 0.352451 0.115441
0.794117 0.352451 0.118295
0.805637 0.355269 0.122181
0.047059 0.193873 0.035294
0.049670 0.193873 0.035294
0.057353 0.193873 0.035294
0.074992 0.193873 0.037990
0.101470 0.196569 0.041575
0.129044 0.201524 0.045412
0.154902 0.210784 0.049249
0.171079 0.221347 0.052819
0.192157 0.230576 0.056618
0.219363 0.241421 0.059536
0.251088 0.251088 0.063373
0.288725 0.265686 0.065020
0.336275 0.279443 0.070588
0.384199 0.293742 0.072787
0.432154 0.307399 0.077206
0.475858 0.318382 0.081778
0.518995 0.330514 0.086397
0.556411 0.340809 0.090235
0.589415 0.347993 0.092892
0.618015 0.352328 0.096814
0.642861 0.356127 0.099970
0.664338 0.362500 0.103431
0.682353 0.364568 0.104657
0.699778 0.367647 0.107353
0.717157 0.370650 0.109252
0.732598 0.372158 0.112132
0.744118 0.374494 0.115931
0.759559 0.375911 0.122426
0.775000 0.379412 0.128921
0.786519 0.382222 0.135416
0.798039 0.383502 0.143138
0.809521 0.386068 0.149632
0.821078 0.387255 0.154657
0.053554 0.238971 0.041789
0.057353 0.238971 0.041789
0.067486 0.241383 0.041789
0.084191 0.242892 0.045470
0.112668 0.246814 0.049311
0.147794 0.250736 0.052941
0.177329 0.257843 0.056740
0.198162 0.266912 0.060539
0.219118 0.276563 0.065319
0.243627 0.284927 0.071090
0.269906 0.299265 0.077504
0.303405 0.308211 0.083919
0.343735 0.319853 0.092019
0.389093 0.335172 0.097549
0.438212 0.349265 0.099142
0.481005 0.361416 0.102573
0.524142 0.372978 0.105086
0.564706 0.381985 0.107617
0.600245 0.388580 0.108923
0.630082 0.392459 0.111274
0.655009 0.396339 0.116177
0.678895 0.401103 0.120983
0.697794 0.401524 0.124824
0.715307 0.403175 0.129044
0.730668 0.405025 0.135417
0.747476 0.406935 0.142575
0.759559 0.409199 0.148284
0.775000 0.410696 0.155603
0.787699 0.414216 0.161152
0.799146 0.414457 0.168872
0.810746 0.418137 0.175084
0.822346 0.420711 0.180270
0.833946 0.422059 0.184191
0.061275 0.278922 0.047059
0.065074 0.282843 0.047059
0.076470 0.285141 0.049510
0.095466 0.285294 0.053201
0.125490 0.289216 0.056863
0.162852 0.296446 0.060892
0.194577 0.304166 0.064461
0.220787 0.311887 0.070711
0.243627 0.322549 0.081373
0.269240 0.332307 0.090364
0.295557 0.342892 0.100245
0.323529 0.353692 0.110417
0.358333 0.366177 0.118137
0.399265 0.376225 0.128186
0.443137 0.389216 0.136428
0.487377 0.404657 0.145221
0.530637 0.416177 0.147549
0.571277 0.424020 0.150199
0.606863 0.428584 0.149510
0.636275 0.433456 0.152558
0.663235 0.435784 0.157353
0.685892 0.436290 0.160309
0.706863 0.439706 0.161274
0.726225 0.440120 0.165610
0.742279 0.441177 0.170588
0.759559 0.441177 0.174510
0.772549 0.443627 0.178707
0.786136 0.445098 0.182966
0.799326 0.447733 0.190380
0.810892 0.449250 0.195956
0.822304 0.452941 0.199755
0.834023 0.453018 0.205928
0.845588 0.455392 0.209804
0.068995 0.321446 0.053309
0.075122 0.323702 0.053309
0.088013 0.327550 0.056986
0.105883 0.331399 0.060784
0.141498 0.335049 0.064583
0.181985 0.342770 0.070711
0.215809 0.350490 0.080760
0.243279 0.358211 0.093873
0.270129 0.368873 0.105392
0.293218 0.377573 0.118015
0.319730 0.387990 0.127328
0.348039 0.397982 0.136577
0.378569 0.409574 0.146094
0.413323 0.419275 0.154412
0.451877 0.428837 0.161236
0.492023 0.438101 0.171936
0.534498 0.451654 0.178738
0.576225 0.460539 0.181863
0.609191 0.465234 0.181863
0.640074 0.471113 0.184402
0.667157 0.474387 0.189706
0.690319 0.475735 0.193628
0.712983 0.478309 0.195948
0.732801 0.478309 0.198204
0.749387 0.477727 0.201471
0.766422 0.478309 0.204148
0.780270 0.478309 0.208019
0.795462 0.479902 0.213599
0.807031 0.482429 0.217647
0.818750 0.484042 0.223039
0.833946 0.486252 0.226693
0.845588 0.487745 0.230564
0.857231 0.490073 0.234436
0.076716 0.362255 0.061030
0.084437 0.366177 0.061030
0.101823 0.372166 0.067019
0.120956 0.377573 0.072917
0.160754 0.381587 0.082139
0.199487 0.389093 0.092280
0.232843 0.397136 0.105316
0.260662 0.404534 0.117279
0.288971 0.412255 0.130147
0.314828 0.421691 0.141054
0.341376 0.429412 0.150490
0.370443 0.439706 0.162132
0.400735 0.448775 0.170680
0.431618 0.459520 0.177573
0.465181 0.468137 0.185294
0.499931 0.475858 0.192210
0.537500 0.486152 0.201593
0.578990 0.496132 0.207652
0.613741 0.500735 0.209574
0.645588 0.506740 0.212132
0.671079 0.510784 0.219210
0.696446 0.510784 0.221178
0.717402 0.510784 0.224510
0.736159 0.512991 0.224993
0.755453 0.512991 0.229412
0.772549 0.513848 0.236274
0.787990 0.516912 0.240196
0.799510 0.516912 0.243015
0.814951 0.517126 0.248315
0.828677 0.520834 0.251961
0.840196 0.521079 0.254274
0.853378 0.524755 0.258142
0.864951 0.524755 0.259804
0.084437 0.406495 0.072917
0.098097 0.410294 0.076781
0.115434 0.414223 0.088243
0.141839 0.420148 0.096079
0.181878 0.424004 0.107491
0.216789 0.433046 0.118750
0.248284 0.441054 0.130270
0.277539 0.444853 0.141789
0.307966 0.454136 0.153309
0.334191 0.462377 0.163507
0.362707 0.468589 0.174916
0.391648 0.479025 0.185294
0.422595 0.487377 0.195466
0.450858 0.496335 0.203565
0.481740 0.506740 0.210539
0.514461 0.514461 0.218260
0.552145 0.522181 0.225858
0.585907 0.528795 0.232594
0.618628 0.535539 0.239338
0.647917 0.542513 0.242390
0.675000 0.545588 0.248238
0.699529 0.547672 0.251471
0.720749 0.547672 0.253960
0.740047 0.549510 0.256495
0.757966 0.551593 0.261673
0.776750 0.551593 0.265074
0.791398 0.551937 0.269386
0.804860 0.553431 0.275287
0.818750 0.555515 0.277328
0.832108 0.557353 0.283015
0.845581 0.559436 0.284681
0.857231 0.559494 0.286765
0.872672 0.563358 0.288603
0.098040 0.449020 0.100000
0.113480 0.452819 0.105759
0.130760 0.458578 0.113480
0.164644 0.464522 0.122978
0.201716 0.470343 0.134559
0.232843 0.474510 0.144179
0.263725 0.481618 0.153799
0.291115 0.487378 0.163848
0.323039 0.496569 0.177941
0.354412 0.504779 0.189951
0.381985 0.512500 0.198162
0.412255 0.520220 0.206495
0.443137 0.527941 0.220588
0.472856 0.535662 0.228615
0.501838 0.543382 0.234681
0.530821 0.550061 0.242218
0.559804 0.556863 0.248039
0.590747 0.561703 0.255821
0.619730 0.566422 0.259436
0.647917 0.572181 0.268260
0.675735 0.577206 0.275245
0.700123 0.582353 0.278431
0.721324 0.582966 0.282966
0.740564 0.586275 0.286826
0.759804 0.588235 0.292647
0.778187 0.588235 0.294118
0.793628 0.590196 0.298039
0.809068 0.590196 0.302267
0.822304 0.590441 0.306127
0.836029 0.592341 0.309804
0.849510 0.594241 0.311888
0.862929 0.598039 0.313725
0.874510 0.600000 0.315686
0.111642 0.491544 0.125000
0.125000 0.495466 0.130940
0.145841 0.499387 0.138603
0.182035 0.506863 0.149878
0.219225 0.511152 0.157966
0.248610 0.516831 0.168995
0.275636 0.520688 0.177328
0.304691 0.528064 0.188568
0.336550 0.535784 0.198254
0.367892 0.543505 0.211152
0.397511 0.549793 0.221408
0.428941 0.556863 0.231618
0.460539 0.563434 0.242570
0.490675 0.569374 0.250981
0.518382 0.577152 0.258701
0.544366 0.581985 0.266422
0.571385 0.589706 0.274142
0.600372 0.595588 0.279048
0.626593 0.596500 0.283578
0.650601 0.602340 0.291544
0.676471 0.606985 0.297181
0.701367 0.611991 0.304902
0.721324 0.615196 0.309965
0.741885 0.617796 0.315836
0.759804 0.622580 0.319240
0.780270 0.623039 0.321726
0.795466 0.623039 0.323897
0.810907 0.625203 0.329247
0.824510 0.626961 0.331495
0.837918 0.627133 0.334926
0.851470 0.630882 0.337124
0.866912 0.632785 0.338905
0.878431 0.636642 0.342770
0.119363 0.530147 0.150245
0.134804 0.534015 0.157966
0.161060 0.537990 0.163618
0.197832 0.541751 0.171408
0.229197 0.547549 0.181128
0.258356 0.551616 0.188848
0.285371 0.555469 0.198361
0.314591 0.562868 0.207836
0.348101 0.570588 0.218872
0.377696 0.577076 0.229779
0.408578 0.582108 0.239216
0.439461 0.588702 0.250268
0.470343 0.593628 0.260785
0.502819 0.599433 0.271530
0.530867 0.606112 0.281112
0.555814 0.611956 0.287868
0.582108 0.618872 0.293382
0.608142 0.624387 0.300069
0.634314 0.627221 0.306617
0.657475 0.631089 0.314338
0.679994 0.635784 0.318137
0.699877 0.638236 0.325858
0.723039 0.642157 0.333042
0.741797 0.646699 0.339583
0.761520 0.650552 0.344485
0.780385 0.653922 0.348522
0.797549 0.657843 0.352374
0.812990 0.658111 0.356227
0.828156 0.659834 0.360079
0.841506 0.661925 0.363726
0.855254 0.665687 0.365931
0.868574 0.669608 0.367716
0.882353 0.673530 0.373774
0.131005 0.564829 0.175000
0.146446 0.571006 0.182721
0.178286 0.572672 0.192624
0.213481 0.576443 0.196718
0.240441 0.582353 0.205591
0.267766 0.586152 0.212010
0.296990 0.589951 0.219730
0.324000 0.594099 0.229044
0.357475 0.601470 0.239093
0.385417 0.606372 0.250735
0.417892 0.612990 0.261152
0.450850 0.618137 0.271144
0.483579 0.625107 0.283333
0.515407 0.630848 0.293382
0.546040 0.636030 0.301999
0.570220 0.639828 0.312745
0.597672 0.645956 0.320466
0.619619 0.651839 0.326348
0.644240 0.657475 0.331288
0.665196 0.660329 0.337167
0.685892 0.662148 0.341912
0.704657 0.664151 0.349085
0.724518 0.668022 0.353432
0.743830 0.672549 0.361152
0.763725 0.676348 0.368291
0.782456 0.681392 0.373407
0.801471 0.684804 0.377329
0.814583 0.687381 0.379906
0.828431 0.691253 0.383777
0.843872 0.692866 0.385390
0.856886 0.696714 0.389239
0.870711 0.698947 0.391471
0.878431 0.702819 0.393015
0.138725 0.601961 0.200490
0.162286 0.605760 0.209636
0.199264 0.609651 0.218474
0.228922 0.609804 0.223652
0.255882 0.613725 0.232659
0.283073 0.617264 0.239323
0.310080 0.622763 0.246354
0.337623 0.628876 0.254534
0.369485 0.632720 0.265564
0.400981 0.639017 0.275659
0.431863 0.643873 0.285080
0.462745 0.649020 0.294102
0.497549 0.655392 0.305882
0.528431 0.659314 0.315946
0.557108 0.662163 0.326716
0.584191 0.666008 0.334436
0.606863 0.669853 0.340931
0.630515 0.676149 0.347426
0.651961 0.680637 0.353432
0.671324 0.686765 0.358946
0.691238 0.689154 0.362745
0.710049 0.690686 0.368153
0.729412 0.692923 0.372794
0.745542 0.696768 0.377650
0.763725 0.702451 0.384314
0.786030 0.706372 0.391498
0.801746 0.711029 0.395833
0.816911 0.714216 0.399632
0.832047 0.718137 0.404718
0.843872 0.722059 0.407231
0.855392 0.725981 0.410784
0.866866 0.725981 0.412255
0.876961 0.729902 0.414706
0.153064 0.632843 0.230269
0.189093 0.636685 0.240483
0.221247 0.640686 0.246936
0.245952 0.644608 0.254657
0.271492 0.648529 0.259804
0.298284 0.650701 0.267524
0.324150 0.654542 0.273897
0.348848 0.658383 0.281617
0.377819 0.662224 0.289338
0.408701 0.666066 0.297059
0.439583 0.669907 0.306548
0.470466 0.674632 0.315073
0.504764 0.679397 0.325245
0.536152 0.683276 0.335237
0.565587 0.686397 0.346078
0.592628 0.690319 0.355147
0.619669 0.696201 0.362868
0.642157 0.698794 0.370588
0.662155 0.703799 0.374387
0.680637 0.707598 0.378186
0.699877 0.713848 0.383594
0.717769 0.717769 0.387473
0.734015 0.718191 0.392157
0.751226 0.721691 0.396925
0.768658 0.722672 0.400766
0.786030 0.726471 0.407181
0.801953 0.732843 0.411274
0.818049 0.736240 0.415074
0.832353 0.740120 0.420052
0.845094 0.743999 0.426225
0.859069 0.745465 0.427734
0.869282 0.749142 0.430147
0.874510 0.753064 0.431495
0.177451 0.663726 0.259804
0.211029 0.667609 0.267524
0.240763 0.671492 0.275245
0.264093 0.674012 0.282966
0.287409 0.677850 0.289461
0.310417 0.679220 0.293451
0.337270 0.681602 0.298790
0.360662 0.683333 0.305047
0.389461 0.686949 0.312500
0.416766 0.690832 0.318995
0.447304 0.694715 0.325245
0.479956 0.700368 0.335240
0.512990 0.704167 0.345067
0.543873 0.707238 0.353799
0.575291 0.709559 0.364262
0.603554 0.713481 0.373162
0.628676 0.718014 0.383456
0.651961 0.723162 0.389254
0.671324 0.726425 0.395144
0.688358 0.730262 0.399027
0.707598 0.734099 0.402451
0.725490 0.738358 0.406373
0.740931 0.740932 0.410677
0.756372 0.743972 0.414216
0.772487 0.745527 0.418137
0.789951 0.748775 0.418995
0.802696 0.751701 0.423790
0.818137 0.753309 0.430093
0.833579 0.758180 0.433977
0.847541 0.764828 0.439338
0.859146 0.768628 0.446982
0.870626 0.772426 0.450736
0.875735 0.776226 0.450736
0.207231 0.690687 0.290687
0.234314 0.694573 0.298407
0.257476 0.698461 0.303485
0.280637 0.702083 0.309926
0.302834 0.702451 0.316682
0.325858 0.706200 0.321886
0.349020 0.709191 0.327167
0.375000 0.712496 0.332479
0.402206 0.713940 0.337469
0.429167 0.717034 0.341357
0.460049 0.720075 0.347526
0.489828 0.723530 0.354902
0.521814 0.727328 0.364384
0.555515 0.728799 0.373817
0.585164 0.732721 0.381503
0.613875 0.735321 0.391203
0.638909 0.740564 0.401348
0.660784 0.744485 0.408552
0.680147 0.746201 0.412868
0.699510 0.752329 0.418995
0.718183 0.756250 0.422917
0.734314 0.761520 0.426114
0.752574 0.765319 0.430002
0.764886 0.768015 0.433579
0.782353 0.770833 0.435386
0.797794 0.771936 0.438358
0.812707 0.775858 0.442157
0.824314 0.776298 0.445783
0.836274 0.780132 0.449617
0.847794 0.786520 0.456005
0.859245 0.787799 0.459927
0.870711 0.791632 0.463848
0.878431 0.795466 0.463848
0.230392 0.720588 0.321569
0.253554 0.721569 0.329289
0.275797 0.725307 0.337010
0.298897 0.728156 0.338143
0.322059 0.729411 0.344730
0.341452 0.733333 0.348560
0.362071 0.736703 0.353186
0.389369 0.738021 0.357843
0.416422 0.741177 0.363971
0.443474 0.741881 0.365686
0.472549 0.744179 0.371323
0.503431 0.747671 0.379044
0.536152 0.751471 0.386152
0.568137 0.754688 0.395833
0.598468 0.758517 0.405147
0.625000 0.760325 0.412347
0.650490 0.763725 0.420588
0.673683 0.767647 0.428309
0.695037 0.771568 0.435601
0.711029 0.775490 0.439430
0.729779 0.776961 0.442647
0.744853 0.780423 0.445098
0.760294 0.784559 0.449020
0.771814 0.788358 0.450000
0.787255 0.791176 0.452941
0.802696 0.792800 0.454565
0.817157 0.795098 0.457598
0.829044 0.799019 0.460938
0.840686 0.799509 0.464706
0.851440 0.803217 0.468628
0.860049 0.806863 0.469792
0.870711 0.810784 0.473621
0.874510 0.813726 0.476471
0.254412 0.744608 0.352451
0.277574 0.748529 0.357203
0.296868 0.752451 0.364024
0.319975 0.756372 0.371691
0.342279 0.760187 0.378554
0.365441 0.763358 0.382353
0.387745 0.767119 0.386727
0.410907 0.767280 0.389951
0.437776 0.770220 0.390809
0.461152 0.771201 0.394489
0.487010 0.771201 0.397794
0.517329 0.771201 0.400662
0.547917 0.774801 0.408088
0.578799 0.776942 0.415809
0.607476 0.780767 0.423154
0.633123 0.782563 0.427328
0.659681 0.784498 0.438542
0.684804 0.788323 0.445833
0.705768 0.792149 0.452213
0.721691 0.794221 0.452696
0.738281 0.798943 0.456618
0.754584 0.801716 0.459977
0.767057 0.803531 0.461497
0.779535 0.807357 0.465322
0.794976 0.811183 0.468383
0.808889 0.813668 0.472304
0.821775 0.817402 0.473736
0.833322 0.818260 0.476226
0.844485 0.818643 0.479396
0.855350 0.821691 0.480434
0.866912 0.825245 0.484260
0.874537 0.829167 0.487991
0.878431 0.829167 0.491054
0.283824 0.771568 0.382598
0.303064 0.777842 0.386520
0.322304 0.778677 0.393428
0.341544 0.782529 0.397250
0.360784 0.786030 0.401072
0.380637 0.786520 0.404895
0.402451 0.789706 0.405990
0.425490 0.790441 0.409314
0.452267 0.790441 0.412439
0.476065 0.794156 0.413236
0.499755 0.793628 0.413741
0.526103 0.793628 0.417639
0.555637 0.794087 0.423529
0.586520 0.798284 0.430515
0.615196 0.798284 0.434314
0.642279 0.801861 0.442770
0.668995 0.805393 0.450490
0.690687 0.805737 0.457476
0.711765 0.809314 0.463802
0.731441 0.813236 0.467402
0.745312 0.815165 0.469608
0.760294 0.818987 0.475245
0.774004 0.821308 0.475981
0.787255 0.825000 0.479373
0.802512 0.828922 0.483272
0.814055 0.832844 0.487171
