src/assets/LUTs/freeLUTs/Summer.cube
TITLE "Summer LUT by rossandhisjpegs"
LUT_3D_SIZE 5
DOMAIN_MIN 0.0 0.0 0.0
DOMAIN_MAX 1.0 1.0 1.0
0.019608 0.023529 0.027451
0.080392 0.027451 0.027451
0.284314 0.043137 0.031373
0.517647 0.054902 0.043137
0.674510 0.062745 0.054902
0.019608 0.103921 0.038235
0.114461 0.117647 0.035294
0.441177 0.121078 0.041177
0.727696 0.163725 0.073530
0.914706 0.233333 0.112745
0.011765 0.368627 0.090196
0.079412 0.436764 0.111764
0.566667 0.446079 0.060784
0.868627 0.487255 0.086765
0.980392 0.547059 0.117647
0.029412 0.651961 0.243138
0.154902 0.726471 0.232353
0.612745 0.771568 0.106372
0.894118 0.764706 0.113725
0.973529 0.773529 0.133333
0.098039 0.925490 0.345098
0.289216 0.950000 0.221569
0.694117 0.933333 0.152941
0.928431 0.928432 0.149020
0.972549 0.917647 0.152941
0.019608 0.035294 0.092157
0.083579 0.031373 0.086030
0.292157 0.041667 0.061765
0.533334 0.054902 0.073529
0.690196 0.059804 0.093137
0.019608 0.110049 0.121568
0.114277 0.129228 0.129963
0.467647 0.136642 0.102696
0.751593 0.180208 0.146078
0.926471 0.248039 0.188235
0.015686 0.402941 0.214706
0.090687 0.457721 0.243015
0.578431 0.476716 0.147304
0.881372 0.511520 0.162623
0.980392 0.566667 0.200000
0.040196 0.700245 0.378431
0.140502 0.737316 0.386090
0.603922 0.786765 0.246691
0.891544 0.777206 0.205086
0.972794 0.785049 0.244853
0.101961 0.944117 0.549020
0.216667 0.941176 0.470588
0.654902 0.944608 0.343628
0.912990 0.937010 0.297794
0.972549 0.921569 0.311765
0.019608 0.068628 0.290196
0.039706 0.064706 0.316667
0.310785 0.052941 0.235294
0.549020 0.054902 0.184314
0.703921 0.062745 0.213726
0.019608 0.145098 0.312745
0.054902 0.174020 0.356740
0.481618 0.164706 0.348774
0.773529 0.201471 0.356372
0.931372 0.262745 0.410784
0.019608 0.414706 0.477451
0.082843 0.484804 0.537990
0.507353 0.520098 0.516667
0.843137 0.548039 0.492647
0.970588 0.593137 0.535294
0.040196 0.738725 0.678431
0.138358 0.790196 0.713113
0.480392 0.793382 0.597549
0.846814 0.798407 0.527451
0.976471 0.803431 0.546078
0.101961 0.931372 0.811764
0.208824 0.943137 0.812745
0.525490 0.956863 0.649019
0.860785 0.945098 0.599510
0.968627 0.929412 0.578431
0.015686 0.094118 0.469608
0.015686 0.091912 0.491422
0.195588 0.074510 0.499020
0.579657 0.071569 0.395833
0.725490 0.074510 0.402941
0.015686 0.184559 0.496079
0.033149 0.212132 0.539889
0.314828 0.210417 0.614093
0.766667 0.231373 0.571814
0.923529 0.296814 0.622549
0.015196 0.448039 0.645588
0.063481 0.521569 0.703799
0.312010 0.555392 0.726471
0.818505 0.561765 0.723775
0.949020 0.605882 0.750000
0.036275 0.743137 0.845343
0.138664 0.785110 0.868811
0.423775 0.792157 0.845098
0.809498 0.814951 0.805270
0.953676 0.830637 0.796079
0.090196 0.913725 0.911765
0.204902 0.923775 0.919608
0.462255 0.928922 0.915686
0.807843 0.952941 0.839216
0.952941 0.949020 0.807844
0.015686 0.109804 0.552941
0.015686 0.109804 0.575490
0.117647 0.088235 0.596078
0.573529 0.086275 0.524510
0.745098 0.090196 0.517647
0.011765 0.211764 0.591176
0.026225 0.244363 0.635294
0.225490 0.261765 0.729902
0.752696 0.264951 0.732598
0.931372 0.323529 0.776470
0.011765 0.490196 0.741177
0.055392 0.559804 0.799020
0.238235 0.589216 0.829412
0.770588 0.576470 0.886765
0.952941 0.613725 0.872549
0.036275 0.761765 0.906862
0.143872 0.796079 0.926470
0.384314 0.799019 0.927451
0.747794 0.820343 0.907598
0.941176 0.831373 0.906862
0.094118 0.909804 0.941176
0.209804 0.921569 0.945098
0.466667 0.921569 0.952941
0.800980 0.937255 0.949020
0.937255 0.949020 0.937255
