src/assets/LUTs/freeLUTs/Summer.cube
TITLE "Summer LUT by rossandhisjpegs"
LUT_3D_SIZE 33
DOMAIN_MIN 0.0 0.0 0.0
DOMAIN_MAX 1.0 1.0 1.0
0.019608 0.023529 0.027451
0.023529 0.023529 0.027451
0.027451 0.023529 0.027451
0.034926 0.023529 0.027451
0.038726 0.027451 0.027451
0.046446 0.027451 0.027451
0.054167 0.027451 0.027451
0.065809 0.027451 0.027451
0.080392 0.027451 0.027451
0.091912 0.027451 0.027451
0.110049 0.031373 0.031373
0.129289 0.031373 0.031373
0.154902 0.033824 0.031373
0.185785 0.035294 0.031373
0.216666 0.039216 0.031373
0.251471 0.041299 0.031373
0.284314 0.043137 0.031373
0.317157 0.043137 0.031373
0.348039 0.047059 0.031373
0.378921 0.048652 0.031373
0.408334 0.050980 0.035294
0.436765 0.052328 0.035294
0.466422 0.054902 0.039216
0.493505 0.054902 0.039216
0.517647 0.054902 0.043137
0.543750 0.055760 0.043995
0.566912 0.058824 0.047059
0.589460 0.058824 0.047672
0.608823 0.058824 0.050980
0.628186 0.058824 0.050980
0.643627 0.059069 0.054902
0.662868 0.062745 0.054902
0.674510 0.062745 0.054902
0.019608 0.027451 0.027451
0.023529 0.027451 0.027451
0.027451 0.031013 0.027451
0.034926 0.031250 0.027451
0.042540 0.031250 0.027451
0.050245 0.031250 0.027451
0.058089 0.031250 0.027451
0.069703 0.031250 0.027451
0.084191 0.031250 0.027451
0.099633 0.031373 0.030182
0.117770 0.031373 0.031373
0.140931 0.031373 0.031373
0.167969 0.035294 0.031373
0.201225 0.037623 0.031373
0.234313 0.039216 0.031373
0.268930 0.043080 0.031373
0.303676 0.043137 0.031373
0.336520 0.046994 0.031373
0.367402 0.047059 0.031373
0.398235 0.050980 0.032916
0.429044 0.050980 0.035294
0.459926 0.054822 0.036642
0.486971 0.054902 0.039216
0.513936 0.054902 0.043049
0.540809 0.055852 0.044087
0.566912 0.058824 0.047059
0.590073 0.058824 0.047771
0.612623 0.058824 0.050980
0.632461 0.058824 0.051455
0.651704 0.062634 0.054902
0.670711 0.062745 0.054902
0.686152 0.062745 0.058701
0.701593 0.062745 0.058824
0.019608 0.035049 0.027451
0.023529 0.035049 0.027451
0.031128 0.035049 0.027451
0.035271 0.035049 0.030783
0.042647 0.035263 0.031373
0.053470 0.035294 0.031373
0.061964 0.038281 0.031373
0.073598 0.038971 0.031373
0.088174 0.038971 0.031373
0.106319 0.038971 0.031373
0.125490 0.038971 0.031373
0.151065 0.038971 0.031373
0.181863 0.041422 0.031373
0.216666 0.042892 0.031373
0.253538 0.045205 0.031373
0.286275 0.046814 0.031373
0.322794 0.047059 0.031373
0.355883 0.048782 0.031373
0.386764 0.050980 0.031373
0.417647 0.052474 0.035294
0.452206 0.054749 0.036673
0.479328 0.054902 0.039216
0.508900 0.054902 0.042969
0.535976 0.055936 0.043137
0.563970 0.058824 0.047059
0.590073 0.058824 0.047863
0.612546 0.058824 0.050980
0.632476 0.059398 0.051555
0.655637 0.062745 0.054902
0.678431 0.062745 0.055247
0.697564 0.066422 0.058824
0.713235 0.066430 0.058824
0.728677 0.070343 0.058824
0.019608 0.042769 0.031373
0.023529 0.042769 0.031373
0.031128 0.042769 0.031373
0.038848 0.042769 0.031339
0.046569 0.042769 0.031373
0.054289 0.042769 0.034371
0.065863 0.046691 0.034926
0.077493 0.046691 0.034926
0.094822 0.046691 0.034926
0.113970 0.046691 0.034926
0.135907 0.046691 0.034926
0.162867 0.046691 0.034926
0.195972 0.046691 0.034926
0.234218 0.050612 0.032817
0.269118 0.050612 0.031373
0.303799 0.054534 0.031373
0.340257 0.054534 0.031373
0.375050 0.056373 0.031373
0.407682 0.058456 0.035087
0.440564 0.058606 0.035294
0.471446 0.062377 0.039216
0.502328 0.062377 0.040564
0.531985 0.062377 0.043137
0.559069 0.062377 0.046795
0.587133 0.066299 0.047947
0.613235 0.066299 0.050980
0.636397 0.066299 0.051646
0.659559 0.069910 0.054902
0.682675 0.070220 0.055346
0.705181 0.070554 0.058824
0.724533 0.074142 0.059046
0.743873 0.074265 0.062745
0.759313 0.078063 0.066299
0.019608 0.050490 0.031373
0.023529 0.053814 0.031373
0.031128 0.054381 0.031373
0.038848 0.054412 0.031373
0.046569 0.054412 0.031373
0.058211 0.054412 0.031373
0.069761 0.054412 0.035294
0.081388 0.054412 0.035294
0.099510 0.054412 0.035294
0.121691 0.054412 0.035294
0.144853 0.054412 0.035294
0.174510 0.054412 0.035294
0.211275 0.054412 0.035294
0.249878 0.058334 0.035294
0.286275 0.058334 0.035294
0.321078 0.062255 0.034804
0.357843 0.062255 0.035049
0.394347 0.066177 0.035294
0.428922 0.066177 0.036795
0.461688 0.067571 0.039216
0.494608 0.070098 0.042647
0.525490 0.070098 0.043137
0.555147 0.070098 0.046722
0.582230 0.073667 0.048024
0.610294 0.074020 0.050980
0.636397 0.074020 0.054519
0.662990 0.077543 0.054902
0.686643 0.077941 0.058410
0.709804 0.078370 0.059253
0.732475 0.081863 0.062301
0.755392 0.085325 0.062959
0.774755 0.089216 0.066667
0.790196 0.093138 0.070098
0.019608 0.062132 0.031373
0.023529 0.062132 0.031373
0.028026 0.065442 0.031373
0.035482 0.065442 0.031373
0.046569 0.065442 0.031373
0.058211 0.065442 0.031373
0.073039 0.065556 0.035294
0.087868 0.066054 0.035294
0.106250 0.066054 0.035294
0.129412 0.066054 0.038603
0.155269 0.066054 0.035294
0.188323 0.065442 0.035294
0.226716 0.065442 0.035294
0.265319 0.066054 0.035294
0.303577 0.067915 0.035294
0.338603 0.069975 0.035294
0.376899 0.071630 0.035294
0.413645 0.073897 0.038603
0.449877 0.073897 0.039216
0.482966 0.077454 0.042773
0.517769 0.077818 0.044378
0.548652 0.077818 0.047059
0.578309 0.081319 0.050367
0.606323 0.081740 0.051911
0.633456 0.082567 0.054442
0.663002 0.085183 0.058211
0.689951 0.086283 0.058824
0.717034 0.089583 0.062228
0.740196 0.093383 0.063159
0.763358 0.097181 0.066112
0.786519 0.104289 0.066874
0.808946 0.111990 0.070098
0.825000 0.119118 0.073897
0.019608 0.073775 0.035294
0.023529 0.076861 0.035294
0.027451 0.076960 0.035294
0.034926 0.077627 0.035294
0.046569 0.080484 0.035294
0.058211 0.080882 0.035294
0.073039 0.080882 0.035294
0.090970 0.080882 0.035294
0.113174 0.077696 0.035294
0.137132 0.079986 0.036029
0.166912 0.078692 0.039216
0.203554 0.077213 0.039216
0.242157 0.076960 0.038756
0.280760 0.076960 0.036589
0.319363 0.077696 0.035294
0.357575 0.077696 0.035294
0.394608 0.081618 0.038848
0.434436 0.083111 0.040709
0.471324 0.085540 0.042723
0.506127 0.085540 0.044432
0.540931 0.088725 0.047059
0.571814 0.089461 0.050498
0.602696 0.092647 0.051976
0.632843 0.093543 0.054902
0.660784 0.097365 0.058272
0.690686 0.103102 0.059521
0.720833 0.107598 0.062745
0.747917 0.111397 0.065932
0.774357 0.119118 0.069853
0.798162 0.126838 0.073775
0.821277 0.134758 0.077895
0.843651 0.145466 0.081717
0.859804 0.153187 0.088725
0.019608 0.088480 0.035294
0.023433 0.088480 0.035294
0.027259 0.092211 0.035294
0.034926 0.092402 0.035294
0.046079 0.095083 0.035294
0.057598 0.096323 0.035294
0.073039 0.096323 0.035294
0.089151 0.096323 0.035294
0.116024 0.093168 0.035294
0.143991 0.092402 0.035294
0.177329 0.092402 0.035884
0.215073 0.092402 0.039216
0.257598 0.092402 0.039216
0.299265 0.091544 0.039216
0.337868 0.091544 0.038358
0.376470 0.092402 0.039216
0.417034 0.095466 0.040748
0.457598 0.096323 0.043137
0.495826 0.099387 0.046576
0.530534 0.101490 0.048303
0.567157 0.104458 0.050980
0.598334 0.108283 0.054339
0.632843 0.112109 0.054902
0.662006 0.119240 0.058207
0.691667 0.126103 0.062653
0.723962 0.130760 0.066479
0.752451 0.138480 0.069608
0.781997 0.146201 0.074131
0.808946 0.154305 0.081128
0.832966 0.164706 0.084927
0.852206 0.172427 0.092456
0.872182 0.180174 0.096446
0.890686 0.191789 0.101103
0.019608 0.103921 0.038235
0.023406 0.106863 0.038235
0.027206 0.110600 0.038235
0.032261 0.110784 0.039216
0.042279 0.114706 0.039216
0.053830 0.117188 0.038389
0.068566 0.118628 0.038235
0.087837 0.118628 0.035937
0.114461 0.117647 0.035294
0.148529 0.114706 0.035294
0.185049 0.114706 0.035294
0.229167 0.114706 0.035294
0.274878 0.114093 0.036275
0.317310 0.113726 0.036275
0.358762 0.115380 0.037929
0.398652 0.117647 0.039216
0.441177 0.121078 0.041177
0.485080 0.124510 0.044516
0.525245 0.128431 0.047059
0.563848 0.132353 0.050398
0.598529 0.137377 0.054289
0.632874 0.143475 0.058854
0.666667 0.148284 0.062010
0.697549 0.156005 0.065809
0.727696 0.163725 0.073530
0.759314 0.171446 0.077328
0.786274 0.182108 0.084314
0.814062 0.189828 0.088848
0.839706 0.197672 0.092647
0.859926 0.206250 0.097335
0.880086 0.213971 0.101226
0.899265 0.224633 0.105024
0.914706 0.233333 0.112745
0.019608 0.123284 0.039216
0.023406 0.126103 0.039216
0.027206 0.130024 0.039216
0.031373 0.133946 0.039216
0.038726 0.137377 0.039216
0.047549 0.141176 0.039656
0.062377 0.144079 0.039216
0.080882 0.145711 0.039216
0.109926 0.144884 0.039216
0.147426 0.143815 0.038423
0.191889 0.140686 0.035294
0.237868 0.140686 0.035294
0.287010 0.141376 0.035294
0.333333 0.144608 0.035294
0.379036 0.146814 0.035294
0.421473 0.151934 0.037895
0.468689 0.155821 0.041177
0.513086 0.159708 0.046473
0.553669 0.164828 0.051593
0.592444 0.168628 0.055392
0.630392 0.176348 0.061642
0.664105 0.183689 0.066912
0.697648 0.190686 0.070711
0.726593 0.198407 0.077328
0.756648 0.206403 0.082230
0.786638 0.214951 0.086891
0.811397 0.222672 0.093015
0.837745 0.230392 0.094558
0.860907 0.240931 0.098529
0.881250 0.248652 0.102329
0.900245 0.257652 0.106127
0.918505 0.268015 0.109804
0.931127 0.279657 0.113725
0.019608 0.145343 0.039216
0.023406 0.149264 0.039216
0.027206 0.155714 0.041743
0.031373 0.159551 0.043022
0.038726 0.163388 0.043137
0.046446 0.167647 0.043137
0.055162 0.174755 0.043137
0.073162 0.177597 0.042180
0.100184 0.179412 0.039890
0.140809 0.178531 0.041154
0.189568 0.175490 0.039216
0.244661 0.171569 0.035294
0.298284 0.173254 0.031373
0.348774 0.177091 0.033701
0.396615 0.180928 0.036811
0.444118 0.186681 0.040648
0.492402 0.191912 0.047794
0.540112 0.197794 0.051593
0.581373 0.203431 0.057598
0.619975 0.211152 0.063113
0.656342 0.218413 0.066912
0.689338 0.225368 0.073284
0.719715 0.233088 0.077589
0.749755 0.240051 0.081472
0.777941 0.248836 0.085356
0.806740 0.257475 0.090196
0.831128 0.265196 0.094118
0.854289 0.272917 0.098039
0.877451 0.283333 0.101961
0.896691 0.291169 0.102329
0.915686 0.302696 0.105959
0.932314 0.311726 0.109804
0.946569 0.322059 0.111029
0.019608 0.172427 0.043137
0.020914 0.178799 0.043137
0.027206 0.182843 0.043137
0.031132 0.190318 0.045711
0.038726 0.196691 0.047059
0.046446 0.201838 0.049632
0.054167 0.208211 0.049632
0.064951 0.215931 0.049632
0.090564 0.219730 0.046691
0.130135 0.223285 0.045711
0.184926 0.219363 0.046132
0.244581 0.212868 0.039216
0.305040 0.212362 0.034452
0.360049 0.215196 0.034746
0.412745 0.220711 0.040663
0.464074 0.226000 0.045221
0.515564 0.230515 0.051593
0.563848 0.238235 0.058108
0.604534 0.243482 0.061987
0.643138 0.249755 0.067712
0.676854 0.257475 0.071553
0.711152 0.265196 0.075395
0.739461 0.271148 0.079235
0.768995 0.280638 0.083077
0.797304 0.288358 0.087255
0.823407 0.296079 0.090491
0.849142 0.306372 0.094118
0.869730 0.315441 0.098039
0.892724 0.325735 0.099709
0.912132 0.335045 0.102087
0.931127 0.345182 0.105882
0.946569 0.356740 0.106005
0.958088 0.365809 0.109804
0.019608 0.204412 0.045588
0.019608 0.212132 0.045588
0.024908 0.217555 0.049356
0.031005 0.225123 0.053064
0.038726 0.231373 0.053431
0.043995 0.239093 0.057353
0.051715 0.246814 0.059804
0.059437 0.254534 0.059804
0.082353 0.264706 0.056250
0.122794 0.269608 0.053431
0.181587 0.266912 0.053431
0.247534 0.264721 0.046936
0.310723 0.258762 0.042586
0.367770 0.257843 0.038619
0.423193 0.261520 0.043873
0.478309 0.265319 0.049142
0.531863 0.271078 0.054167
0.580637 0.276838 0.059973
0.621323 0.281465 0.064461
0.659927 0.288358 0.068260
0.696140 0.296079 0.072059
0.727941 0.301348 0.075858
0.758824 0.311520 0.079657
0.787546 0.319240 0.083456
0.815196 0.326960 0.087255
0.842769 0.337454 0.091054
0.865932 0.346323 0.094118
0.889093 0.354657 0.098039
0.910478 0.365686 0.098529
0.929795 0.377329 0.101961
0.946569 0.387592 0.105882
0.959436 0.396692 0.106005
0.967157 0.404412 0.109804
0.017279 0.239093 0.053309
0.019608 0.246814 0.053309
0.023383 0.254534 0.057131
0.028895 0.264583 0.061003
0.034804 0.273698 0.064875
0.042524 0.281618 0.068746
0.050245 0.289338 0.071324
0.057966 0.298878 0.075245
0.078432 0.310049 0.068382
0.118872 0.318750 0.061807
0.178431 0.317157 0.061152
0.250613 0.312010 0.056005
0.316054 0.309559 0.049984
0.375490 0.304166 0.046411
0.431740 0.304166 0.046362
0.487500 0.305760 0.052217
0.543505 0.309681 0.056863
0.593750 0.315441 0.061899
0.636765 0.319240 0.065771
0.675368 0.326961 0.069642
0.712500 0.334681 0.073514
0.743382 0.340809 0.077386
0.774265 0.350123 0.081258
0.805147 0.357843 0.085130
0.832690 0.366146 0.087255
0.862132 0.377206 0.090545
0.885294 0.385662 0.094118
0.908207 0.396569 0.096075
0.927696 0.406817 0.098039
0.946569 0.416299 0.099851
0.959681 0.425245 0.102206
0.970956 0.432966 0.105955
0.974878 0.440687 0.109804
0.015686 0.281618 0.063236
0.015686 0.289338 0.064898
0.023284 0.299127 0.068765
0.027083 0.306985 0.074632
0.034804 0.314706 0.078646
0.040319 0.324142 0.082843
0.046645 0.331863 0.086765
0.057966 0.341307 0.090204
0.078432 0.352880 0.083824
0.117769 0.362868 0.073897
0.177742 0.362791 0.068873
0.249854 0.358923 0.062378
0.320496 0.358333 0.051807
0.379412 0.354289 0.051876
0.439461 0.349525 0.049265
0.495220 0.347480 0.050980
0.551225 0.350245 0.056863
0.605392 0.354044 0.062745
0.647794 0.359084 0.067632
0.688603 0.365564 0.071484
0.724663 0.373284 0.074510
0.758824 0.381005 0.078431
0.789706 0.388725 0.082353
0.819968 0.396446 0.084689
0.847978 0.405147 0.087255
0.877573 0.415809 0.090196
0.900735 0.427451 0.092326
0.923552 0.435784 0.094118
0.942862 0.446814 0.098039
0.959436 0.454534 0.100406
0.967157 0.462255 0.104274
0.972672 0.469975 0.109804
0.978677 0.477697 0.113725
0.013603 0.322304 0.074755
0.015686 0.331863 0.078611
0.019608 0.341667 0.082468
0.027083 0.351053 0.090074
0.031373 0.358946 0.093872
0.038603 0.366667 0.097959
0.046324 0.374387 0.101815
0.057966 0.382108 0.103642
0.079412 0.394332 0.096323
0.114951 0.405392 0.084218
0.177206 0.406495 0.077244
0.249264 0.403290 0.072672
0.322089 0.404657 0.058088
0.384325 0.406641 0.054155
0.444187 0.400613 0.053868
0.502941 0.395837 0.054040
0.558946 0.392892 0.056863
0.610053 0.395707 0.061638
0.655515 0.400368 0.067471
0.696324 0.406250 0.071335
0.734927 0.411887 0.074510
0.768260 0.419608 0.078431
0.799142 0.427328 0.082353
0.830024 0.435049 0.082870
0.859528 0.445313 0.086275
0.887010 0.454412 0.088569
0.912255 0.466054 0.090931
0.933333 0.474062 0.094443
0.951823 0.483333 0.098529
0.963040 0.490882 0.102329
0.968872 0.496936 0.106127
0.976471 0.504592 0.109927
0.980392 0.510294 0.113725
0.011765 0.368627 0.090196
0.015686 0.378309 0.094056
0.019608 0.386029 0.099755
0.027083 0.395527 0.105515
0.033088 0.403431 0.109558
0.038603 0.409497 0.113419
0.047917 0.415319 0.117279
0.059498 0.422672 0.119608
0.079412 0.436764 0.111764
0.118321 0.447917 0.095772
0.179167 0.452941 0.087500
0.249939 0.449694 0.083027
0.322549 0.451471 0.071078
0.389216 0.456066 0.058456
0.448775 0.456863 0.057966
0.508824 0.448897 0.060784
0.566667 0.446079 0.060784
0.616912 0.445099 0.063664
0.661520 0.446814 0.065564
0.702083 0.450613 0.070588
0.740686 0.455637 0.073284
0.775980 0.462132 0.077144
0.806863 0.469853 0.079657
0.837745 0.477574 0.082905
0.868627 0.487255 0.086765
0.894730 0.494975 0.090625
0.919485 0.505024 0.094486
0.940441 0.514338 0.098039
0.953676 0.521814 0.101961
0.965074 0.527635 0.105882
0.968872 0.533456 0.109804
0.976471 0.539339 0.113725
0.980392 0.547059 0.117647
0.011765 0.411275 0.105637
0.015686 0.420834 0.109501
0.021331 0.428554 0.117157
0.027083 0.436275 0.120956
0.034804 0.442157 0.125245
0.040767 0.449878 0.129166
0.049854 0.455515 0.133088
0.061029 0.463235 0.134716
0.082813 0.480760 0.124265
0.123529 0.492865 0.107843
0.183617 0.495466 0.101103
0.253818 0.495466 0.095221
0.324020 0.496615 0.083900
0.393505 0.502462 0.066177
0.454779 0.507353 0.064583
0.510539 0.506855 0.064583
0.570588 0.498223 0.066667
0.624632 0.496328 0.068505
0.667034 0.495221 0.069416
0.707843 0.497304 0.073273
0.744608 0.498085 0.075199
0.780496 0.504657 0.079063
0.812745 0.511803 0.082928
0.843628 0.516176 0.086275
0.872947 0.525980 0.088634
0.901015 0.534103 0.092490
0.923384 0.543260 0.096347
0.942402 0.550693 0.100203
0.953921 0.556863 0.104059
0.965074 0.560662 0.107916
0.968872 0.568137 0.110049
0.976471 0.572181 0.113848
0.980392 0.579902 0.117647
0.011765 0.447794 0.121078
0.015686 0.455515 0.124931
0.023284 0.463235 0.132598
0.027244 0.470956 0.136558
0.034804 0.478676 0.142188
0.042524 0.486397 0.146055
0.050245 0.492724 0.149923
0.064951 0.501838 0.149387
0.087990 0.521017 0.135784
0.132353 0.531732 0.123284
0.190686 0.534068 0.114461
0.260172 0.534068 0.106740
0.328584 0.536520 0.097947
0.397427 0.544240 0.077206
0.461259 0.550720 0.072304
0.518260 0.554588 0.070588
0.575368 0.553186 0.071446
0.628431 0.544539 0.073338
0.673039 0.543627 0.075261
0.711642 0.543627 0.077121
0.749601 0.543627 0.080147
0.783579 0.544386 0.082943
0.816667 0.548575 0.086811
0.846928 0.554779 0.088611
0.875490 0.560784 0.092463
0.904534 0.568505 0.096316
0.926961 0.576225 0.098774
0.942402 0.583602 0.102229
0.953921 0.587745 0.106096
0.964913 0.591544 0.109804
0.968872 0.597411 0.113725
0.976471 0.603010 0.117647
0.980392 0.606863 0.119363
0.015686 0.484804 0.136519
0.019485 0.492525 0.141985
0.023284 0.500245 0.149632
0.028895 0.507966 0.155760
0.034804 0.513649 0.161152
0.042524 0.521078 0.165315
0.055025 0.528799 0.167892
0.070466 0.539583 0.167892
0.098652 0.558548 0.154167
0.142892 0.567647 0.138725
0.199632 0.572672 0.129902
0.267344 0.572672 0.121136
0.333456 0.575995 0.111412
0.399966 0.582843 0.091912
0.466299 0.590564 0.079128
0.523897 0.596201 0.076103
0.580392 0.600919 0.076103
0.630637 0.595956 0.078431
0.677857 0.589951 0.080024
0.718716 0.587412 0.083000
0.754044 0.586030 0.083946
0.787377 0.586030 0.086823
0.818260 0.588358 0.090196
0.848694 0.591135 0.092444
0.878432 0.595588 0.096293
0.904534 0.603309 0.098388
0.926961 0.607108 0.102260
0.942402 0.614215 0.105882
0.953431 0.618428 0.107766
0.963262 0.622277 0.111615
0.968872 0.626126 0.115464
0.976471 0.630024 0.117770
0.978799 0.636152 0.121569
0.015686 0.519608 0.155882
0.019531 0.527329 0.161152
0.023529 0.535049 0.168873
0.031005 0.542770 0.176593
0.036581 0.548039 0.180392
0.047687 0.555760 0.184574
0.061550 0.562286 0.187255
0.077864 0.574801 0.185340
0.106372 0.595466 0.171691
0.152773 0.604779 0.154167
0.209589 0.607353 0.145343
0.275613 0.610769 0.133701
0.342647 0.613725 0.125980
0.406740 0.621446 0.109084
0.472304 0.629167 0.085539
0.533012 0.634804 0.083042
0.585784 0.640686 0.079902
0.636029 0.645420 0.081051
0.680882 0.638480 0.082996
0.723162 0.631755 0.086872
0.759375 0.627880 0.088664
0.791177 0.626961 0.090702
0.822059 0.626961 0.092433
0.851471 0.626961 0.096278
0.880515 0.629779 0.098407
0.907598 0.634191 0.102283
0.926961 0.637990 0.105882
0.942402 0.643857 0.107736
0.953431 0.645588 0.110294
0.961152 0.649387 0.113863
0.968872 0.653186 0.117739
0.976471 0.659360 0.121569
0.976471 0.663235 0.125490
0.015686 0.554412 0.176593
0.019608 0.562133 0.184314
0.027206 0.569853 0.192034
0.032353 0.577573 0.196201
0.042325 0.583042 0.202374
0.055025 0.589093 0.204044
0.066544 0.596814 0.206618
0.085049 0.611519 0.203554
0.118046 0.630239 0.189951
0.166556 0.639583 0.173529
0.222495 0.641613 0.159857
0.288603 0.644608 0.149142
0.350873 0.647564 0.138465
0.415009 0.655580 0.123529
0.477819 0.665296 0.096913
0.539583 0.670853 0.089461
0.591544 0.674694 0.087623
0.641196 0.681740 0.087623
0.684436 0.682008 0.087623
0.725613 0.675735 0.090744
0.763251 0.669485 0.094623
0.794975 0.665564 0.095466
0.825858 0.665143 0.099387
0.854668 0.664216 0.100111
0.882353 0.664216 0.102298
0.908456 0.665074 0.105882
0.926961 0.668872 0.107713
0.942402 0.672461 0.111152
0.953431 0.675980 0.113894
0.961152 0.678681 0.117773
0.968872 0.682559 0.121569
0.972672 0.686439 0.122997
0.976471 0.691667 0.126838
0.019608 0.589216 0.199755
0.023406 0.596936 0.207476
0.028600 0.604657 0.214047
0.039706 0.608571 0.218995
0.048867 0.616177 0.223131
0.062745 0.620588 0.225559
0.074495 0.628692 0.225980
0.093995 0.642402 0.220220
0.129902 0.661765 0.205392
0.180147 0.670466 0.188090
0.239706 0.675490 0.173529
0.301471 0.678064 0.161589
0.362010 0.681863 0.150031
0.423775 0.689584 0.135049
0.485539 0.697304 0.111275
0.545221 0.705024 0.097181
0.601225 0.709436 0.095343
0.646975 0.712622 0.094118
0.688235 0.718627 0.094654
0.726340 0.715931 0.095343
0.767126 0.710539 0.098039
0.801470 0.703745 0.100192
0.829657 0.700245 0.103186
0.858556 0.699020 0.106227
0.886275 0.696323 0.107108
0.909413 0.696913 0.110072
0.926961 0.699020 0.111535
0.942402 0.701716 0.114951
0.953431 0.702941 0.117800
0.961152 0.705752 0.121569
0.968627 0.709635 0.122963
0.972633 0.713519 0.126800
0.976471 0.718627 0.129412
0.020711 0.620098 0.221814
0.028431 0.627818 0.229534
0.036152 0.635540 0.234437
0.047426 0.639706 0.238499
0.058946 0.647059 0.242387
0.070466 0.651298 0.245343
0.083617 0.660869 0.245343
0.105273 0.676103 0.238358
0.144363 0.691544 0.220833
0.195278 0.701348 0.201593
0.254389 0.704389 0.186987
0.312990 0.706373 0.173150
0.374066 0.712745 0.160907
0.435417 0.720465 0.144811
0.494975 0.728186 0.123897
0.552941 0.735907 0.104902
0.608946 0.739706 0.100552
0.653948 0.745002 0.099142
0.694853 0.747304 0.099142
0.732311 0.752286 0.099142
0.768137 0.748039 0.101961
0.805392 0.740698 0.102340
0.835394 0.736864 0.106227
0.863235 0.733031 0.109804
0.889216 0.729902 0.111611
0.911520 0.729902 0.113966
0.926961 0.729902 0.117647
0.942402 0.729902 0.118750
0.953431 0.730254 0.121569
0.961048 0.733824 0.122936
0.964951 0.737745 0.126769
0.972549 0.741755 0.129446
0.975368 0.745588 0.133333
0.029412 0.651961 0.243138
0.036152 0.659681 0.249878
0.044853 0.666483 0.254840
0.055515 0.671477 0.261397
0.066789 0.676348 0.261765
0.078339 0.682720 0.264246
0.093628 0.691238 0.260969
0.115839 0.710049 0.253033
0.154902 0.726471 0.232353
0.209650 0.738113 0.211152
0.263970 0.739216 0.194608
0.324510 0.742126 0.179810
0.385662 0.745956 0.167647
0.443536 0.755055 0.149878
0.502696 0.763971 0.126716
0.557720 0.767770 0.111642
0.612745 0.771568 0.106372
0.662990 0.774908 0.102941
0.700306 0.776471 0.102941
0.736765 0.781985 0.102941
0.771569 0.783211 0.104044
0.802818 0.776440 0.105882
0.840196 0.770282 0.107782
0.868137 0.766391 0.109804
0.894118 0.764706 0.113725
0.912500 0.761765 0.117647
0.930331 0.760784 0.117831
0.942402 0.757843 0.121569
0.953431 0.760784 0.125490
0.958119 0.762041 0.125766
0.964951 0.765870 0.129412
0.969699 0.769700 0.129535
0.973529 0.773529 0.133333
0.040074 0.685784 0.264461
0.047794 0.694363 0.272181
0.055515 0.702030 0.275981
0.063235 0.709804 0.279002
0.074877 0.714461 0.279289
0.086520 0.722181 0.279289
0.101348 0.732392 0.272181
0.119853 0.751406 0.261397
0.160784 0.775735 0.234651
0.219485 0.784436 0.210294
0.275222 0.784949 0.193750
0.335466 0.784681 0.179167
0.394486 0.788282 0.163725
0.454780 0.793995 0.145607
0.510899 0.798169 0.125000
0.566755 0.803431 0.115563
0.620466 0.803431 0.110233
0.670309 0.806495 0.106740
0.709199 0.807353 0.106740
0.741808 0.808598 0.106740
0.775367 0.814338 0.106740
0.806250 0.811274 0.106740
0.840196 0.806128 0.109804
0.871695 0.802328 0.110045
0.897917 0.797886 0.113725
0.916299 0.794730 0.117647
0.931740 0.791667 0.118382
0.945711 0.790809 0.121569
0.953431 0.790916 0.125490
0.961152 0.791954 0.125858
0.965755 0.795780 0.129412
0.972549 0.799605 0.130365
0.976471 0.803431 0.133333
0.047794 0.722059 0.279902
0.055515 0.733701 0.283801
0.063235 0.744408 0.287700
0.070956 0.752995 0.290633
0.082598 0.760784 0.288144
0.094240 0.767770 0.287010
0.109069 0.772304 0.279902
0.127574 0.789338 0.265893
0.165441 0.820895 0.228860
0.227941 0.827734 0.202574
0.286780 0.827205 0.188955
0.344723 0.823284 0.174510
0.404657 0.822825 0.159069
0.462799 0.824877 0.140878
0.520665 0.830392 0.129335
0.576103 0.833579 0.120221
0.626226 0.833579 0.116421
0.674165 0.833579 0.114116
0.715196 0.833579 0.110539
0.748284 0.833579 0.110539
0.779167 0.837500 0.110539
0.812140 0.840326 0.113725
0.840701 0.836504 0.114460
0.875000 0.830185 0.114460
0.901164 0.826286 0.117831
0.920098 0.822388 0.118382
0.935401 0.818489 0.121707
