src/assets/LUTs/freeLUTs/Summer.cube
TITLE "Summer LUT by rossandhisjpegs"
LUT_3D_SIZE 9
DOMAIN_MIN 0.0 0.0 0.0
DOMAIN_MAX 1.0 1.0 1.0
0.019608 0.023529 0.027451
0.038726 0.027451 0.027451
0.080392 0.027451 0.027451
0.154902 0.033824 0.031373
0.284314 0.043137 0.031373
0.408334 0.050980 0.035294
0.517647 0.054902 0.043137
0.608823 0.058824 0.050980
0.674510 0.062745 0.054902
0.019608 0.050490 0.031373
0.046569 0.054412 0.031373
0.099510 0.054412 0.035294
0.211275 0.054412 0.035294
0.357843 0.062255 0.035049
0.494608 0.070098 0.042647
0.610294 0.074020 0.050980
0.709804 0.078370 0.059253
0.790196 0.093138 0.070098
0.019608 0.103921 0.038235
0.042279 0.114706 0.039216
0.114461 0.117647 0.035294
0.274878 0.114093 0.036275
0.441177 0.121078 0.041177
0.598529 0.137377 0.054289
0.727696 0.163725 0.073530
0.839706 0.197672 0.092647
0.914706 0.233333 0.112745
0.019608 0.204412 0.045588
0.038726 0.231373 0.053431
0.082353 0.264706 0.056250
0.310723 0.258762 0.042586
0.531863 0.271078 0.054167
0.696140 0.296079 0.072059
0.815196 0.326960 0.087255
0.910478 0.365686 0.098529
0.967157 0.404412 0.109804
0.011765 0.368627 0.090196
0.033088 0.403431 0.109558
0.079412 0.436764 0.111764
0.322549 0.451471 0.071078
0.566667 0.446079 0.060784
0.740686 0.455637 0.073284
0.868627 0.487255 0.086765
0.953676 0.521814 0.101961
0.980392 0.547059 0.117647
0.015686 0.519608 0.155882
0.036581 0.548039 0.180392
0.106372 0.595466 0.171691
0.342647 0.613725 0.125980
0.585784 0.640686 0.079902
0.759375 0.627880 0.088664
0.880515 0.629779 0.098407
0.953431 0.645588 0.110294
0.976471 0.663235 0.125490
0.029412 0.651961 0.243138
0.066789 0.676348 0.261765
0.154902 0.726471 0.232353
0.385662 0.745956 0.167647
0.612745 0.771568 0.106372
0.771569 0.783211 0.104044
0.894118 0.764706 0.113725
0.953431 0.760784 0.125490
0.973529 0.773529 0.133333
0.063235 0.810784 0.302451
0.098039 0.845098 0.302022
0.188603 0.895220 0.219363
0.425980 0.884130 0.162439
0.643873 0.886030 0.129657
0.790686 0.881189 0.125490
0.905883 0.878921 0.126838
0.957353 0.864645 0.133823
0.976471 0.875490 0.141666
0.098039 0.925490 0.345098
0.136275 0.929412 0.318627
0.289216 0.950000 0.221569
0.503431 0.941176 0.177941
0.694117 0.933333 0.152941
0.827941 0.929412 0.149020
0.928431 0.928432 0.149020
0.965196 0.917647 0.152941
0.972549 0.917647 0.152941
0.019608 0.027451 0.050490
0.038726 0.027451 0.046998
0.080392 0.027451 0.042647
0.158824 0.031679 0.038726
0.292157 0.043137 0.038726
0.413725 0.050980 0.038910
0.525490 0.054902 0.046691
0.616666 0.058824 0.055331
0.685785 0.062745 0.066177
0.019608 0.053922 0.058334
0.046515 0.054412 0.058334
0.102451 0.058334 0.057844
0.219118 0.058334 0.050490
0.367402 0.066177 0.047059
0.505882 0.070098 0.055990
0.621140 0.074877 0.065962
0.721454 0.081863 0.077458
0.805392 0.099571 0.088787
0.019608 0.106863 0.065687
0.043505 0.118459 0.068428
0.117555 0.122457 0.065441
0.286045 0.121568 0.055423
0.456618 0.130147 0.059620
0.614032 0.148116 0.077313
0.741054 0.175398 0.099418
0.848529 0.206694 0.119240
0.922549 0.244117 0.135784
0.019608 0.212255 0.072243
0.038726 0.242953 0.087316
0.087378 0.278968 0.091361
0.325306 0.272350 0.072243
0.547457 0.282598 0.079902
0.707644 0.307468 0.095098
0.824372 0.339583 0.109972
0.918321 0.379795 0.121079
0.971078 0.416176 0.132843
0.015441 0.381862 0.126471
0.034804 0.414706 0.149541
0.086091 0.445098 0.151654
0.334957 0.466667 0.103523
0.578431 0.459681 0.087745
0.751562 0.469118 0.098284
0.876471 0.499020 0.111764
0.957568 0.531832 0.125459
0.980392 0.554902 0.140686
0.016973 0.536275 0.203432
0.040196 0.566031 0.226961
0.108456 0.598407 0.216054
0.351777 0.625375 0.160669
0.595343 0.652267 0.110447
0.765135 0.639530 0.117448
0.886275 0.639200 0.125368
0.957353 0.655285 0.136949
0.976471 0.671079 0.149816
0.035907 0.671079 0.288236
0.071078 0.695144 0.306970
0.150705 0.733119 0.274479
0.390686 0.757675 0.201961
0.620588 0.780699 0.133578
0.775490 0.789216 0.129825
0.897917 0.770251 0.140410
0.953431 0.766008 0.149770
0.973529 0.780393 0.160294
0.070588 0.829902 0.348530
0.101961 0.861160 0.352022
0.176792 0.895833 0.272304
0.428163 0.896607 0.194424
0.645589 0.893413 0.158578
0.794447 0.887746 0.152880
0.905928 0.883594 0.156051
0.960845 0.871622 0.161159
0.975981 0.879902 0.168566
0.101961 0.932843 0.406372
0.140196 0.933333 0.391667
0.252819 0.969853 0.278186
0.494608 0.949816 0.221078
0.688481 0.937255 0.196568
0.824204 0.932843 0.186764
0.928431 0.932353 0.176838
0.968627 0.917647 0.187684
0.972549 0.917647 0.194607
0.019608 0.035294 0.092157
0.026961 0.031741 0.098652
0.083579 0.031373 0.086030
0.158824 0.031373 0.068995
0.292157 0.041667 0.061765
0.417647 0.050980 0.065074
0.533334 0.054902 0.073529
0.623652 0.058824 0.084437
0.690196 0.059804 0.093137
0.019608 0.058334 0.096078
0.031863 0.064829 0.103921
0.104779 0.061857 0.104166
0.223040 0.054948 0.081863
0.371324 0.064645 0.074816
0.510294 0.070098 0.084942
0.628768 0.074020 0.096017
0.728922 0.082292 0.107583
0.813235 0.103921 0.129044
0.019608 0.110049 0.121568
0.042647 0.120558 0.129412
0.114277 0.129228 0.129963
0.293505 0.129136 0.107077
0.467647 0.136642 0.102696
0.625980 0.153064 0.124326
0.751593 0.180208 0.146078
0.853431 0.214216 0.168382
0.926471 0.248039 0.188235
0.017157 0.225858 0.149387
0.037117 0.260294 0.172105
0.090564 0.287255 0.174908
0.329641 0.288465 0.141406
0.558578 0.295588 0.124265
0.709053 0.318627 0.138986
0.824663 0.350674 0.154167
0.920052 0.391131 0.167999
0.975491 0.427941 0.192157
0.015686 0.402941 0.214706
0.034804 0.437745 0.243198
0.090687 0.457721 0.243015
0.328370 0.479718 0.185478
0.578431 0.476716 0.147304
0.757598 0.481373 0.151961
0.881372 0.511520 0.162623
0.961274 0.543137 0.179657
0.980392 0.566667 0.200000
0.019608 0.562255 0.290319
0.045726 0.594026 0.323606
0.110998 0.607935 0.318597
0.340319 0.637025 0.245879
0.592157 0.662990 0.175490
0.763113 0.650812 0.178692
0.886428 0.646906 0.185110
0.961274 0.664614 0.194608
0.976471 0.680025 0.209927
0.040196 0.700245 0.378431
0.075000 0.726256 0.404534
0.140502 0.737316 0.386090
0.365717 0.771324 0.293045
0.603922 0.786765 0.246691
0.767923 0.796446 0.198407
0.891544 0.777206 0.205086
0.953676 0.772641 0.220557
0.972794 0.785049 0.244853
0.071078 0.852451 0.454412
0.105392 0.879197 0.473897
0.174020 0.887255 0.427941
0.377865 0.920098 0.317034
0.618076 0.899693 0.286949
0.780438 0.894240 0.266621
0.895098 0.890686 0.227513
0.960845 0.875536 0.269286
0.975981 0.883333 0.285784
0.101961 0.944117 0.549020
0.140196 0.944117 0.543628
0.216667 0.941176 0.470588
0.433823 0.966176 0.369608
0.654902 0.944608 0.343628
0.805024 0.936274 0.326348
0.912990 0.937010 0.297794
0.965196 0.921569 0.307843
0.972549 0.921569 0.311765
0.019608 0.049510 0.174510
0.019608 0.049510 0.186275
0.056863 0.047059 0.198039
0.173591 0.039216 0.146997
0.295343 0.039216 0.104166
0.417647 0.043689 0.099020
0.534314 0.050980 0.108333
0.628431 0.055208 0.118811
0.690196 0.058824 0.130392
0.019608 0.076470 0.182353
0.023529 0.080392 0.201203
0.062255 0.080484 0.225230
0.227221 0.064400 0.181671
0.378921 0.062255 0.143229
0.518022 0.068918 0.139775
0.636290 0.074020 0.155024
0.736742 0.082292 0.175452
0.815870 0.110478 0.209314
0.019608 0.123162 0.209314
0.034406 0.136458 0.221032
0.066269 0.150582 0.239216
0.287025 0.140809 0.230208
0.483640 0.141422 0.206863
0.646339 0.159191 0.216958
0.765502 0.183946 0.235294
0.861367 0.211274 0.258701
0.930760 0.242157 0.289216
0.019608 0.227390 0.264216
0.038726 0.264277 0.299020
0.082721 0.298529 0.324648
0.288779 0.314966 0.313013
0.542126 0.314277 0.271140
0.698874 0.327512 0.276187
0.818367 0.352481 0.293199
0.915985 0.388925 0.318076
0.972549 0.426471 0.352880
0.015686 0.411764 0.363971
0.038082 0.448529 0.399510
0.090687 0.484988 0.417647
0.247335 0.496293 0.370619
0.553064 0.500490 0.320956
0.752911 0.501501 0.294332
0.867402 0.529105 0.313726
0.953340 0.560539 0.340686
0.979167 0.584804 0.371569
0.019608 0.594056 0.457353
0.047549 0.630874 0.496078
0.112255 0.660861 0.510738
0.253554 0.643628 0.435356
0.552727 0.668628 0.368168
0.741812 0.665625 0.339622
0.874433 0.659681 0.330821
0.961274 0.678118 0.341169
0.976471 0.694608 0.369118
0.040196 0.750980 0.562745
0.075322 0.780883 0.593260
0.142157 0.787102 0.575827
0.268306 0.772120 0.486075
0.558149 0.788664 0.412806
0.744838 0.800919 0.380453
0.871783 0.787041 0.351133
0.952574 0.780393 0.378876
0.976471 0.792157 0.398530
0.071078 0.880208 0.651164
0.105553 0.901854 0.666667
0.174020 0.903508 0.613726
0.269731 0.909559 0.516797
0.570006 0.912592 0.442157
0.749196 0.899441 0.426961
0.872059 0.898529 0.405086
0.953615 0.879412 0.410761
0.973836 0.887255 0.424204
0.101961 0.949020 0.727451
0.140196 0.952941 0.726470
0.212745 0.947917 0.655760
0.321507 0.961336 0.553003
0.610049 0.958088 0.484804
0.770527 0.941176 0.469608
0.887745 0.941176 0.453431
0.962745 0.925490 0.437255
0.972549 0.924020 0.441177
0.019608 0.068628 0.290196
0.019608 0.068628 0.301471
0.039706 0.064706 0.316667
0.114706 0.055637 0.309314
0.310785 0.052941 0.235294
0.432108 0.050980 0.192647
0.549020 0.054902 0.184314
0.638726 0.058824 0.194363
0.703921 0.062745 0.213726
0.019608 0.095588 0.298039
0.019608 0.102941 0.316942
0.047549 0.103002 0.339951
0.147886 0.081036 0.344118
0.383088 0.075980 0.279780
0.535111 0.076470 0.250000
0.658885 0.080086 0.256373
0.760049 0.091391 0.277206
0.837010 0.121569 0.313725
0.019608 0.145098 0.312745
0.022794 0.159375 0.328186
0.054902 0.174020 0.356740
0.171017 0.172549 0.395404
0.481618 0.164706 0.348774
0.653125 0.176287 0.337990
0.773529 0.201471 0.356372
0.868689 0.228860 0.379902
0.931372 0.262745 0.410784
0.015686 0.247059 0.372059
0.034161 0.284314 0.406128
0.062500 0.320956 0.429412
0.173193 0.339706 0.444608
0.522181 0.330392 0.421814
0.695619 0.336703 0.406863
0.814216 0.356372 0.419608
0.909314 0.384712 0.442647
0.958088 0.422059 0.482598
0.019608 0.414706 0.477451
0.038726 0.452451 0.513235
0.082843 0.484804 0.537990
0.210417 0.507108 0.538603
0.507353 0.520098 0.516667
0.725245 0.531127 0.480760
0.843137 0.548039 0.492647
0.934314 0.568137 0.508333
0.970588 0.593137 0.535294
0.020343 0.587745 0.578922
0.044118 0.622549 0.614461
0.108333 0.651471 0.631863
0.217157 0.674510 0.622978
0.483333 0.674755 0.570466
0.716115 0.684589 0.520527
0.864155 0.679044 0.498713
0.948928 0.697059 0.517892
0.976471 0.716176 0.543138
0.040196 0.738725 0.678431
0.074510 0.767831 0.707047
0.138358 0.790196 0.713113
0.238971 0.806066 0.688480
0.480392 0.793382 0.597549
0.709865 0.801470 0.554595
0.846814 0.798407 0.527451
0.945098 0.791912 0.530515
0.976471 0.803431 0.546078
0.071078 0.862745 0.765686
0.101961 0.885785 0.783119
0.170282 0.904412 0.774510
0.262745 0.910049 0.728431
0.475735 0.915318 0.617034
0.709559 0.904657 0.580790
0.845221 0.900368 0.568137
0.939951 0.889216 0.544148
0.970588 0.891176 0.570588
0.101961 0.931372 0.811764
0.136275 0.935294 0.819608
0.208824 0.943137 0.812745
0.297549 0.947794 0.759313
0.525490 0.956863 0.649019
0.732108 0.952206 0.614216
0.860785 0.945098 0.599510
0.947794 0.934804 0.576470
0.968627 0.929412 0.578431
0.019608 0.082353 0.392647
0.019608 0.082537 0.400490
0.026471 0.078799 0.415809
0.077941 0.075061 0.427941
0.268873 0.062745 0.400000
0.452941 0.064216 0.320588
0.562868 0.062745 0.290687
0.656373 0.066667 0.295098
0.721569 0.070588 0.314216
0.015686 0.113235 0.400490
0.015686 0.118444 0.419179
0.035876 0.118444 0.440870
0.085784 0.107843 0.458824
0.332598 0.087745 0.434804
0.541667 0.084674 0.372059
0.662133 0.085555 0.361887
0.764216 0.104863 0.379902
0.841176 0.136581 0.414706
0.015686 0.167157 0.415196
0.015686 0.180530 0.430882
0.041789 0.195466 0.460999
0.093076 0.201409 0.502941
0.413174 0.188787 0.509988
0.651103 0.195588 0.459682
0.772702 0.215073 0.459835
0.865687 0.245588 0.485646
0.926348 0.283333 0.527083
0.011765 0.276471 0.466667
0.024686 0.311206 0.495159
0.052221 0.346768 0.524510
0.116115 0.366667 0.552941
0.398008 0.355392 0.589216
0.682269 0.357904 0.539645
0.807675 0.380530 0.543627
0.901471 0.410294 0.574510
0.949020 0.449020 0.610784
0.019608 0.430147 0.573039
0.038726 0.467647 0.609068
0.073591 0.498529 0.630821
0.175460 0.521569 0.633088
0.395956 0.537010 0.641667
0.699816 0.537224 0.621293
0.828676 0.552206 0.617953
0.918627 0.567739 0.629902
0.952941 0.595588 0.657353
0.023529 0.591667 0.680331
0.045228 0.627941 0.717218
0.107353 0.657353 0.737454
0.212194 0.669546 0.729473
0.451471 0.679933 0.715196
0.690073 0.692157 0.686719
0.840135 0.700000 0.657644
0.925551 0.710961 0.668007
0.959865 0.727451 0.687316
0.037255 0.738235 0.775980
0.071400 0.766529 0.802987
0.136029 0.783578 0.807261
0.234084 0.791743 0.790227
0.432353 0.805637 0.768628
0.670787 0.807154 0.713067
0.826624 0.811029 0.682782
0.938235 0.807047 0.668765
0.967157 0.818627 0.684314
0.066973 0.856679 0.831189
0.101471 0.878286 0.842647
0.169118 0.889584 0.848407
0.258823 0.897120 0.841973
0.419117 0.907353 0.806373
0.659252 0.909980 0.724755
0.819118 0.902941 0.707353
0.925184 0.898591 0.677060
0.960784 0.895282 0.696385
0.094118 0.920098 0.865686
0.132843 0.924020 0.871752
0.204902 0.929412 0.873529
0.289706 0.934865 0.871078
0.476961 0.945098 0.832108
0.685233 0.952941 0.750429
0.833824 0.949020 0.730392
0.928922 0.948714 0.711274
0.960784 0.938725 0.702451
0.015686 0.094118 0.469608
0.015686 0.095098 0.480024
0.015686 0.091912 0.491422
0.062745 0.090196 0.506740
0.195588 0.074510 0.499020
0.431372 0.077328 0.446936
0.579657 0.071569 0.395833
0.663848 0.070588 0.388236
0.725490 0.074510 0.402941
0.015686 0.125000 0.483946
0.015686 0.129779 0.496998
0.025398 0.132475 0.515288
0.071492 0.127191 0.537622
0.251654 0.096324 0.535294
0.515564 0.096216 0.486275
0.669057 0.098989 0.456863
0.768137 0.117479 0.468566
0.841666 0.150980 0.502574
0.015686 0.184559 0.496079
0.011857 0.197794 0.512623
0.033149 0.212132 0.539889
0.075337 0.226471 0.582169
0.314828 0.210417 0.614093
0.620404 0.214093 0.578922
0.766667 0.231373 0.571814
0.860907 0.258333 0.584773
0.923529 0.296814 0.622549
0.011765 0.303799 0.543627
0.015640 0.334314 0.570266
0.044455 0.369118 0.604779
0.089154 0.389706 0.637745
0.294608 0.387010 0.678370
0.641697 0.377329 0.675368
0.798529 0.396906 0.660417
0.897672 0.425123 0.670512
0.947917 0.463235 0.705882
0.015196 0.448039 0.645588
0.034375 0.486765 0.679106
0.063481 0.521569 0.703799
0.144118 0.543076 0.710049
0.312010 0.555392 0.726471
0.623039 0.546814 0.754963
0.818505 0.561765 0.723775
0.911275 0.581311 0.728677
0.949020 0.605882 0.750000
0.023529 0.604411 0.759681
0.046569 0.639216 0.794117
0.105239 0.665441 0.810907
0.204902 0.676471 0.801991
0.399387 0.684069 0.784865
0.620405 0.696446 0.778294
0.822794 0.700705 0.759835
0.913848 0.710799 0.761397
0.948407 0.725981 0.777574
0.036275 0.743137 0.845343
0.071078 0.769210 0.858487
0.138664 0.785110 0.868811
0.231863 0.788235 0.866942
0.423775 0.792157 0.845098
0.655637 0.801654 0.825797
0.809498 0.814951 0.805270
0.921569 0.818964 0.783670
0.953676 0.830637 0.796079
0.063113 0.857721 0.880882
0.097549 0.875981 0.889048
0.170098 0.883824 0.895588
0.258517 0.887746 0.896569
0.408089 0.889032 0.888113
0.644072 0.899816 0.864706
0.797059 0.906862 0.823407
0.907230 0.903049 0.800858
0.956863 0.900000 0.792034
0.090196 0.913725 0.911765
0.132353 0.917647 0.918260
0.204902 0.923775 0.919608
0.286887 0.925490 0.919608
0.462255 0.928922 0.915686
0.666177 0.942279 0.888113
0.807843 0.952941 0.839216
0.909804 0.949020 0.823039
0.952941 0.949020 0.807844
0.015686 0.102451 0.525980
0.015686 0.105882 0.533823
0.015686 0.102084 0.545588
0.051961 0.098039 0.561274
0.140686 0.082353 0.561519
0.402267 0.086275 0.531372
0.577451 0.078921 0.478431
0.679412 0.082353 0.463235
0.737255 0.086275 0.471568
0.015686 0.136336 0.541237
0.015311 0.141061 0.553753
0.018627 0.144118 0.571569
0.063151 0.144118 0.594608
0.200490 0.115135 0.599755
0.486925 0.109582 0.571346
0.666881 0.113281 0.536658
0.776034 0.136275 0.555561
0.845160 0.163235 0.587255
0.011765 0.200123 0.556495
0.011765 0.215901 0.572488
0.028401 0.229810 0.598591
0.068750 0.245588 0.642831
0.253615 0.238725 0.685723
0.587699 0.237377 0.678125
0.756526 0.247518 0.671017
0.860907 0.276854 0.684299
0.923529 0.310907 0.710784
0.011765 0.330392 0.608027
0.011765 0.357514 0.631533
0.038235 0.390809 0.667065
0.078424 0.412561 0.702451
0.231127 0.409069 0.735784
0.586765 0.388036 0.775429
0.788726 0.405882 0.765196
0.898039 0.436274 0.765112
0.949020 0.471078 0.780208
0.011765 0.471079 0.702696
0.028922 0.507384 0.735294
0.055883 0.540686 0.761213
0.125980 0.564369 0.775398
0.249633 0.573039 0.790931
0.549020 0.570680 0.831710
0.796078 0.564706 0.835539
0.911213 0.586520 0.807353
0.949020 0.609804 0.818627
0.023529 0.621752 0.820772
0.044424 0.654228 0.851494
0.100490 0.679764 0.866176
0.192831 0.689997 0.856993
0.318627 0.697457 0.840931
0.562500 0.704036 0.842471
0.771553 0.706985 0.860172
0.910784 0.712255 0.832943
0.945098 0.727758 0.845588
0.036275 0.753064 0.883824
0.070588 0.776256 0.896446
0.139951 0.791207 0.906342
0.231863 0.792157 0.907889
0.402451 0.792157 0.898529
0.621921 0.800567 0.879596
0.767892 0.816422 0.872151
0.910248 0.819608 0.857292
0.942034 0.830392 0.868505
0.059314 0.860785 0.918627
0.097549 0.879840 0.930331
0.173055 0.887255 0.934298
0.258823 0.887477 0.937745
0.408089 0.883333 0.934313
0.639767 0.883785 0.925023
0.793137 0.895206 0.907230
0.895098 0.902941 0.893865
0.948530 0.906862 0.875490
0.090196 0.909804 0.941176
0.132353 0.913725 0.941176
0.205024 0.921569 0.945098
0.285968 0.921569 0.949020
0.458823 0.921569 0.952941
0.659620 0.929412 0.949510
0.800980 0.940808 0.930270
0.895098 0.952941 0.906801
0.941176 0.949020 0.895098
0.015686 0.109804 0.552941
0.015686 0.109804 0.564216
0.015686 0.109804 0.575490
0.048039 0.103431 0.590686
0.117647 0.088235 0.596078
0.388236 0.090196 0.573530
0.573529 0.086275 0.524510
0.687255 0.086765 0.502451
0.745098 0.090196 0.517647
0.011765 0.144118 0.572059
0.011765 0.148530 0.584253
0.015686 0.151961 0.602451
0.059804 0.153248 0.628922
0.175490 0.130147 0.638236
0.476471 0.124019 0.620894
0.665809 0.128799 0.594117
0.783824 0.151899 0.614154
0.852941 0.186274 0.652451
0.011765 0.211764 0.591176
0.011765 0.230024 0.609437
0.026225 0.244363 0.635294
0.067034 0.264338 0.680760
0.225490 0.261765 0.729902
0.576960 0.248162 0.735171
0.752696 0.264951 0.732598
0.869118 0.292647 0.749510
0.931372 0.323529 0.776470
0.011765 0.349510 0.646568
0.011765 0.376655 0.671385
0.037868 0.407353 0.705515
0.077941 0.430392 0.744608
0.213726 0.428431 0.775490
0.543137 0.405024 0.821140
0.782353 0.417157 0.828799
0.905882 0.444118 0.832353
0.952941 0.480392 0.841667
0.011765 0.490196 0.741177
0.027206 0.525000 0.770098
0.055392 0.559804 0.799020
0.122304 0.581618 0.816176
0.238235 0.589216 0.829412
0.515931 0.587010 0.868873
0.770588 0.576470 0.886765
0.911275 0.588481 0.876470
0.952941 0.613725 0.872549
0.025000 0.637255 0.856863
0.044424 0.668137 0.880882
0.098652 0.691790 0.889216
0.186765 0.702451 0.889216
0.289951 0.709069 0.876716
0.537255 0.712684 0.879902
0.744730 0.716789 0.902329
0.902145 0.714400 0.899326
0.945098 0.729902 0.890196
0.036275 0.761765 0.906862
0.071078 0.785171 0.918627
0.143872 0.796079 0.926470
0.232843 0.800000 0.930025
0.384314 0.799019 0.927451
0.595711 0.806863 0.911397
0.747794 0.820343 0.907598
0.884191 0.823530 0.921201
0.941176 0.831373 0.906862
0.063235 0.868138 0.933333
0.101471 0.883762 0.937684
0.177941 0.891176 0.941544
0.262745 0.891176 0.945098
0.415932 0.883824 0.945588
0.636581 0.883824 0.947733
0.784436 0.895098 0.937623
0.879473 0.906862 0.925980
0.941176 0.910784 0.917647
0.094118 0.909804 0.941176
0.140196 0.913725 0.944608
0.209804 0.921569 0.945098
0.289706 0.921569 0.949020
0.466667 0.921569 0.952941
0.662255 0.926961 0.952941
0.800980 0.937255 0.949020
0.895098 0.945098 0.941176
0.937255 0.949020 0.937255
